;FLAVOR:Marlin
;TIME:4121
;Filament used: 3.02913m
;Layer height: 0.2
;MINX:85.444
;MINY:77.964
;MINZ:0.1
;MAXX:124.83
;MAXY:120.952
;MAXZ:59.9
;Generated with Cura_SteamEngine main
M82 ;absolute extrusion mode
;Profil Homepage: https://github.com/NilsRo/Cura_Anycubic_MegaS_Profile

;Slicer Information - (Support for OctoPrint Slicer Estimator)
;Slicer info:material_guid;0ff92885-617b-4144-a03c-9989872454bc
;Slicer info:material_id;generic_pla_175
;Slicer info:material_brand;Generic
;Slicer info:material_name;PLA
;Slicer info:material_bed_temperature;0
;Slicer info:material_bed_temperature_layer_0;0
;Slicer info:material_print_temperature;190.0
;Slicer info:material_print_temperature_layer_0;190.0
;Slicer info:material_flow;100
;Slicer info:layer_height;0.2
;Slicer info:wall_thickness;0.8
;Slicer info:speed_print;30.0
;Slicer info:speed_topbottom;30
;Slicer info:travel_speed;120
;Slicer info:support;0
;Slicer info:retraction_speed;40.0
;Slicer info:retraction_amount;3.0
;Slicer info:layer_height;0.2
;Slicer info:infill_pattern;grid
;Slicer info:infill_sparse_density;100
;Slicer info:cool_fan_enabled;True
;Slicer info:cool_fan_speed;50
;Slicer info:sliced_at;Wed 14-12-2022 12:18:43
G21                                        ; metric values 
G90                                        ; absolute positioning 
M82                                        ; set extruder to absolute mode 
M107                                       ; start with the fan off 
M140 S0   ; Start heating the bed 
G4 S60                                     ; wait 1 minute 
M104 S190.0 ; start heating the hot end 
M190 S0   ; wait for bed 
M109 S190.0 ; wait for hotend 
M300 S1000 P500                            ; BEEP heating done 
G28 X0 Y10 Z0                              ; move X/Y to min endstops 
M420 S1                                    ; Enable leveling 
M420 Z2.0                                  ; Set leveling fading height to 2 mm 
G0 Z0.15                                   ; lift nozzle a bit 
G92 E0                                     ; zero the extruded length 
G1 X50 E20 F500                            ; Extrude 20mm of filament in a 5cm line. 
G92 E0                                     ; zero the extruded length again 
G1 E-2 F500                                ; Retract a little 
G1 X120 F4000                              ; Quickly wipe away from the filament line`
G92 E0
G92 E0
G1 F2400 E-3
;LAYER_COUNT:301
;LAYER:0
M107
G0 F6000 X88.32 Y89.442 Z0.1
G0 X85.444 Y96.074
;TYPE:SKIRT
G1 F2400 E0
G1 F1200 X85.52 Y95.275 E0.01735
G1 X85.675 Y94.488 E0.03469
G1 X85.829 Y93.951 E0.04677
G1 X86.201 Y92.803 E0.07286
G1 X86.486 Y92.053 E0.0902
G1 X86.844 Y91.335 E0.10755
G1 X87.272 Y90.656 E0.1249
G1 X87.766 Y90.023 E0.14226
G1 X88.32 Y89.442 E0.15962
G1 X89.123 Y88.773 E0.18221
G1 X90.102 Y88.06 E0.2084
G1 X90.774 Y87.62 E0.22576
G1 X91.486 Y87.249 E0.24312
G1 X92.231 Y86.951 E0.26046
G1 X93.002 Y86.729 E0.27781
G1 X93.792 Y86.584 E0.29517
G1 X94.197 Y86.559 E0.30395
G1 X94.879 Y85.756 E0.32672
G1 X95.456 Y85.198 E0.34408
G1 X95.852 Y84.874 E0.35514
G1 X97.096 Y83.92 E0.38903
G1 X97.757 Y83.464 E0.40639
G1 X98.459 Y83.076 E0.42373
G1 X98.917 Y82.869 E0.4346
G1 X100.361 Y82.271 E0.46839
G1 X101.117 Y82.001 E0.48574
G1 X101.896 Y81.808 E0.50309
G1 X102.365 Y81.731 E0.51337
G1 X102.566 Y81.473 E0.52044
G1 X103.12 Y80.892 E0.53779
G1 X103.925 Y80.222 E0.56044
G1 X104.904 Y79.509 E0.58662
G1 X105.576 Y79.069 E0.60398
G1 X106.288 Y78.698 E0.62134
G1 X107.033 Y78.4 E0.63869
G1 X107.804 Y78.178 E0.65603
G1 X108.594 Y78.033 E0.6734
G1 X109.649 Y77.964 E0.69626
G1 X110.859 Y77.964 E0.72241
G1 X111.661 Y78.004 E0.73977
G1 X112.455 Y78.124 E0.75713
G1 X113.233 Y78.321 E0.77449
G1 X113.987 Y78.596 E0.79184
G1 X114.71 Y78.944 E0.80918
G1 X115.396 Y79.362 E0.82655
G1 X116.004 Y79.819 E0.84299
G1 X118.708 Y82.061 E0.91893
G1 X119.299 Y82.604 E0.93628
G1 X119.834 Y83.203 E0.95365
G1 X120.152 Y83.625 E0.96507
G1 X121.379 Y85.367 E1.01114
G1 X121.808 Y86.045 E1.02848
G1 X122.168 Y86.763 E1.04585
G1 X122.454 Y87.511 E1.06316
G1 X123.441 Y90.542 E1.13207
G1 X123.922 Y91.466 E1.15459
G1 X124.256 Y92.195 E1.17193
G1 X124.516 Y92.955 E1.18929
G1 X124.7 Y93.736 E1.20664
G1 X124.805 Y94.532 E1.224
G1 X124.83 Y95.335 E1.24137
G1 X124.775 Y96.135 E1.2587
G1 X124.641 Y96.927 E1.27607
G1 X124.428 Y97.701 E1.29342
G1 X124.019 Y98.711 E1.31698
G1 X123.681 Y99.406 E1.33369
G1 X122.577 Y103.401 E1.42329
G1 X122.325 Y104.163 E1.44065
G1 X121.998 Y104.896 E1.458
G1 X121.6 Y105.593 E1.47535
G1 X121.135 Y106.248 E1.49272
G1 X120.451 Y107.009 E1.51484
G1 X119.829 Y107.619 E1.53367
G1 X119.532 Y108.087 E1.54566
G1 X119.036 Y108.718 E1.56301
G1 X118.48 Y109.297 E1.58036
G1 X117.698 Y109.947 E1.60234
G1 X115.125 Y111.822 E1.67117
G1 X115.009 Y112.558 E1.68728
G1 X114.783 Y113.406 E1.70625
G1 X114.409 Y114.555 E1.73238
G1 X114.123 Y115.305 E1.74973
G1 X113.764 Y116.023 E1.76709
G1 X113.335 Y116.701 E1.78443
G1 X112.84 Y117.334 E1.8018
G1 X112.286 Y117.914 E1.81914
G1 X111.618 Y118.48 E1.83807
G1 X110.522 Y119.312 E1.86782
G1 X109.86 Y119.765 E1.88516
G1 X109.155 Y120.149 E1.90252
G1 X108.416 Y120.462 E1.91987
G1 X107.649 Y120.7 E1.93723
G1 X106.862 Y120.86 E1.95459
G1 X105.956 Y120.952 E1.97428
G1 X104.439 Y120.952 E2.00708
G1 X103.637 Y120.912 E2.02444
G1 X102.843 Y120.792 E2.0418
G1 X102.065 Y120.595 E2.05915
G1 X101.311 Y120.32 E2.0765
G1 X100.588 Y119.972 E2.09385
G1 X99.697 Y119.41 E2.11662
G1 X98.717 Y118.697 E2.14282
G1 X98.092 Y118.193 E2.16018
G1 X97.521 Y117.629 E2.17753
G1 X97.008 Y117.011 E2.19489
G1 X96.559 Y116.346 E2.21224
G1 X96.179 Y115.639 E2.22959
G1 X95.871 Y114.897 E2.24696
G1 X95.665 Y114.232 E2.26201
G1 X95.251 Y112.66 E2.29716
G1 X95.112 Y112.001 E2.31172
G1 X94.62 Y111.693 E2.32427
G1 X91.754 Y109.464 E2.40276
G1 X91.145 Y108.94 E2.42013
G1 X90.436 Y108.172 E2.44272
G1 X89.066 Y106.479 E2.48981
G1 X88.593 Y105.831 E2.50715
G1 X88.187 Y105.139 E2.5245
G1 X87.771 Y104.201 E2.54668
G1 X85.935 Y99.228 E2.66129
G1 X85.695 Y98.462 E2.67864
G1 X85.532 Y97.675 E2.69602
G1 X85.448 Y96.877 E2.71336
G1 X85.444 Y96.074 E2.73072
G0 F6000 X85.964 Y96.772
G1 F1200 X85.969 Y95.996 E2.7475
G1 X86.054 Y95.224 E2.76429
G1 X86.323 Y94.112 E2.78902
G1 X86.695 Y92.964 E2.81511
G1 X86.972 Y92.238 E2.83191
G1 X87.322 Y91.545 E2.8487
G1 X87.742 Y90.892 E2.86548
G1 X88.226 Y90.286 E2.88225
G1 X88.771 Y89.732 E2.89905
G1 X89.429 Y89.193 E2.91744
G1 X90.408 Y88.48 E2.94362
G1 X91.058 Y88.056 E2.9604
G1 X91.749 Y87.701 E2.9772
G1 X92.472 Y87.419 E2.99397
G1 X93.221 Y87.212 E3.01077
G1 X93.986 Y87.084 E3.02754
G1 X94.453 Y87.059 E3.03765
G1 X95.275 Y86.093 E3.06507
G1 X95.919 Y85.478 E3.08432
G1 X97.413 Y84.333 E3.12502
G1 X98.052 Y83.893 E3.14179
G1 X98.831 Y83.468 E3.16098
G1 X100.56 Y82.752 E3.20143
G1 X101.292 Y82.492 E3.21823
G1 X102.046 Y82.309 E3.235
G1 X102.642 Y82.219 E3.24803
G1 X103.027 Y81.736 E3.26139
G1 X103.571 Y81.182 E3.27817
G1 X104.231 Y80.642 E3.29661
G1 X105.21 Y79.929 E3.32279
G1 X105.86 Y79.505 E3.33957
G1 X106.551 Y79.15 E3.35636
G1 X107.274 Y78.868 E3.37314
G1 X108.023 Y78.661 E3.38994
G1 X108.788 Y78.533 E3.40671
G1 X109.649 Y78.484 E3.42535
G1 X110.859 Y78.484 E3.45151
G1 X111.634 Y78.524 E3.46829
G1 X112.402 Y78.643 E3.48509
G1 X113.152 Y78.841 E3.50186
G1 X113.879 Y79.115 E3.51866
G1 X114.573 Y79.462 E3.53543
G1 X115.228 Y79.879 E3.55222
G1 X115.672 Y80.22 E3.56432
G1 X118.376 Y82.462 E3.64026
G1 X118.947 Y82.987 E3.65703
G1 X119.54 Y83.658 E3.67639
G1 X120.954 Y85.666 E3.72948
G1 X121.368 Y86.323 E3.74627
G1 X121.712 Y87.019 E3.76306
G1 X121.959 Y87.672 E3.77815
G1 X122.96 Y90.745 E3.84802
G1 X123.46 Y91.706 E3.87144
G1 X123.783 Y92.412 E3.88823
G1 X124.031 Y93.148 E3.90502
G1 X124.202 Y93.905 E3.92179
G1 X124.294 Y94.676 E3.93858
G1 X124.306 Y95.452 E3.95536
G1 X124.239 Y96.226 E3.97216
G1 X124.092 Y96.988 E3.98893
G1 X123.868 Y97.732 E4.00573
G1 X123.551 Y98.483 E4.02335
G1 X123.194 Y99.218 E4.04102
G1 X122.076 Y103.262 E4.13173
G1 X121.831 Y103.999 E4.14852
G1 X121.511 Y104.707 E4.16531
G1 X121.12 Y105.378 E4.1821
G1 X120.663 Y106.005 E4.19888
G1 X120.087 Y106.638 E4.21738
G1 X119.427 Y107.285 E4.23736
G1 X119.063 Y107.849 E4.25187
G1 X118.576 Y108.454 E4.26866
G1 X118.03 Y109.006 E4.28545
G1 X117.392 Y109.526 E4.30324
G1 X114.65 Y111.524 E4.37659
G1 X114.484 Y112.526 E4.39855
G1 X114.289 Y113.245 E4.41465
G1 X113.915 Y114.394 E4.44078
G1 X113.637 Y115.119 E4.45756
G1 X113.286 Y115.811 E4.47434
G1 X112.865 Y116.464 E4.49113
G1 X112.38 Y117.07 E4.50792
G1 X111.835 Y117.623 E4.5247
G1 X111.304 Y118.066 E4.53965
G1 X110.208 Y118.898 E4.5694
G1 X109.566 Y119.335 E4.58619
G1 X108.883 Y119.703 E4.60296
G1 X108.165 Y120 E4.61976
G1 X107.421 Y120.221 E4.63654
G1 X106.658 Y120.364 E4.65332
G1 X105.649 Y120.432 E4.67518
G1 X104.439 Y120.432 E4.70134
G1 X103.664 Y120.392 E4.71812
G1 X102.896 Y120.273 E4.73492
G1 X102.146 Y120.075 E4.75169
G1 X101.419 Y119.801 E4.76849
G1 X100.725 Y119.454 E4.78526
G1 X100.003 Y118.989 E4.80383
G1 X99.023 Y118.276 E4.83003
G1 X98.42 Y117.788 E4.8468
G1 X97.87 Y117.24 E4.86359
G1 X97.379 Y116.638 E4.88038
G1 X96.952 Y115.989 E4.89718
G1 X96.595 Y115.3 E4.91395
G1 X96.259 Y114.445 E4.93381
G1 X95.754 Y112.527 E4.97669
G1 X95.577 Y111.68 E4.9954
G1 X94.692 Y111.091 E5.01838
G1 X92.073 Y109.054 E5.09011
G1 X91.485 Y108.546 E5.10691
G1 X90.841 Y107.845 E5.12749
G1 X89.471 Y106.152 E5.17457
G1 X89.014 Y105.524 E5.19136
G1 X88.624 Y104.853 E5.20814
G1 X88.259 Y104.02 E5.2278
G1 X86.423 Y99.047 E5.34241
G1 X86.192 Y98.306 E5.35919
G1 X86.038 Y97.545 E5.37598
G1 X85.964 Y96.772 E5.39276
G0 F6000 X86.48 Y96.67
G1 F1200 X86.495 Y95.921 E5.40896
G1 X86.59 Y95.178 E5.42515
G1 X86.818 Y94.272 E5.44535
G1 X87.19 Y93.124 E5.47144
G1 X87.458 Y92.425 E5.48762
G1 X87.8 Y91.758 E5.50383
G1 X88.211 Y91.131 E5.52004
G1 X88.686 Y90.552 E5.53623
G1 X89.22 Y90.027 E5.55242
G1 X89.735 Y89.613 E5.5667
G1 X90.714 Y88.9 E5.59289
G1 X91.342 Y88.492 E5.60908
G1 X92.011 Y88.154 E5.62528
G1 X92.711 Y87.888 E5.64147
G1 X93.436 Y87.698 E5.65767
G1 X94.177 Y87.587 E5.67387
G1 X94.755 Y87.561 E5.68638
G1 X95.185 Y87 E5.70166
G1 X95.672 Y86.431 E5.71785
G1 X96.485 Y85.699 E5.7415
G1 X97.729 Y84.745 E5.7754
G1 X98.347 Y84.322 E5.79159
G1 X99.315 Y83.83 E5.81506
G1 X100.759 Y83.232 E5.84885
G1 X101.465 Y82.983 E5.86504
G1 X102.94 Y82.671 E5.89763
G1 X103.487 Y82.003 E5.91629
G1 X104.021 Y81.477 E5.9325
G1 X104.537 Y81.062 E5.94682
G1 X105.516 Y80.349 E5.973
G1 X106.144 Y79.941 E5.98919
G1 X106.813 Y79.603 E6.00539
G1 X107.513 Y79.337 E6.02158
G1 X108.238 Y79.147 E6.03779
G1 X108.979 Y79.036 E6.05398
G1 X109.649 Y79.004 E6.06849
G1 X110.859 Y79.004 E6.09464
G1 X111.607 Y79.044 E6.11084
G1 X112.347 Y79.163 E6.12704
G1 X113.069 Y79.361 E6.14323
G1 X113.767 Y79.634 E6.15943
G1 X114.431 Y79.981 E6.17563
G1 X115.34 Y80.62 E6.19965
G1 X118.044 Y82.862 E6.27559
G1 X118.594 Y83.37 E6.29177
G1 X119.302 Y84.224 E6.31576
G1 X120.529 Y85.966 E6.36182
G1 X120.927 Y86.6 E6.37801
G1 X121.256 Y87.274 E6.39422
G1 X121.465 Y87.834 E6.40714
G1 X122.479 Y90.946 E6.4779
G1 X122.999 Y91.946 E6.50227
G1 X123.309 Y92.628 E6.51847
G1 X123.544 Y93.339 E6.53465
G1 X123.702 Y94.071 E6.55084
G1 X123.781 Y94.816 E6.56704
G1 X123.781 Y95.565 E6.58323
G1 X123.7 Y96.31 E6.59943
G1 X123.541 Y97.042 E6.61563
G1 X123.304 Y97.753 E6.63183
G1 X123.084 Y98.256 E6.6437
G1 X122.702 Y99.04 E6.66255
G1 X121.574 Y103.124 E6.75415
G1 X121.337 Y103.834 E6.77033
G1 X121.024 Y104.515 E6.78654
G1 X120.642 Y105.159 E6.80273
G1 X120.192 Y105.758 E6.81892
G1 X119.723 Y106.267 E6.83389
G1 X119.022 Y106.955 E6.85512
G1 X118.595 Y107.608 E6.87199
G1 X118.118 Y108.186 E6.88819
G1 X117.582 Y108.709 E6.90438
G1 X117.086 Y109.106 E6.91811
G1 X114.121 Y111.261 E6.99736
G1 X114.088 Y111.754 E7.00804
G1 X113.959 Y112.492 E7.02424
G1 X113.794 Y113.084 E7.03752
G1 X113.42 Y114.233 E7.06365
G1 X113.151 Y114.932 E7.07984
G1 X112.808 Y115.598 E7.09603
G1 X112.397 Y116.224 E7.11222
G1 X111.921 Y116.803 E7.12843
G1 X111.386 Y117.327 E7.14462
G1 X110.99 Y117.651 E7.15568
G1 X109.894 Y118.483 E7.18543
G1 X109.274 Y118.904 E7.20163
G1 X108.612 Y119.256 E7.21784
G1 X107.917 Y119.535 E7.23403
G1 X107.196 Y119.739 E7.25023
G1 X106.458 Y119.865 E7.26641
G1 X105.649 Y119.912 E7.28393
G1 X104.439 Y119.912 E7.31009
G1 X103.691 Y119.872 E7.32629
G1 X102.951 Y119.753 E7.34249
G1 X102.229 Y119.555 E7.35868
G1 X101.531 Y119.282 E7.37488
G1 X100.867 Y118.935 E7.39108
G1 X100.309 Y118.569 E7.4055
G1 X99.329 Y117.856 E7.4317
G1 X98.748 Y117.383 E7.4479
G1 X98.22 Y116.851 E7.46411
G1 X97.752 Y116.267 E7.48028
G1 X97.349 Y115.635 E7.49649
G1 X97.015 Y114.964 E7.51269
G1 X96.67 Y113.967 E7.5355
G1 X96.256 Y112.395 E7.57065
G1 X96.046 Y111.372 E7.59322
G1 X95.011 Y110.68 E7.62014
G1 X92.392 Y108.643 E7.69187
G1 X91.826 Y108.152 E7.70807
G1 X91.245 Y107.518 E7.72666
G1 X89.875 Y105.825 E7.77374
G1 X89.435 Y105.218 E7.78995
G1 X89.063 Y104.568 E7.80614
G1 X88.746 Y103.84 E7.82331
G1 X86.91 Y98.867 E7.93791
G1 X86.689 Y98.152 E7.95409
G1 X86.545 Y97.417 E7.97028
G1 X86.48 Y96.67 E7.9865
G0 F6000 X86.997 Y96.571
G1 F1200 X87.022 Y95.851 E8.00207
G1 X87.127 Y95.138 E8.01765
G1 X87.313 Y94.432 E8.03344
G1 X87.685 Y93.284 E8.05952
G1 X87.944 Y92.612 E8.07509
G1 X88.277 Y91.973 E8.09067
G1 X88.679 Y91.374 E8.10627
G1 X89.144 Y90.823 E8.12185
G1 X89.766 Y90.234 E8.14037
G1 X91.02 Y89.321 E8.17391
G1 X91.626 Y88.929 E8.18951
G1 X92.271 Y88.607 E8.2051
G1 X92.947 Y88.359 E8.22066
G1 X93.647 Y88.187 E8.23625
G1 X94.362 Y88.093 E8.25184
G1 X95.017 Y88.076 E8.266
G1 X95.598 Y87.317 E8.28667
G1 X96.067 Y86.77 E8.30225
G1 X96.801 Y86.112 E8.32356
G1 X98.045 Y85.158 E8.35745
G1 X98.641 Y84.752 E8.37304
G1 X99.514 Y84.311 E8.39418
G1 X100.958 Y83.713 E8.42797
G1 X101.638 Y83.474 E8.44356
G1 X102.595 Y83.274 E8.46469
G1 X103.235 Y83.19 E8.47865
G1 X103.48 Y82.824 E8.48817
G1 X103.945 Y82.274 E8.50374
G1 X104.567 Y81.684 E8.52227
G1 X105.822 Y80.77 E8.55584
G1 X106.428 Y80.378 E8.57144
G1 X107.073 Y80.056 E8.58703
G1 X107.749 Y79.808 E8.60259
G1 X108.449 Y79.636 E8.61818
G1 X109.301 Y79.524 E8.63676
G1 X110.859 Y79.524 E8.67044
G1 X111.579 Y79.564 E8.68603
G1 X112.29 Y79.683 E8.70161
G1 X112.983 Y79.881 E8.71719
G1 X113.65 Y80.154 E8.73278
G1 X114.283 Y80.499 E8.74836
G1 X115.008 Y81.02 E8.76766
G1 X117.712 Y83.262 E8.8436
G1 X118.24 Y83.752 E8.85917
G1 X118.877 Y84.523 E8.8808
G1 X120.104 Y86.265 E8.92686
G1 X120.486 Y86.876 E8.94244
G1 X120.858 Y87.65 E8.961
G1 X121.996 Y91.143 E9.04043
G1 X122.538 Y92.186 E9.06584
G1 X122.834 Y92.843 E9.08142
G1 X123.056 Y93.528 E9.09698
G1 X123.201 Y94.234 E9.11257
G1 X123.267 Y94.952 E9.12815
G1 X123.253 Y95.673 E9.14374
G1 X123.159 Y96.388 E9.15933
G1 X122.986 Y97.088 E9.17492
G1 X122.616 Y98.028 E9.19676
G1 X122.215 Y98.852 E9.21657
G1 X121.073 Y102.985 E9.30927
G1 X120.843 Y103.668 E9.32485
G1 X120.539 Y104.322 E9.34045
G1 X120.164 Y104.937 E9.35602
G1 X119.723 Y105.508 E9.37162
G1 X119.358 Y105.895 E9.38312
G1 X118.597 Y106.641 E9.40616
G1 X118.531 Y106.767 E9.40923
G1 X118.128 Y107.364 E9.4248
G1 X117.66 Y107.913 E9.4404
G1 X117.043 Y108.494 E9.45872
G1 X113.621 Y110.987 E9.55025
G1 X113.565 Y111.746 E9.56671
G1 X113.407 Y112.595 E9.58538
G1 X112.926 Y114.072 E9.61896
G1 X112.665 Y114.744 E9.63454
G1 X112.331 Y115.383 E9.65013
G1 X111.929 Y115.981 E9.66571
G1 X111.463 Y116.531 E9.68129
G1 X110.675 Y117.237 E9.70417
G1 X109.579 Y118.069 E9.73391
G1 X108.982 Y118.473 E9.7495
G1 X108.343 Y118.807 E9.76509
G1 X107.672 Y119.069 E9.78066
G1 X106.975 Y119.255 E9.79626
G1 X106.263 Y119.363 E9.81182
G1 X105.649 Y119.392 E9.82511
G1 X104.439 Y119.392 E9.85127
G1 X103.719 Y119.352 E9.86686
G1 X103.008 Y119.233 E9.88245
G1 X102.315 Y119.035 E9.89803
G1 X101.648 Y118.762 E9.91361
G1 X100.894 Y118.351 E9.93217
G1 X99.635 Y117.435 E9.96584
G1 X99.076 Y116.979 E9.98143
G1 X98.572 Y116.465 E9.99699
G1 X98.127 Y115.897 E10.01259
G1 X97.748 Y115.284 E10.02817
G1 X97.44 Y114.632 E10.04376
G1 X97.173 Y113.834 E10.06196
G1 X96.759 Y112.262 E10.0971
G1 X96.615 Y111.556 E10.11268
G1 X96.566 Y111.018 E10.12436
