;FLAVOR:Marlin
;TIME:15026
;Filament used: 12.7552m
;Layer height: 0.2
;MINX:32.94
;MINY:36.441
;MINZ:0.1
;MAXX:177.06
;MAXY:173.559
;MAXZ:31.175
;Generated with Cura_SteamEngine main
M82 ;absolute extrusion mode
;Profil Homepage: https://github.com/NilsRo/Cura_Anycubic_MegaS_Profile

;Slicer Information - (Support for OctoPrint Slicer Estimator)
;Slicer info:material_guid;0ff92885-617b-4144-a03c-9989872454bc
;Slicer info:material_id;generic_pla_175
;Slicer info:material_brand;Generic
;Slicer info:material_name;PLA
;Slicer info:material_bed_temperature;0
;Slicer info:material_bed_temperature_layer_0;0
;Slicer info:material_print_temperature;190.0
;Slicer info:material_print_temperature_layer_0;190.0
;Slicer info:material_flow;100
;Slicer info:layer_height;0.2
;Slicer info:wall_thickness;0.8
;Slicer info:speed_print;30.0
;Slicer info:speed_topbottom;30
;Slicer info:travel_speed;120
;Slicer info:support;0
;Slicer info:retraction_speed;40.0
;Slicer info:retraction_amount;3.0
;Slicer info:layer_height;0.2
;Slicer info:infill_pattern;grid
;Slicer info:infill_sparse_density;20.0
;Slicer info:cool_fan_enabled;True
;Slicer info:cool_fan_speed;50
;Slicer info:sliced_at;Thu 13-10-2022 12:08:26
G21                                        ; metric values 
G90                                        ; absolute positioning 
M82                                        ; set extruder to absolute mode 
M107                                       ; start with the fan off 
M140 S0   ; Start heating the bed 
G4 S60                                     ; wait 1 minute 
M104 S190.0 ; start heating the hot end 
M190 S0   ; wait for bed 
M109 S190.0 ; wait for hotend 
M300 S1000 P500                            ; BEEP heating done 
G28 X0 Y10 Z0                              ; move X/Y to min endstops 
M420 S1                                    ; Enable leveling 
M420 Z2.0                                  ; Set leveling fading height to 2 mm 
G0 Z0.15                                   ; lift nozzle a bit 
G92 E0                                     ; zero the extruded length 
G1 X50 E20 F500                            ; Extrude 20mm of filament in a 5cm line. 
G92 E0                                     ; zero the extruded length again 
G1 E-2 F500                                ; Retract a little 
G1 X120 F4000                              ; Quickly wipe away from the filament line`
G92 E0
G92 E0
G1 F2400 E-3
;LAYER_COUNT:156
;LAYER:0
M107
G1 F300 Z0.175
G0 F6000 X35.368 Y38.735 Z0.175
G1 F300 Z0.175
G0 F6000 X32.94 Y44.501
;TYPE:SKIRT
G1 F300 Z0.1
G1 F2400 E0
G1 F1200 X32.98 Y43.699 E0.01736
G1 X33.1 Y42.905 E0.03472
G1 X33.297 Y42.127 E0.05207
G1 X33.572 Y41.373 E0.06942
G1 X33.92 Y40.65 E0.08677
G1 X34.338 Y39.964 E0.10414
G1 X34.822 Y39.324 E0.12148
G1 X35.368 Y38.735 E0.13885
G1 X35.969 Y38.204 E0.15618
G1 X36.621 Y37.735 E0.17355
G1 X37.315 Y37.333 E0.19089
G1 X38.047 Y37.002 E0.20826
G1 X38.807 Y36.745 E0.2256
G1 X39.59 Y36.565 E0.24297
G1 X40.386 Y36.464 E0.26032
G1 X41 Y36.441 E0.2736
G1 X63.997 Y36.441 E0.77077
G1 X64.799 Y36.481 E0.78813
G1 X65.593 Y36.601 E0.80549
G1 X66.371 Y36.798 E0.82284
G1 X67.125 Y37.073 E0.8402
G1 X67.848 Y37.421 E0.85754
G1 X68.534 Y37.839 E0.87491
G1 X69.174 Y38.323 E0.89226
G1 X69.763 Y38.869 E0.90962
G1 X70.294 Y39.47 E0.92696
G1 X70.763 Y40.122 E0.94432
G1 X71.165 Y40.816 E0.96166
G1 X71.496 Y41.548 E0.97903
G1 X71.753 Y42.308 E0.99637
G1 X71.933 Y43.091 E1.01374
G1 X72.034 Y43.887 E1.03109
G1 X72.057 Y44.501 E1.04437
G1 X72.057 Y138.442 E3.07529
G1 X142.943 Y138.442 E4.60778
G1 X142.943 Y44.501 E6.6387
G1 X142.983 Y43.699 E6.65606
G1 X143.103 Y42.905 E6.67342
G1 X143.3 Y42.127 E6.69077
G1 X143.575 Y41.373 E6.70812
G1 X143.923 Y40.65 E6.72547
G1 X144.341 Y39.964 E6.74284
G1 X144.825 Y39.324 E6.76018
G1 X145.371 Y38.735 E6.77755
G1 X145.972 Y38.204 E6.79488
G1 X146.624 Y37.735 E6.81225
G1 X147.318 Y37.333 E6.82959
G1 X148.05 Y37.002 E6.84696
G1 X148.81 Y36.745 E6.8643
G1 X149.593 Y36.565 E6.88167
G1 X150.389 Y36.464 E6.89902
G1 X151.003 Y36.441 E6.9123
G1 X169 Y36.441 E7.30138
G1 X169.802 Y36.481 E7.31874
G1 X170.596 Y36.601 E7.3361
G1 X171.374 Y36.798 E7.35345
G1 X172.128 Y37.073 E7.3708
G1 X172.851 Y37.421 E7.38815
G1 X173.537 Y37.839 E7.40551
G1 X174.177 Y38.323 E7.42286
G1 X174.766 Y38.869 E7.44022
G1 X175.297 Y39.47 E7.45756
G1 X175.766 Y40.122 E7.47493
G1 X176.168 Y40.816 E7.49227
G1 X176.499 Y41.548 E7.50963
G1 X176.756 Y42.308 E7.52698
G1 X176.936 Y43.091 E7.54435
G1 X177.037 Y43.887 E7.56169
G1 X177.06 Y44.501 E7.57498
G1 X177.06 Y165.499 E10.19084
G1 X177.02 Y166.301 E10.2082
G1 X176.9 Y167.095 E10.22556
G1 X176.703 Y167.873 E10.24291
G1 X176.428 Y168.627 E10.26027
G1 X176.08 Y169.35 E10.27761
G1 X175.662 Y170.036 E10.29498
G1 X175.178 Y170.676 E10.31233
G1 X174.632 Y171.265 E10.32969
G1 X174.031 Y171.796 E10.34703
G1 X173.379 Y172.265 E10.36439
G1 X172.685 Y172.667 E10.38173
G1 X171.953 Y172.998 E10.3991
G1 X171.193 Y173.255 E10.41644
G1 X170.41 Y173.435 E10.43381
G1 X169.614 Y173.536 E10.45116
G1 X169 Y173.559 E10.46444
G1 X41 Y173.559 E13.23169
G1 X40.198 Y173.519 E13.24905
G1 X39.404 Y173.399 E13.26641
G1 X38.626 Y173.202 E13.28376
G1 X37.872 Y172.927 E13.30111
G1 X37.149 Y172.579 E13.31845
G1 X36.463 Y172.161 E13.33582
G1 X35.823 Y171.677 E13.35317
G1 X35.234 Y171.131 E13.37053
G1 X34.703 Y170.53 E13.38787
G1 X34.234 Y169.878 E13.40523
G1 X33.832 Y169.184 E13.42257
G1 X33.501 Y168.452 E13.43994
G1 X33.244 Y167.692 E13.45729
G1 X33.064 Y166.909 E13.47465
G1 X32.963 Y166.113 E13.492
G1 X32.94 Y165.499 E13.50528
G1 X32.94 Y44.501 E16.12115
G0 F6000 X33.46 Y44.501
G1 F1200 X33.5 Y43.726 E16.13793
G1 X33.619 Y42.958 E16.15473
G1 X33.817 Y42.208 E16.1715
G1 X34.091 Y41.481 E16.1883
G1 X34.438 Y40.787 E16.20507
G1 X34.855 Y40.132 E16.22186
G1 X35.337 Y39.523 E16.23865
G1 X35.879 Y38.967 E16.25543
G1 X36.475 Y38.47 E16.27221
G1 X37.119 Y38.036 E16.289
G1 X37.805 Y37.672 E16.30579
G1 X38.524 Y37.379 E16.32258
G1 X39.269 Y37.162 E16.33935
G1 X40.033 Y37.023 E16.35614
G1 X41 Y36.961 E16.37709
G1 X63.997 Y36.961 E16.87426
G1 X64.772 Y37.001 E16.89104
G1 X65.54 Y37.12 E16.90784
G1 X66.29 Y37.318 E16.92461
G1 X67.017 Y37.592 E16.94141
G1 X67.711 Y37.939 E16.95818
G1 X68.366 Y38.356 E16.97497
G1 X68.975 Y38.838 E16.99176
G1 X69.531 Y39.38 E17.00854
G1 X70.028 Y39.976 E17.02532
G1 X70.462 Y40.62 E17.04211
G1 X70.826 Y41.306 E17.0589
G1 X71.119 Y42.025 E17.07569
G1 X71.336 Y42.77 E17.09246
G1 X71.475 Y43.534 E17.10925
G1 X71.537 Y44.501 E17.1302
G1 X71.537 Y138.962 E19.17236
G1 X143.463 Y138.962 E20.72733
G1 X143.463 Y44.501 E22.76949
G1 X143.503 Y43.726 E22.78627
G1 X143.622 Y42.958 E22.80307
G1 X143.82 Y42.208 E22.81984
G1 X144.094 Y41.481 E22.83664
G1 X144.441 Y40.787 E22.85341
G1 X144.858 Y40.132 E22.8702
G1 X145.34 Y39.523 E22.88699
G1 X145.882 Y38.967 E22.90378
G1 X146.478 Y38.47 E22.92055
G1 X147.122 Y38.036 E22.93734
G1 X147.808 Y37.672 E22.95413
G1 X148.527 Y37.379 E22.97092
G1 X149.272 Y37.162 E22.98769
G1 X150.036 Y37.023 E23.00448
G1 X151.003 Y36.961 E23.02543
G1 X169 Y36.961 E23.41451
G1 X169.775 Y37.001 E23.43129
G1 X170.543 Y37.12 E23.44809
G1 X171.293 Y37.318 E23.46486
G1 X172.02 Y37.592 E23.48165
G1 X172.714 Y37.939 E23.49843
G1 X173.369 Y38.356 E23.51521
G1 X173.978 Y38.838 E23.53201
G1 X174.534 Y39.38 E23.54879
G1 X175.031 Y39.976 E23.56557
G1 X175.465 Y40.62 E23.58236
G1 X175.829 Y41.306 E23.59915
G1 X176.122 Y42.025 E23.61593
G1 X176.339 Y42.77 E23.63271
G1 X176.478 Y43.534 E23.6495
G1 X176.54 Y44.501 E23.67044
G1 X176.54 Y165.499 E26.28631
G1 X176.5 Y166.274 E26.30309
G1 X176.381 Y167.042 E26.31989
G1 X176.183 Y167.792 E26.33666
G1 X175.909 Y168.519 E26.35346
G1 X175.562 Y169.213 E26.37023
G1 X175.145 Y169.868 E26.38702
G1 X174.663 Y170.477 E26.40381
G1 X174.121 Y171.033 E26.42059
G1 X173.525 Y171.53 E26.43737
G1 X172.881 Y171.964 E26.45416
G1 X172.195 Y172.328 E26.47095
G1 X171.476 Y172.621 E26.48774
G1 X170.731 Y172.838 E26.50451
G1 X169.967 Y172.977 E26.5213
G1 X169 Y173.039 E26.54225
G1 X41 Y173.039 E29.30949
G1 X40.225 Y172.999 E29.32627
G1 X39.457 Y172.88 E29.34307
G1 X38.707 Y172.682 E29.35984
G1 X37.98 Y172.408 E29.37664
G1 X37.286 Y172.061 E29.39341
G1 X36.631 Y171.644 E29.4102
G1 X36.022 Y171.162 E29.42699
G1 X35.466 Y170.62 E29.44377
G1 X34.969 Y170.024 E29.46055
G1 X34.535 Y169.38 E29.47734
G1 X34.171 Y168.694 E29.49413
G1 X33.878 Y167.975 E29.51091
G1 X33.661 Y167.23 E29.52769
G1 X33.522 Y166.466 E29.54448
G1 X33.46 Y165.499 E29.56543
G1 X33.46 Y44.501 E32.18129
G0 F6000 X33.98 Y44.501
G1 F1200 X34.02 Y43.753 E32.19749
G1 X34.139 Y43.013 E32.21369
G1 X34.337 Y42.291 E32.22988
G1 X34.61 Y41.593 E32.24608
G1 X34.957 Y40.929 E32.26228
G1 X35.372 Y40.305 E32.27848
G1 X35.851 Y39.73 E32.29466
G1 X36.389 Y39.208 E32.31086
G1 X36.979 Y38.747 E32.32705
G1 X37.615 Y38.351 E32.34325
G1 X38.29 Y38.025 E32.35945
G1 X38.995 Y37.773 E32.37564
G1 X39.724 Y37.598 E32.39185
G1 X40.466 Y37.501 E32.40803
G1 X41 Y37.481 E32.41958
G1 X63.997 Y37.481 E32.91675
G1 X64.745 Y37.521 E32.93295
G1 X65.485 Y37.64 E32.94915
G1 X66.207 Y37.838 E32.96534
G1 X66.905 Y38.111 E32.98154
G1 X67.569 Y38.458 E32.99774
G1 X68.193 Y38.873 E33.01394
G1 X68.768 Y39.352 E33.03012
G1 X69.29 Y39.89 E33.04632
G1 X69.751 Y40.48 E33.06251
G1 X70.147 Y41.116 E33.07871
G1 X70.473 Y41.791 E33.09491
G1 X70.725 Y42.496 E33.1111
G1 X70.9 Y43.225 E33.12731
G1 X70.997 Y43.967 E33.14348
G1 X71.017 Y44.501 E33.15504
G1 X71.017 Y139.482 E35.20844
G1 X143.983 Y139.482 E36.7859
G1 X143.983 Y44.501 E38.8393
G1 X144.023 Y43.753 E38.85549
G1 X144.142 Y43.013 E38.8717
G1 X144.34 Y42.291 E38.88788
G1 X144.613 Y41.593 E38.90409
G1 X144.96 Y40.929 E38.92028
G1 X145.375 Y40.305 E38.93649
G1 X145.854 Y39.73 E38.95266
G1 X146.392 Y39.208 E38.96887
G1 X146.982 Y38.747 E38.98506
G1 X147.618 Y38.351 E39.00125
G1 X148.293 Y38.025 E39.01746
G1 X148.998 Y37.773 E39.03365
G1 X149.727 Y37.598 E39.04985
G1 X150.469 Y37.501 E39.06603
G1 X151.003 Y37.481 E39.07759
G1 X169 Y37.481 E39.46666
G1 X169.748 Y37.521 E39.48286
G1 X170.488 Y37.64 E39.49906
G1 X171.21 Y37.838 E39.51525
G1 X171.908 Y38.111 E39.53145
G1 X172.572 Y38.458 E39.54765
G1 X173.196 Y38.873 E39.56385
G1 X173.771 Y39.352 E39.58003
G1 X174.293 Y39.89 E39.59623
G1 X174.754 Y40.48 E39.61242
G1 X175.15 Y41.116 E39.62862
G1 X175.476 Y41.791 E39.64482
G1 X175.728 Y42.496 E39.66101
G1 X175.903 Y43.225 E39.67722
G1 X176 Y43.967 E39.6934
G1 X176.02 Y44.501 E39.70495
G1 X176.02 Y165.499 E42.32081
G1 X175.98 Y166.247 E42.33701
G1 X175.861 Y166.987 E42.35321
G1 X175.663 Y167.709 E42.3694
G1 X175.39 Y168.407 E42.3856
G1 X175.043 Y169.071 E42.4018
G1 X174.628 Y169.695 E42.418
G1 X174.149 Y170.27 E42.43418
G1 X173.611 Y170.792 E42.45038
G1 X173.021 Y171.253 E42.46657
G1 X172.385 Y171.649 E42.48277
G1 X171.71 Y171.975 E42.49897
G1 X171.005 Y172.227 E42.51516
G1 X170.276 Y172.402 E42.53137
G1 X169.534 Y172.499 E42.54755
G1 X169 Y172.519 E42.5591
G1 X41 Y172.519 E45.32634
G1 X40.252 Y172.479 E45.34254
G1 X39.512 Y172.36 E45.35874
G1 X38.79 Y172.162 E45.37493
G1 X38.092 Y171.889 E45.39113
G1 X37.428 Y171.542 E45.40733
G1 X36.804 Y171.127 E45.42353
G1 X36.229 Y170.648 E45.43971
G1 X35.707 Y170.11 E45.45591
G1 X35.246 Y169.52 E45.4721
G1 X34.85 Y168.884 E45.4883
G1 X34.524 Y168.209 E45.5045
G1 X34.272 Y167.504 E45.52069
G1 X34.097 Y166.775 E45.5369
G1 X34 Y166.033 E45.55307
G1 X33.98 Y165.499 E45.56463
G1 X33.98 Y44.501 E48.18049
G0 F6000 X34.5 Y44.501
G1 F1200 X34.54 Y43.781 E48.19608
G1 X34.659 Y43.07 E48.21167
G1 X34.857 Y42.377 E48.22725
G1 X35.13 Y41.71 E48.24283
G1 X35.475 Y41.077 E48.25842
G1 X35.888 Y40.486 E48.274
G1 X36.364 Y39.945 E48.28958
G1 X36.897 Y39.46 E48.30516
G1 X37.48 Y39.036 E48.32075
G1 X38.107 Y38.68 E48.33633
G1 X38.769 Y38.396 E48.35191
G1 X39.459 Y38.186 E48.3675
G1 X40.168 Y38.055 E48.38309
G1 X41 Y38.001 E48.40111
G1 X63.997 Y38.001 E48.89829
G1 X64.717 Y38.041 E48.91388
G1 X65.428 Y38.16 E48.92946
G1 X66.121 Y38.358 E48.94504
G1 X66.788 Y38.631 E48.96062
G1 X67.421 Y38.976 E48.97621
G1 X68.012 Y39.389 E48.9918
G1 X68.553 Y39.865 E49.00738
G1 X69.038 Y40.398 E49.02296
G1 X69.462 Y40.981 E49.03854
G1 X69.818 Y41.608 E49.05413
G1 X70.102 Y42.27 E49.0697
G1 X70.312 Y42.96 E49.08529
G1 X70.443 Y43.669 E49.10088
G1 X70.497 Y44.501 E49.11891
G1 X70.497 Y140.002 E51.18355
G1 X144.503 Y140.002 E52.78349
G1 X144.503 Y44.501 E54.84814
G1 X144.543 Y43.781 E54.86373
G1 X144.662 Y43.07 E54.87931
G1 X144.86 Y42.377 E54.89489
G1 X145.133 Y41.71 E54.91047
G1 X145.478 Y41.077 E54.92606
G1 X145.891 Y40.486 E54.94165
G1 X146.367 Y39.945 E54.95723
G1 X146.9 Y39.46 E54.97281
G1 X147.483 Y39.036 E54.98839
G1 X148.11 Y38.68 E55.00398
G1 X148.772 Y38.396 E55.01955
G1 X149.462 Y38.186 E55.03514
G1 X150.171 Y38.055 E55.05073
G1 X151.003 Y38.001 E55.06876
G1 X169 Y38.001 E55.45783
G1 X169.72 Y38.041 E55.47342
G1 X170.431 Y38.16 E55.48901
G1 X171.124 Y38.358 E55.50459
G1 X171.791 Y38.631 E55.52017
G1 X172.424 Y38.976 E55.53576
G1 X173.015 Y39.389 E55.55135
G1 X173.556 Y39.865 E55.56692
G1 X174.041 Y40.398 E55.5825
G1 X174.465 Y40.981 E55.59809
G1 X174.821 Y41.608 E55.61368
G1 X175.105 Y42.27 E55.62925
G1 X175.315 Y42.96 E55.64484
G1 X175.446 Y43.669 E55.66043
G1 X175.5 Y44.501 E55.67845
G1 X175.5 Y165.499 E58.29432
G1 X175.46 Y166.219 E58.30991
G1 X175.341 Y166.93 E58.3255
G1 X175.143 Y167.623 E58.34108
G1 X174.87 Y168.29 E58.35666
G1 X174.525 Y168.923 E58.37224
G1 X174.112 Y169.514 E58.38783
G1 X173.636 Y170.055 E58.40341
G1 X173.103 Y170.54 E58.41899
G1 X172.52 Y170.964 E58.43457
G1 X171.893 Y171.32 E58.45016
G1 X171.231 Y171.604 E58.46573
G1 X170.541 Y171.814 E58.48133
G1 X169.832 Y171.945 E58.49691
G1 X169 Y171.999 E58.51494
G1 X41 Y171.999 E61.28218
G1 X40.28 Y171.959 E61.29777
G1 X39.569 Y171.84 E61.31336
G1 X38.876 Y171.642 E61.32894
G1 X38.209 Y171.369 E61.34452
G1 X37.576 Y171.024 E61.36011
G1 X36.985 Y170.611 E61.37569
G1 X36.444 Y170.135 E61.39127
G1 X35.959 Y169.602 E61.40685
G1 X35.535 Y169.019 E61.42244
G1 X35.179 Y168.392 E61.43802
G1 X34.895 Y167.73 E61.4536
G1 X34.685 Y167.04 E61.46919
G1 X34.554 Y166.331 E61.48478
G1 X34.5 Y165.499 E61.5028
G1 X34.5 Y44.501 E64.11867
G0 F6000 X35.02 Y44.501
G1 F1200 X35.06 Y43.811 E64.13361
G1 X35.179 Y43.13 E64.14856
G1 X35.377 Y42.467 E64.16352
G1 X35.649 Y41.832 E64.17845
G1 X35.993 Y41.232 E64.1934
G1 X36.403 Y40.676 E64.20834
G1 X36.876 Y40.171 E64.2233
G1 X37.403 Y39.724 E64.23824
G1 X37.979 Y39.34 E64.2532
G1 X38.594 Y39.026 E64.26813
G1 X39.242 Y38.785 E64.28308
G1 X39.914 Y38.62 E64.29804
G1 X40.704 Y38.521 E64.31525
G1 X63.997 Y38.521 E64.81882
G1 X64.687 Y38.561 E64.83376
G1 X65.368 Y38.68 E64.84871
G1 X66.031 Y38.878 E64.86367
G1 X66.666 Y39.15 E64.8786
G1 X67.266 Y39.494 E64.89356
G1 X67.822 Y39.904 E64.90849
G1 X68.327 Y40.377 E64.92345
G1 X68.774 Y40.904 E64.93839
G1 X69.158 Y41.48 E64.95336
G1 X69.472 Y42.095 E64.96828
G1 X69.713 Y42.743 E64.98323
G1 X69.878 Y43.415 E64.99819
G1 X69.977 Y44.205 E65.0154
G1 X69.977 Y140.522 E67.09769
G1 X145.023 Y140.522 E68.72011
G1 X145.023 Y44.501 E70.796
G1 X145.063 Y43.811 E70.81094
G1 X145.182 Y43.13 E70.82589
G1 X145.38 Y42.467 E70.84085
G1 X145.652 Y41.832 E70.85578
G1 X145.996 Y41.232 E70.87073
G1 X146.406 Y40.676 E70.88567
G1 X146.879 Y40.171 E70.90063
G1 X147.406 Y39.724 E70.91557
G1 X147.982 Y39.34 E70.93053
G1 X148.597 Y39.026 E70.94546
G1 X149.245 Y38.785 E70.96041
G1 X149.917 Y38.62 E70.97537
G1 X150.707 Y38.521 E70.99258
G1 X169 Y38.521 E71.38806
G1 X169.69 Y38.561 E71.403
G1 X170.371 Y38.68 E71.41795
G1 X171.034 Y38.878 E71.43291
G1 X171.669 Y39.15 E71.44784
G1 X172.269 Y39.494 E71.46279
G1 X172.825 Y39.904 E71.47773
G1 X173.33 Y40.377 E71.49269
G1 X173.777 Y40.904 E71.50763
G1 X174.161 Y41.48 E71.52259
G1 X174.475 Y42.095 E71.53752
G1 X174.716 Y42.743 E71.55247
G1 X174.881 Y43.415 E71.56743
G1 X174.98 Y44.205 E71.58464
G1 X174.98 Y165.499 E74.2069
G1 X174.94 Y166.189 E74.22185
G1 X174.821 Y166.87 E74.23679
G1 X174.623 Y167.533 E74.25175
G1 X174.351 Y168.168 E74.26669
G1 X174.007 Y168.768 E74.28164
G1 X173.597 Y169.324 E74.29657
G1 X173.124 Y169.829 E74.31153
