;FLAVOR:Marlin
;TIME:3518
;Filament used: 2.54903m
;Layer height: 0.2
;MINX:65.126
;MINY:72.261
;MINZ:0.1
;MAXX:133.407
;MAXY:137.739
;MAXZ:19.175
;Generated with Cura_SteamEngine main
M82 ;absolute extrusion mode
;Profil Homepage: https://github.com/NilsRo/Cura_Anycubic_MegaS_Profile

;Slicer Information - (Support for OctoPrint Slicer Estimator)
;Slicer info:material_guid;0ff92885-617b-4144-a03c-9989872454bc
;Slicer info:material_id;generic_pla_175
;Slicer info:material_brand;Generic
;Slicer info:material_name;PLA
;Slicer info:material_bed_temperature;0
;Slicer info:material_bed_temperature_layer_0;0
;Slicer info:material_print_temperature;190.0
;Slicer info:material_print_temperature_layer_0;190.0
;Slicer info:material_flow;100
;Slicer info:layer_height;0.2
;Slicer info:wall_thickness;0.8
;Slicer info:speed_print;30.0
;Slicer info:speed_topbottom;30
;Slicer info:travel_speed;120
;Slicer info:support;0
;Slicer info:retraction_speed;40.0
;Slicer info:retraction_amount;3.0
;Slicer info:layer_height;0.2
;Slicer info:infill_pattern;grid
;Slicer info:infill_sparse_density;12.0
;Slicer info:cool_fan_enabled;True
;Slicer info:cool_fan_speed;50
;Slicer info:sliced_at;Wed 21-09-2022 12:23:44
G21                                        ; metric values 
G90                                        ; absolute positioning 
M82                                        ; set extruder to absolute mode 
M107                                       ; start with the fan off 
M140 S0   ; Start heating the bed 
G4 S60                                     ; wait 1 minute 
M104 S190.0 ; start heating the hot end 
M190 S0   ; wait for bed 
M109 S190.0 ; wait for hotend 
M300 S1000 P500                            ; BEEP heating done 
G28 X0 Y10 Z0                              ; move X/Y to min endstops 
M420 S1                                    ; Enable leveling 
M420 Z2.0                                  ; Set leveling fading height to 2 mm 
G0 Z0.15                                   ; lift nozzle a bit 
G92 E0                                     ; zero the extruded length 
G1 X50 E20 F500                            ; Extrude 20mm of filament in a 5cm line. 
G92 E0                                     ; zero the extruded length again 
G1 E-2 F500                                ; Retract a little 
G1 X120 F4000                              ; Quickly wipe away from the filament line`
G92 E0
G92 E0
G1 F2400 E-3
;LAYER_COUNT:96
;LAYER:0
M107
G1 F300 Z0.175
G0 F6000 X67.554 Y74.555 Z0.175
G1 F300 Z0.175
G0 F6000 X65.126 Y80.321
;TYPE:SKIRT
G1 F300 Z0.1
G1 F2400 E0
G1 F1200 X65.166 Y79.519 E0.01736
G1 X65.286 Y78.725 E0.03472
G1 X65.483 Y77.947 E0.05207
G1 X65.758 Y77.193 E0.06942
G1 X66.106 Y76.47 E0.08677
G1 X66.524 Y75.784 E0.10414
G1 X67.008 Y75.144 E0.12148
G1 X67.554 Y74.555 E0.13885
G1 X68.155 Y74.024 E0.15618
G1 X68.807 Y73.555 E0.17355
G1 X69.501 Y73.153 E0.19089
G1 X70.233 Y72.822 E0.20826
G1 X70.993 Y72.565 E0.2256
G1 X71.776 Y72.385 E0.24297
G1 X72.572 Y72.284 E0.26032
G1 X73.186 Y72.261 E0.2736
G1 X91.614 Y72.261 E0.672
G1 X92.416 Y72.301 E0.68936
G1 X93.21 Y72.421 E0.70672
G1 X93.988 Y72.618 E0.72407
G1 X94.742 Y72.893 E0.74142
G1 X95.465 Y73.241 E0.75876
G1 X96.151 Y73.659 E0.77613
G1 X96.791 Y74.143 E0.79348
G1 X97.38 Y74.689 E0.81084
G1 X97.911 Y75.29 E0.82818
G1 X98.38 Y75.942 E0.84554
G1 X98.782 Y76.636 E0.86288
G1 X99.113 Y77.368 E0.88025
G1 X99.37 Y78.128 E0.8976
G1 X99.55 Y78.911 E0.91496
G1 X99.651 Y79.707 E0.93231
G1 X99.674 Y80.321 E0.94559
G1 X99.674 Y85.775 E1.06351
G1 X100.624 Y85.533 E1.0847
G1 X101.857 Y85.301 E1.11182
G1 X102.604 Y85.196 E1.12813
G1 X103.836 Y85.082 E1.15488
G1 X104.56 Y85.048 E1.17055
G1 X105.401 Y85.046 E1.18873
G1 X106.171 Y85.081 E1.20539
G1 X107.41 Y85.197 E1.2323
G1 X108.162 Y85.303 E1.24872
G1 X109.395 Y85.537 E1.27585
G1 X110.372 Y85.787 E1.29765
G1 X111.949 Y86.297 E1.33348
G1 X112.757 Y86.607 E1.35219
G1 X113.527 Y86.951 E1.37042
G1 X114.269 Y87.33 E1.38844
G1 X115.691 Y88.151 E1.42394
G1 X116.658 Y88.777 E1.44884
G1 X117.338 Y88.352 E1.46618
G1 X118.039 Y87.961 E1.48353
G1 X118.776 Y87.641 E1.5009
G1 X119.91 Y87.308 E1.52645
G1 X120.601 Y87.159 E1.54173
G1 X121.393 Y87.029 E1.55908
G1 X122.194 Y86.979 E1.57643
G1 X122.997 Y87.008 E1.59381
G1 X123.999 Y87.159 E1.61571
G1 X124.69 Y87.308 E1.631
G1 X125.465 Y87.516 E1.64834
G1 X126.216 Y87.8 E1.6657
G1 X127.262 Y88.352 E1.69127
G1 X128.115 Y88.885 E1.71302
G1 X128.774 Y89.343 E1.73037
G1 X129.43 Y89.909 E1.7491
G1 X130.23 Y90.678 E1.77309
G1 X130.78 Y91.263 E1.79045
G1 X131.269 Y91.899 E1.80779
G1 X131.693 Y92.581 E1.82515
G1 X132.047 Y93.301 E1.8425
G1 X132.327 Y94.054 E1.85986
G1 X132.531 Y94.83 E1.87721
G1 X132.657 Y95.623 E1.89457
G1 X132.704 Y96.485 E1.91323
G1 X132.705 Y97.733 E1.94021
G1 X133.255 Y100.543 E2.00212
G1 X133.37 Y101.337 E2.01946
G1 X133.405 Y102.116 E2.03632
G1 X133.402 Y103.127 E2.05818
G1 X133.36 Y103.929 E2.07554
G1 X133.238 Y104.722 E2.09288
G1 X133.17 Y104.985 E2.09876
G1 X133.31 Y105.662 E2.1137
G1 X133.407 Y106.58 E2.13366
G1 X133.404 Y107.924 E2.16272
G1 X133.362 Y108.726 E2.18008
G1 X133.255 Y109.453 E2.19596
G1 X132.705 Y112.27 E2.25802
G1 X132.703 Y113.523 E2.2851
G1 X132.662 Y114.325 E2.30247
G1 X132.541 Y115.118 E2.31981
G1 X132.342 Y115.896 E2.33717
G1 X132.067 Y116.65 E2.35452
G1 X131.718 Y117.373 E2.37188
G1 X131.298 Y118.057 E2.38923
G1 X130.813 Y118.697 E2.40659
G1 X130.232 Y119.318 E2.42497
G1 X129.434 Y120.086 E2.44892
G1 X128.829 Y120.614 E2.46628
G1 X128.118 Y121.113 E2.48506
G1 X127.264 Y121.647 E2.50683
G1 X126.563 Y122.038 E2.52419
G1 X125.827 Y122.358 E2.54154
G1 X124.69 Y122.692 E2.56716
G1 X123.999 Y122.841 E2.58244
G1 X123.207 Y122.971 E2.59979
G1 X122.406 Y123.021 E2.61714
G1 X121.603 Y122.992 E2.63451
G1 X120.601 Y122.841 E2.65642
G1 X119.91 Y122.692 E2.6717
G1 X119.135 Y122.484 E2.68905
G1 X118.384 Y122.2 E2.70641
G1 X117.338 Y121.648 E2.73198
G1 X116.656 Y121.222 E2.74936
G1 X115.772 Y121.801 E2.77221
G1 X114.703 Y122.435 E2.79907
G1 X114.033 Y122.792 E2.81549
G1 X112.904 Y123.325 E2.84248
G1 X111.943 Y123.705 E2.86482
G1 X110.366 Y124.215 E2.90065
G1 X109.376 Y124.467 E2.92274
G1 X108.143 Y124.699 E2.94986
G1 X107.405 Y124.803 E2.96597
G1 X106.167 Y124.919 E2.99286
G1 X105.405 Y124.954 E3.00935
G1 X104.569 Y124.953 E3.02742
G1 X103.834 Y124.918 E3.04333
G1 X102.596 Y124.803 E3.07021
G1 X101.845 Y124.698 E3.0866
G1 X100.617 Y124.466 E3.11362
G1 X99.674 Y124.243 E3.13457
G1 X99.674 Y129.679 E3.25209
G1 X99.634 Y130.481 E3.26945
G1 X99.514 Y131.275 E3.28681
G1 X99.317 Y132.053 E3.30416
G1 X99.042 Y132.807 E3.32151
G1 X98.694 Y133.53 E3.33886
G1 X98.276 Y134.216 E3.35623
G1 X97.792 Y134.856 E3.37357
G1 X97.246 Y135.445 E3.39094
G1 X96.645 Y135.976 E3.40827
G1 X95.993 Y136.445 E3.42564
G1 X95.299 Y136.847 E3.44298
G1 X94.567 Y137.178 E3.46035
G1 X93.807 Y137.435 E3.47769
G1 X93.024 Y137.615 E3.49506
G1 X92.228 Y137.716 E3.51241
G1 X91.614 Y137.739 E3.52569
G1 X73.186 Y137.739 E3.92409
G1 X72.384 Y137.699 E3.94145
G1 X71.59 Y137.579 E3.95881
G1 X70.812 Y137.382 E3.97616
G1 X70.058 Y137.107 E3.99351
G1 X69.335 Y136.759 E4.01085
G1 X68.649 Y136.341 E4.02822
G1 X68.009 Y135.857 E4.04557
G1 X67.42 Y135.311 E4.06293
G1 X66.889 Y134.71 E4.08027
G1 X66.42 Y134.058 E4.09763
G1 X66.018 Y133.364 E4.11497
G1 X65.687 Y132.632 E4.13234
G1 X65.43 Y131.872 E4.14969
G1 X65.25 Y131.089 E4.16705
G1 X65.149 Y130.293 E4.1844
G1 X65.126 Y129.679 E4.19768
G1 X65.126 Y80.321 E5.26476
G0 F6000 X65.646 Y80.321
G1 F1200 X65.686 Y79.546 E5.28154
G1 X65.805 Y78.778 E5.29834
G1 X66.003 Y78.028 E5.31511
G1 X66.277 Y77.301 E5.3319
G1 X66.624 Y76.607 E5.34868
G1 X67.041 Y75.952 E5.36547
G1 X67.523 Y75.343 E5.38226
G1 X68.065 Y74.787 E5.39904
G1 X68.661 Y74.29 E5.41582
G1 X69.305 Y73.856 E5.43261
G1 X69.991 Y73.492 E5.4494
G1 X70.71 Y73.199 E5.46618
G1 X71.455 Y72.982 E5.48296
G1 X72.219 Y72.843 E5.49975
G1 X73.186 Y72.781 E5.5207
G1 X91.614 Y72.781 E5.91909
G1 X92.389 Y72.821 E5.93587
G1 X93.157 Y72.94 E5.95267
G1 X93.907 Y73.138 E5.96944
G1 X94.634 Y73.412 E5.98624
G1 X95.328 Y73.759 E6.00301
G1 X95.983 Y74.176 E6.0198
G1 X96.592 Y74.658 E6.03659
G1 X97.148 Y75.2 E6.05338
G1 X97.645 Y75.796 E6.07015
G1 X98.079 Y76.44 E6.08694
G1 X98.443 Y77.126 E6.10373
G1 X98.736 Y77.845 E6.12052
G1 X98.953 Y78.59 E6.13729
G1 X99.092 Y79.354 E6.15408
G1 X99.154 Y80.321 E6.17503
G1 X99.154 Y86.486 E6.30831
G1 X99.795 Y86.279 E6.32287
G1 X100.72 Y86.044 E6.34351
G1 X101.953 Y85.812 E6.37063
G1 X102.652 Y85.714 E6.38589
G1 X103.884 Y85.6 E6.41264
G1 X104.561 Y85.568 E6.42729
G1 X105.402 Y85.566 E6.44547
G1 X106.123 Y85.599 E6.46108
G1 X107.362 Y85.715 E6.48798
G1 X108.065 Y85.814 E6.50333
G1 X109.298 Y86.048 E6.53046
G1 X110.212 Y86.282 E6.55086
G1 X111.789 Y86.792 E6.58669
G1 X112.545 Y87.082 E6.60419
G1 X113.315 Y87.426 E6.62243
G1 X114.009 Y87.78 E6.63927
G1 X115.431 Y88.601 E6.67477
G1 X116.08 Y89.022 E6.69149
G1 X116.62 Y89.413 E6.7059
G1 X117.613 Y88.793 E6.73121
G1 X118.292 Y88.416 E6.748
G1 X119.006 Y88.111 E6.76479
G1 X120.02 Y87.816 E6.78762
G1 X120.711 Y87.667 E6.8029
G1 X121.477 Y87.543 E6.81968
G1 X122.252 Y87.498 E6.83646
G1 X123.028 Y87.533 E6.85325
G1 X123.889 Y87.667 E6.87209
G1 X124.58 Y87.816 E6.88737
G1 X125.33 Y88.019 E6.90417
G1 X126.055 Y88.297 E6.92096
G1 X126.987 Y88.793 E6.94378
G1 X127.84 Y89.326 E6.96553
G1 X128.476 Y89.77 E6.9823
G1 X129.069 Y90.284 E6.99926
G1 X129.869 Y91.053 E7.02325
G1 X130.401 Y91.619 E7.04005
G1 X130.871 Y92.237 E7.05683
G1 X131.275 Y92.9 E7.07362
G1 X131.609 Y93.601 E7.0904
G1 X131.869 Y94.332 E7.10718
G1 X132.052 Y95.087 E7.12397
G1 X132.157 Y95.856 E7.14075
G1 X132.184 Y96.485 E7.15436
G1 X132.185 Y97.787 E7.18251
G1 X132.744 Y100.643 E7.24543
G1 X132.854 Y101.411 E7.2622
G1 X132.885 Y102.114 E7.27741
G1 X132.882 Y103.125 E7.29927
G1 X132.84 Y103.901 E7.31607
G1 X132.718 Y104.667 E7.33284
G1 X132.644 Y104.943 E7.33902
G1 X132.825 Y105.943 E7.36099
G1 X132.886 Y106.914 E7.38202
G1 X132.884 Y107.923 E7.40383
G1 X132.842 Y108.698 E7.42061
G1 X132.744 Y109.353 E7.43493
G1 X132.185 Y112.216 E7.498
G1 X132.183 Y113.522 E7.52623
G1 X132.142 Y114.297 E7.54301
G1 X132.021 Y115.064 E7.5598
G1 X131.822 Y115.815 E7.57659
G1 X131.547 Y116.541 E7.59338
G1 X131.199 Y117.235 E7.61016
G1 X130.781 Y117.889 E7.62694
G1 X130.299 Y118.497 E7.64371
G1 X129.871 Y118.944 E7.65709
G1 X129.073 Y119.712 E7.68104
G1 X128.487 Y120.221 E7.69782
G1 X127.843 Y120.672 E7.71481
G1 X126.989 Y121.206 E7.73659
G1 X126.31 Y121.583 E7.75338
G1 X125.596 Y121.889 E7.77017
G1 X124.58 Y122.184 E7.79305
G1 X123.889 Y122.333 E7.80833
G1 X123.123 Y122.457 E7.8251
G1 X122.348 Y122.502 E7.84189
G1 X121.572 Y122.467 E7.85868
G1 X120.711 Y122.333 E7.87752
G1 X120.02 Y122.184 E7.8928
G1 X119.27 Y121.981 E7.9096
G1 X118.545 Y121.703 E7.92639
G1 X117.613 Y121.207 E7.94921
G1 X116.621 Y120.587 E7.9745
G1 X116.081 Y120.977 E7.9889
G1 X115.507 Y121.354 E8.00375
G1 X114.438 Y121.988 E8.03062
G1 X113.811 Y122.321 E8.04597
G1 X112.682 Y122.854 E8.07296
G1 X111.783 Y123.21 E8.09386
G1 X110.206 Y123.72 E8.12969
G1 X109.28 Y123.956 E8.15035
G1 X108.047 Y124.188 E8.17748
G1 X107.356 Y124.285 E8.19256
G1 X106.118 Y124.401 E8.21944
G1 X105.406 Y124.434 E8.23485
G1 X104.57 Y124.433 E8.25293
G1 X103.882 Y124.401 E8.26782
G1 X102.644 Y124.286 E8.2947
G1 X101.941 Y124.187 E8.31004
G1 X100.713 Y123.955 E8.33706
G1 X100.04 Y123.796 E8.35201
G1 X99.154 Y123.538 E8.37196
G1 X99.154 Y129.679 E8.50472
G1 X99.114 Y130.454 E8.5215
G1 X98.995 Y131.222 E8.5383
G1 X98.797 Y131.972 E8.55507
G1 X98.523 Y132.699 E8.57187
G1 X98.176 Y133.393 E8.58864
G1 X97.759 Y134.048 E8.60543
G1 X97.277 Y134.657 E8.62222
G1 X96.735 Y135.213 E8.63901
G1 X96.139 Y135.71 E8.65578
G1 X95.495 Y136.144 E8.67257
G1 X94.809 Y136.508 E8.68936
G1 X94.09 Y136.801 E8.70615
G1 X93.345 Y137.018 E8.72292
G1 X92.581 Y137.157 E8.73971
G1 X91.614 Y137.219 E8.76066
G1 X73.186 Y137.219 E9.15906
G1 X72.411 Y137.179 E9.17583
G1 X71.643 Y137.06 E9.19264
G1 X70.893 Y136.862 E9.20941
G1 X70.166 Y136.588 E9.2262
G1 X69.472 Y136.241 E9.24298
G1 X68.817 Y135.824 E9.25976
G1 X68.208 Y135.342 E9.27655
G1 X67.652 Y134.8 E9.29334
G1 X67.155 Y134.204 E9.31012
G1 X66.721 Y133.56 E9.32691
G1 X66.357 Y132.874 E9.3437
G1 X66.064 Y132.155 E9.36048
G1 X65.847 Y131.41 E9.37726
G1 X65.708 Y130.646 E9.39404
G1 X65.646 Y129.679 E9.41499
G1 X65.646 Y80.321 E10.48207
G0 F6000 X66.166 Y80.321
G1 F1200 X66.206 Y79.573 E10.49826
G1 X66.325 Y78.833 E10.51447
G1 X66.523 Y78.111 E10.53065
G1 X66.796 Y77.413 E10.54685
G1 X67.143 Y76.749 E10.56305
G1 X67.558 Y76.125 E10.57925
G1 X68.037 Y75.55 E10.59543
G1 X68.575 Y75.028 E10.61164
G1 X69.165 Y74.567 E10.62783
G1 X69.801 Y74.171 E10.64402
G1 X70.476 Y73.845 E10.66023
G1 X71.181 Y73.593 E10.67641
G1 X71.91 Y73.418 E10.69262
G1 X72.652 Y73.321 E10.7088
G1 X73.186 Y73.301 E10.72035
G1 X91.614 Y73.301 E11.11875
G1 X92.362 Y73.341 E11.13494
G1 X93.102 Y73.46 E11.15115
G1 X93.824 Y73.658 E11.16733
G1 X94.522 Y73.931 E11.18354
G1 X95.186 Y74.278 E11.19973
G1 X95.81 Y74.693 E11.21593
G1 X96.385 Y75.172 E11.23211
G1 X96.907 Y75.71 E11.24832
G1 X97.368 Y76.3 E11.26451
G1 X97.764 Y76.936 E11.2807
G1 X98.09 Y77.611 E11.29691
G1 X98.342 Y78.316 E11.3131
G1 X98.517 Y79.045 E11.3293
G1 X98.614 Y79.787 E11.34548
G1 X98.634 Y80.321 E11.35703
G1 X98.634 Y87.201 E11.50577
G1 X99.955 Y86.774 E11.53579
G1 X100.816 Y86.555 E11.55499
G1 X102.049 Y86.323 E11.58212
G1 X102.7 Y86.232 E11.59633
G1 X103.932 Y86.118 E11.62308
G1 X104.562 Y86.088 E11.63671
G1 X105.403 Y86.086 E11.65489
G1 X106.074 Y86.117 E11.66942
G1 X107.313 Y86.233 E11.69632
G1 X107.968 Y86.325 E11.71062
G1 X109.201 Y86.559 E11.73775
G1 X110.052 Y86.777 E11.75674
G1 X111.629 Y87.287 E11.79258
G1 X112.332 Y87.557 E11.80886
G1 X113.102 Y87.901 E11.82709
G1 X113.749 Y88.231 E11.84279
G1 X115.171 Y89.052 E11.87829
G1 X115.775 Y89.443 E11.89384
G1 X116.623 Y90.056 E11.91646
G1 X117.036 Y89.767 E11.92736
G1 X117.889 Y89.234 E11.94911
G1 X118.545 Y88.871 E11.96532
G1 X119.235 Y88.581 E11.9815
G1 X120.129 Y88.325 E12.0016
G1 X120.82 Y88.176 E12.01688
G1 X121.56 Y88.057 E12.03309
G1 X122.308 Y88.018 E12.04928
G1 X123.056 Y88.059 E12.06548
G1 X123.78 Y88.176 E12.08133
G1 X124.471 Y88.325 E12.09661
G1 X125.194 Y88.521 E12.11281
G1 X125.891 Y88.794 E12.12899
G1 X126.711 Y89.234 E12.14911
G1 X127.564 Y89.767 E12.17085
G1 X128.177 Y90.197 E12.18704
G1 X128.709 Y90.659 E12.20228
G1 X129.509 Y91.428 E12.22627
G1 X130.02 Y91.975 E12.24245
G1 X130.471 Y92.574 E12.25866
G1 X130.855 Y93.217 E12.27485
G1 X131.168 Y93.898 E12.29105
G1 X131.407 Y94.608 E12.30725
G1 X131.569 Y95.339 E12.32344
G1 X131.664 Y96.189 E12.34193
G1 X131.665 Y97.836 E12.37753
G1 X132.234 Y100.743 E12.44157
G1 X132.339 Y101.485 E12.45777
G1 X132.365 Y102.113 E12.47136
G1 X132.362 Y103.124 E12.49322
G1 X132.32 Y103.872 E12.50942
G1 X132.198 Y104.611 E12.52561
G1 X132.093 Y104.991 E12.53413
G1 X132.221 Y105.478 E12.54502
G1 X132.333 Y106.218 E12.5612
G1 X132.366 Y106.913 E12.57624
G1 X132.364 Y107.922 E12.59805
G1 X132.323 Y108.67 E12.61425
G1 X132.234 Y109.254 E12.62702
G1 X131.665 Y112.167 E12.69119
G1 X131.663 Y113.521 E12.72046
G1 X131.622 Y114.269 E12.73665
G1 X131.501 Y115.009 E12.75287
G1 X131.303 Y115.731 E12.76905
G1 X131.028 Y116.428 E12.78525
G1 X130.681 Y117.092 E12.80145
G1 X130.265 Y117.715 E12.81764
G1 X129.72 Y118.368 E12.83603
G1 X128.713 Y119.337 E12.86624
G1 X128.146 Y119.827 E12.88244
G1 X127.567 Y120.231 E12.89771
G1 X126.713 Y120.765 E12.91948
G1 X126.057 Y121.128 E12.93569
G1 X125.367 Y121.419 E12.95188
G1 X124.471 Y121.675 E12.97203
G1 X123.78 Y121.824 E12.98731
G1 X123.04 Y121.943 E13.00351
G1 X122.292 Y121.982 E13.01971
G1 X121.544 Y121.941 E13.0359
G1 X120.82 Y121.824 E13.05176
G1 X120.129 Y121.675 E13.06704
G1 X119.406 Y121.479 E13.08323
G1 X118.709 Y121.206 E13.09942
G1 X117.889 Y120.766 E13.11953
G1 X117.036 Y120.233 E13.14128
G1 X116.623 Y119.943 E13.15219
G1 X115.777 Y120.556 E13.17478
G1 X115.242 Y120.907 E13.18861
G1 X114.173 Y121.541 E13.21548
G1 X113.589 Y121.851 E13.22977
G1 X112.46 Y122.384 E13.25676
G1 X111.623 Y122.715 E13.27622
