;FLAVOR:Marlin
;TIME:7000
;Filament used: 8.77617m
;Layer height: 0.3
;MINX:51.91
;MINY:67.858
;MINZ:0.1
;MAXX:152.118
;MAXY:137.878
;MAXZ:16.6
;Generated with Cura_SteamEngine main
M82 ;absolute extrusion mode
;Profil Homepage: https://github.com/NilsRo/Cura_Anycubic_MegaS_Profile

;Slicer Information - (Support for OctoPrint Slicer Estimator)
;Slicer info:material_guid;0ff92885-617b-4144-a03c-9989872454bc
;Slicer info:material_id;generic_pla_175
;Slicer info:material_brand;Generic
;Slicer info:material_name;PLA
;Slicer info:material_bed_temperature;0
;Slicer info:material_bed_temperature_layer_0;0
;Slicer info:material_print_temperature;190.0
;Slicer info:material_print_temperature_layer_0;190.0
;Slicer info:material_flow;100
;Slicer info:layer_height;0.3
;Slicer info:wall_thickness;0.8
;Slicer info:speed_print;40.0
;Slicer info:speed_topbottom;30
;Slicer info:travel_speed;120
;Slicer info:support;0
;Slicer info:retraction_speed;40.0
;Slicer info:retraction_amount;3.0
;Slicer info:layer_height;0.3
;Slicer info:infill_pattern;grid
;Slicer info:infill_sparse_density;100
;Slicer info:cool_fan_enabled;True
;Slicer info:cool_fan_speed;50
;Slicer info:sliced_at;Mon 07-11-2022 19:03:18
G21                                        ; metric values 
G90                                        ; absolute positioning 
M82                                        ; set extruder to absolute mode 
M107                                       ; start with the fan off 
M140 S0   ; Start heating the bed 
G4 S60                                     ; wait 1 minute 
M104 S190.0 ; start heating the hot end 
M190 S0   ; wait for bed 
M109 S190.0 ; wait for hotend 
M300 S1000 P500                            ; BEEP heating done 
G28 X0 Y10 Z0                              ; move X/Y to min endstops 
M420 S1                                    ; Enable leveling 
M420 Z2.0                                  ; Set leveling fading height to 2 mm 
G0 Z0.15                                   ; lift nozzle a bit 
G92 E0                                     ; zero the extruded length 
G1 X50 E20 F500                            ; Extrude 20mm of filament in a 5cm line. 
G92 E0                                     ; zero the extruded length again 
G1 E-2 F500                                ; Retract a little 
G1 X120 F4000                              ; Quickly wipe away from the filament line`
G92 E0
G92 E0
G1 F2400 E-3
;LAYER_COUNT:56
;LAYER:0
M107
G1 F300 Z0.175
G0 F4500 X55.818 Y73.777 Z0.175
G1 F300 Z0.175
G0 F4500 X51.91 Y81.495
;TYPE:SKIRT
G1 F300 Z0.1
G1 F2400 E0
G1 F1200 X51.917 Y80.878 E0.01334
G1 X51.973 Y80.081 E0.03061
G1 X52.127 Y79.336 E0.04706
G1 X52.246 Y78.84 E0.05809
G1 X52.533 Y77.963 E0.07804
G1 X52.732 Y77.486 E0.08921
G1 X53.242 Y76.494 E0.11332
G1 X53.757 Y75.755 E0.1328
G1 X54.219 Y75.179 E0.14876
G1 X54.791 Y74.59 E0.16651
G1 X55.189 Y74.257 E0.17773
G1 X55.818 Y73.777 E0.19484
G1 X56.381 Y73.397 E0.20952
G1 X56.992 Y73.083 E0.22437
G1 X57.67 Y72.784 E0.24039
G1 X58.418 Y72.506 E0.25764
G1 X59.208 Y72.326 E0.27516
G1 X59.934 Y72.209 E0.29106
G1 X60.829 Y72.136 E0.31047
G1 X61.33 Y72.125 E0.32131
G1 X64.562 Y72.133 E0.39118
G1 X74.708 Y72.134 E0.61053
G1 X77.366 Y72.096 E0.66799
G1 X80.034 Y71.984 E0.72573
G1 X82.716 Y71.794 E0.78385
G1 X85.369 Y71.531 E0.84149
G1 X88.002 Y71.194 E0.89888
G1 X90.612 Y70.785 E0.95599
G1 X93.266 Y70.292 E1.01435
G1 X95.835 Y69.739 E1.07116
G1 X98.45 Y69.099 E1.12936
G1 X101.072 Y68.376 E1.18817
G1 X102.017 Y68.101 E1.20944
G1 X102.679 Y67.949 E1.22413
G1 X103.53 Y67.871 E1.2426
G1 X104.256 Y67.858 E1.2583
G1 X104.903 Y67.865 E1.27229
G1 X105.581 Y67.915 E1.28699
G1 X106.248 Y68.045 E1.30168
G1 X107.196 Y68.377 E1.32339
G1 X109.85 Y69.577 E1.38636
G1 X112.346 Y70.619 E1.44484
G1 X114.775 Y71.557 E1.50113
G1 X117.295 Y72.447 E1.55891
G1 X118.898 Y72.973 E1.59538
G1 X119.885 Y73.287 E1.61777
G1 X120.709 Y73.613 E1.63693
G1 X123.765 Y75.138 E1.71077
G1 X126.16 Y76.247 E1.76783
G1 X128.6 Y77.293 E1.82522
G1 X131.138 Y78.297 E1.88423
G1 X133.586 Y79.185 E1.94052
G1 X136.124 Y80.026 E1.99833
G1 X138.654 Y80.787 E2.05544
G1 X141.275 Y81.494 E2.11413
G1 X144.548 Y82.274 E2.18687
G1 X145.476 Y82.58 E2.208
G1 X146 Y82.808 E2.22035
G1 X146.525 Y83.058 E2.23292
G1 X147.31 Y83.511 E2.25252
G1 X147.89 Y83.909 E2.26773
G1 X148.515 Y84.405 E2.28498
G1 X148.959 Y84.81 E2.29797
G1 X149.554 Y85.44 E2.3167
G1 X149.952 Y85.931 E2.33037
G1 X150.292 Y86.375 E2.34246
G1 X150.669 Y86.94 E2.35714
G1 X150.998 Y87.566 E2.37243
G1 X151.395 Y88.497 E2.39431
G1 X151.591 Y89.032 E2.40663
G1 X151.844 Y89.918 E2.42655
G1 X152.033 Y90.883 E2.44781
G1 X152.102 Y91.981 E2.47159
G1 X152.118 Y92.983 E2.49326
G1 X152.116 Y117.372 E3.02053
G1 X152.106 Y118.064 E3.03549
G1 X152.061 Y118.709 E3.04947
G1 X151.945 Y119.596 E3.0688
G1 X151.787 Y120.339 E3.08523
G1 X151.571 Y121.095 E3.10222
G1 X151.276 Y121.855 E3.11985
G1 X150.932 Y122.603 E3.13765
G1 X150.413 Y123.504 E3.16013
G1 X149.941 Y124.147 E3.17737
G1 X149.598 Y124.57 E3.18915
G1 X149.126 Y125.085 E3.20425
G1 X148.638 Y125.557 E3.21893
G1 X147.809 Y126.233 E3.24205
G1 X147.111 Y126.674 E3.2599
G1 X146.602 Y126.957 E3.27249
G1 X145.77 Y127.361 E3.29249
G1 X144.989 Y127.66 E3.31057
G1 X144.462 Y127.801 E3.32236
G1 X142.177 Y128.295 E3.3729
G1 X139.564 Y128.932 E3.43105
G1 X136.993 Y129.637 E3.48868
G1 X134.46 Y130.409 E3.54593
G1 X131.941 Y131.255 E3.60338
G1 X129.443 Y132.172 E3.66091
G1 X126.955 Y133.167 E3.71884
G1 X124.544 Y134.212 E3.77564
G1 X120.387 Y136.195 E3.87522
G1 X119.708 Y136.484 E3.89117
G1 X118.592 Y136.841 E3.9165
G1 X117.588 Y137.004 E3.93849
G1 X116.844 Y137.077 E3.95465
G1 X116.208 Y137.091 E3.96841
G1 X112.966 Y137.084 E4.0385
G1 X96.792 Y137.083 E4.38816
G1 X94.111 Y137.089 E4.44612
G1 X93.423 Y137.081 E4.461
G1 X90.729 Y137.088 E4.51924
G1 X88.086 Y137.168 E4.57641
G1 X85.424 Y137.325 E4.63406
G1 X82.748 Y137.559 E4.69213
G1 X80.399 Y137.826 E4.74324
G1 X79.832 Y137.862 E4.75552
G1 X79.136 Y137.872 E4.77057
G1 X68.012 Y137.878 E5.01106
G1 X65.808 Y137.872 E5.05871
G1 X65.149 Y137.861 E5.07296
G1 X64.471 Y137.81 E5.08766
G1 X63.804 Y137.679 E5.10235
G1 X63.157 Y137.472 E5.11704
G1 X62.538 Y137.189 E5.13175
G1 X61.958 Y136.836 E5.14643
G1 X61.422 Y136.417 E5.16114
G1 X60.94 Y135.938 E5.17583
G1 X60.547 Y135.46 E5.18921
G1 X60.157 Y134.903 E5.20391
G1 X59.835 Y134.305 E5.21859
G1 X59.585 Y133.672 E5.23331
G1 X59.368 Y132.835 E5.252
G1 X57.198 Y119.108 E5.55245
G1 X56.745 Y116.468 E5.61036
G1 X56.215 Y113.834 E5.66845
G1 X55.616 Y111.247 E5.72585
G1 X54.942 Y108.661 E5.78363
G1 X54.193 Y106.094 E5.84144
G1 X53.379 Y103.567 E5.89883
G1 X52.833 Y102.044 E5.93381
G1 X52.795 Y101.915 E5.93672
G1 X52.515 Y101.118 E5.95498
G1 X52.308 Y100.491 E5.96926
G1 X52.081 Y99.649 E5.98811
G1 X51.925 Y98.627 E6.01046
G1 X51.91 Y97.502 E6.03479
G1 X51.917 Y84.622 E6.31324
G1 X51.91 Y81.495 E6.38084
G0 F4500 X52.43 Y81.501
G1 F1200 X52.437 Y80.884 E6.39418
G1 X52.547 Y79.815 E6.41741
G1 X52.752 Y78.961 E6.4364
G1 X53.013 Y78.163 E6.45455
G1 X53.212 Y77.686 E6.46573
G1 X53.685 Y76.767 E6.48807
G1 X54.168 Y76.074 E6.50633
G1 X54.711 Y75.417 E6.52476
G1 X55.254 Y74.861 E6.54156
G1 X56.133 Y74.19 E6.56547
G1 X56.672 Y73.83 E6.57948
G1 X57.202 Y73.559 E6.59235
G1 X57.88 Y73.26 E6.60837
G1 X58.581 Y73.002 E6.62452
G1 X59.323 Y72.833 E6.64097
G1 X59.984 Y72.726 E6.65545
G1 X60.988 Y72.644 E6.67723
G1 X64.561 Y72.653 E6.75447
G1 X74.716 Y72.654 E6.97401
G1 X77.395 Y72.616 E7.03194
G1 X80.058 Y72.504 E7.08956
G1 X82.766 Y72.312 E7.14825
G1 X85.417 Y72.049 E7.20584
G1 X88.04 Y71.714 E7.26301
G1 X90.754 Y71.288 E7.3224
G1 X93.326 Y70.81 E7.37896
G1 X95.966 Y70.243 E7.43734
G1 X98.569 Y69.605 E7.49528
G1 X101.212 Y68.877 E7.55454
G1 X102.162 Y68.6 E7.57594
G1 X102.795 Y68.457 E7.58997
G1 X103.539 Y68.391 E7.60612
G1 X104.265 Y68.378 E7.62181
G1 X104.895 Y68.385 E7.63543
G1 X105.541 Y68.435 E7.64944
G1 X106.177 Y68.564 E7.66347
G1 X106.981 Y68.851 E7.68193
G1 X109.628 Y70.048 E7.74473
G1 X112.145 Y71.099 E7.8037
G1 X114.59 Y72.042 E7.86035
G1 X117.138 Y72.942 E7.91878
G1 X118.736 Y73.466 E7.95513
G1 X119.727 Y73.782 E7.97762
G1 X120.471 Y74.076 E7.99492
G1 X123.505 Y75.59 E8.06822
G1 X125.97 Y76.731 E8.12694
G1 X128.409 Y77.777 E8.18432
G1 X130.914 Y78.768 E8.24256
G1 X133.431 Y79.681 E8.30044
G1 X135.986 Y80.528 E8.35863
G1 X138.535 Y81.294 E8.41618
G1 X141.09 Y81.983 E8.47339
G1 X144.428 Y82.779 E8.54757
G1 X145.272 Y83.058 E8.56679
G1 X145.776 Y83.278 E8.57868
G1 X146.301 Y83.528 E8.59125
G1 X147.016 Y83.94 E8.60909
G1 X147.596 Y84.338 E8.6243
G1 X148.165 Y84.789 E8.64
G1 X148.609 Y85.194 E8.65299
G1 X149.15 Y85.768 E8.67004
G1 X149.548 Y86.259 E8.6837
G1 X149.877 Y86.689 E8.69541
G1 X150.236 Y87.229 E8.70943
G1 X150.531 Y87.794 E8.72321
G1 X150.916 Y88.699 E8.74447
G1 X151.129 Y89.282 E8.75789
G1 X151.341 Y90.053 E8.77518
G1 X151.516 Y90.95 E8.79493
G1 X151.582 Y91.99 E8.81746
G1 X151.598 Y92.983 E8.83893
G1 X151.596 Y117.364 E9.36603
G1 X151.586 Y118.056 E9.38099
G1 X151.545 Y118.643 E9.39371
G1 X151.431 Y119.516 E9.41275
G1 X151.285 Y120.202 E9.42791
G1 X151.017 Y121.085 E9.44786
G1 X150.803 Y121.64 E9.46072
G1 X150.466 Y122.373 E9.47816
G1 X149.98 Y123.215 E9.49918
G1 X149.537 Y123.82 E9.51539
G1 X149.194 Y124.243 E9.52716
G1 X148.765 Y124.711 E9.54089
G1 X148.277 Y125.183 E9.55556
G1 X147.579 Y125.751 E9.57502
G1 X146.964 Y126.162 E9.59101
G1 X146.373 Y126.49 E9.60562
G1 X145.555 Y126.888 E9.62529
G1 X144.681 Y127.221 E9.64551
G1 X142.061 Y127.787 E9.70346
G1 X139.47 Y128.419 E9.76112
G1 X136.856 Y129.136 E9.81972
G1 X134.286 Y129.919 E9.8778
G1 X131.76 Y130.767 E9.9354
G1 X129.257 Y131.687 E9.99306
G1 X126.773 Y132.68 E10.05089
G1 X124.302 Y133.75 E10.1091
G1 X120.163 Y135.725 E10.20825
G1 X119.509 Y136.004 E10.22362
G1 X118.476 Y136.333 E10.24706
G1 X117.537 Y136.487 E10.26763
G1 X116.823 Y136.557 E10.28314
G1 X116.209 Y136.571 E10.29642
G1 X112.967 Y136.564 E10.36651
G1 X96.791 Y136.563 E10.71622
G1 X94.117 Y136.569 E10.77403
G1 X93.428 Y136.561 E10.78892
G1 X90.747 Y136.568 E10.84689
G1 X88.041 Y136.65 E10.90541
G1 X85.38 Y136.807 E10.96304
G1 X82.684 Y137.043 E11.02155
G1 X80.34 Y137.309 E11.07255
G1 X79.824 Y137.342 E11.08373
G1 X79.136 Y137.352 E11.0986
G1 X68.014 Y137.358 E11.33905
G1 X65.816 Y137.352 E11.38657
G1 X65.157 Y137.341 E11.40082
G1 X64.511 Y137.291 E11.41483
G1 X63.876 Y137.161 E11.42884
G1 X63.261 Y136.954 E11.44287
G1 X62.677 Y136.672 E11.45689
G1 X62.132 Y136.322 E11.47089
G1 X61.634 Y135.906 E11.48492
G1 X61.038 Y135.257 E11.50397
G1 X60.584 Y134.605 E11.52115
G1 X60.282 Y134.031 E11.53517
G1 X60.052 Y133.425 E11.54918
G1 X59.879 Y132.73 E11.56467
G1 X59.568 Y130.803 E11.60686
G1 X57.705 Y118.986 E11.86549
G1 X57.252 Y116.352 E11.92327
G1 X56.728 Y113.749 E11.98068
G1 X56.117 Y111.107 E12.0393
G1 X55.441 Y108.518 E12.09715
G1 X54.687 Y105.931 E12.15541
G1 X53.868 Y103.387 E12.21318
G1 X53.323 Y101.868 E12.24807
G1 X53.287 Y101.744 E12.25087
G1 X52.971 Y100.843 E12.27151
G1 X52.802 Y100.329 E12.2832
G1 X52.588 Y99.534 E12.301
G1 X52.445 Y98.578 E12.3219
G1 X52.43 Y97.502 E12.34517
G1 X52.437 Y84.622 E12.62362
G1 X52.43 Y81.501 E12.69109
G1 F2400 E9.69109
G1 F300 Z0.175
G0 F4500 X103.818 Y75.124 Z0.175
G0 X103.719 Y75.43
G1 F300 Z0.1
G1 F2400 E12.69109
G1 F1200 X103.818 Y75.124 E12.69805
G1 X104.079 Y74.934 E12.70503
G1 X104.399 Y74.934 E12.71194
G1 X104.661 Y75.125 E12.71895
G1 X104.76 Y75.43 E12.72589
G1 X104.661 Y75.735 E12.73282
G1 X104.399 Y75.926 E12.73983
G1 X104.079 Y75.926 E12.74675
G1 X103.818 Y75.736 E12.75373
G1 X103.719 Y75.43 E12.76068
G0 F4500 X103.172 Y75.43
G1 F1200 X103.375 Y74.804 E12.77491
G1 X103.91 Y74.414 E12.78922
G1 X104.568 Y74.414 E12.80344
G1 X105.103 Y74.804 E12.81776
G1 X105.307 Y75.43 E12.83199
G1 X105.103 Y76.056 E12.84623
G1 X104.568 Y76.446 E12.86054
G1 X103.91 Y76.446 E12.87476
G1 X103.375 Y76.056 E12.88908
G1 X103.172 Y75.43 E12.9033
G0 F4500 X102.625 Y75.43
G1 F1200 X102.932 Y74.483 E12.92483
G1 X103.74 Y73.894 E12.94644
G1 X104.738 Y73.894 E12.96802
G1 X105.546 Y74.483 E12.98964
G1 X105.854 Y75.43 E13.01116
G1 X105.546 Y76.377 E13.03269
G1 X104.738 Y76.966 E13.05431
G1 X103.74 Y76.966 E13.07589
G1 X102.932 Y76.377 E13.0975
G1 X102.625 Y75.43 E13.11903
G1 F2400 E10.11903
G1 F300 Z0.175
G0 F4500 X73.768 Y122.228 Z0.175
G1 F300 Z0.1
G1 F2400 E13.11903
G1 F1200 X73.858 Y122.832 E13.13223
G1 X74.504 Y123.302 E13.1495
G1 X74.892 Y123.207 E13.15813
G1 X74.531 Y123.636 E13.17026
G1 X72.943 Y123.789 E13.20475
G1 X71.294 Y123.57 E13.24071
G1 X70.421 Y123.752 E13.25999
G1 X69.771 Y123.192 E13.27854
G1 X69.7 Y122.847 E13.28615
G1 X70.522 Y123.114 E13.30484
G1 X70.709 Y122.993 E13.30965
G1 X71.19 Y122.361 E13.32682
G1 X71.74 Y123.056 E13.34598
G1 X73.075 Y122.853 E13.37518
G1 X73.768 Y122.228 E13.39535
G0 F4500 X73.434 Y123.22
G1 F1200 X73.486 Y123.184 E13.39672
G1 X73.517 Y123.212 E13.39762
G1 X73.434 Y123.22 E13.39942
G1 F2400 E10.39942
G1 F300 Z0.175
G0 F4500 X71.352 Y121.801 Z0.175
;TYPE:SUPPORT-INTERFACE
G1 F300 Z0.1
G1 F2400 E13.39942
G1 F1200 X71.507 Y121.323 E13.41029
G1 X71.916 Y121.026 E13.42122
G1 X72.115 Y121.026 E13.42552
G1 X72.39 Y120.826 E13.43287
G1 X72.43 Y120.704 E13.43564
G1 X72.885 Y120.373 E13.44781
G1 X72.854 Y120.116 E13.45341
G1 X73.068 Y119.691 E13.46369
G1 X73.472 Y119.362 E13.47496
G1 X73.857 Y119.281 E13.48346
G1 X74.055 Y119.401 E13.48847
G1 X74.083 Y119.63 E13.49345
G1 X74.308 Y119.583 E13.49842
G1 X74.693 Y119.818 E13.50818
G1 X74.861 Y119.694 E13.51269
G1 X74.955 Y119.694 E13.51472
G1 X75.101 Y119.404 E13.52174
G1 X75.505 Y119.075 E13.533
G1 X75.89 Y118.994 E13.54151
G1 X76.006 Y119.064 E13.54444
G1 X76.005 Y119.643 E13.55696
G1 X75.909 Y119.834 E13.56158
G1 X75.741 Y119.97 E13.56625
G1 X75.894 Y120.447 E13.57708
G1 X75.744 Y120.908 E13.58756
G1 X75.646 Y120.98 E13.59019
G1 X75.719 Y121.205 E13.5953
G1 X75.574 Y121.652 E13.60546
G1 X75.705 Y122.057 E13.61467
G1 X75.55 Y122.534 E13.62551
G1 X75.141 Y122.831 E13.63644
G1 X74.639 Y122.831 E13.64729
G1 X74.23 Y122.534 E13.65822
G1 X74.075 Y122.056 E13.66908
G1 X74.22 Y121.607 E13.67928
G1 X74.084 Y121.194 E13.68868
G1 X73.777 Y121.418 E13.6969
G1 X73.708 Y121.631 E13.70174
G1 X73.459 Y121.812 E13.70839
G1 X73.393 Y122.013 E13.71297
G1 X73.317 Y122.069 E13.71501
G1 X73.303 Y122.11 E13.71595
G1 X72.893 Y122.408 E13.7269
G1 X72.65 Y122.408 E13.73216
G1 X72.418 Y122.576 E13.73835
G1 X71.916 Y122.576 E13.7492
G1 X71.507 Y122.279 E13.76013
G1 X71.352 Y121.801 E13.77099
G1 F2400 E10.77099
G1 F300 Z0.175
G0 F4500 X69.266 Y121.002 Z0.175
G1 F300 Z0.1
G1 F2400 E13.77099
G1 F1200 X69.416 Y120.539 E13.78151
G1 X69.485 Y120.489 E13.78336
G1 X69.586 Y120.177 E13.79045
G1 X69.702 Y120.092 E13.79356
G1 X69.859 Y119.781 E13.80109
G1 X70.263 Y119.452 E13.81235
G1 X70.648 Y119.371 E13.82086
G1 X70.915 Y119.533 E13.82761
G1 X71.007 Y119.458 E13.83017
G1 X71.393 Y119.377 E13.8387
G1 X71.678 Y119.55 E13.84591
G1 X72.075 Y119.466 E13.85468
G1 X72.272 Y119.587 E13.85968
G1 X72.308 Y119.882 E13.86611
G1 X72.094 Y120.307 E13.87639
G1 X71.69 Y120.636 E13.88766
G1 X71.305 Y120.718 E13.89617
G1 X71.042 Y120.558 E13.90282
G1 X70.834 Y121.197 E13.91735
G1 X70.913 Y121.439 E13.92285
G1 X70.888 Y121.515 E13.92458
G1 X71 Y121.863 E13.93249
G1 X70.845 Y122.338 E13.94329
G1 X70.436 Y122.635 E13.95422
G1 X69.934 Y122.635 E13.96507
G1 X69.525 Y122.338 E13.976
G1 X69.37 Y121.859 E13.98688
G1 X69.394 Y121.785 E13.98856
G1 X69.282 Y121.438 E13.99645
G1 X69.345 Y121.245 E14.00083
G1 X69.266 Y121.002 E14.00636
G1 X69.505 Y120.926
G1 X70.704 Y122.125 E14.04302
G0 F4500 X70.653 Y121.317
G1 F1200 X69.73 Y122.24 E14.07124
G1 F2400 E11.07124
G1 F300 Z0.175
G0 F4500 X69.622 Y120.634 Z0.175
G1 F300 Z0.1
G1 F2400 E14.07124
G1 F1200 X70.651 Y119.605 E14.1027
G0 F4500 X70.119 Y119.826
G1 F1200 X70.836 Y120.543 E14.12462
G0 F4500 X71.499 Y120.471
G1 F1200 X72.076 Y119.894 E14.14226
G1 X72.018 Y120.011
G1 X71.746 Y119.739 E14.15058
G0 F4500 X72.736 Y120.729
G1 F1200 X73.523 Y121.516 E14.17464
G0 F4500 X74.273 Y121.125
G1 F1200 X75.804 Y119.594 E14.22145
G0 F4500 X75.591 Y120.155
