;FLAVOR:Marlin
;TIME:2037
;Filament used: 1.64874m
;Layer height: 0.2
;MINX:79.723
;MINY:71.187
;MINZ:0.1
;MAXX:130.278
;MAXY:138.813
;MAXZ:6.3
;Generated with Cura_SteamEngine main
M82 ;absolute extrusion mode
;Profil Homepage: https://github.com/NilsRo/Cura_Anycubic_MegaS_Profile

;Slicer Information - (Support for OctoPrint Slicer Estimator)
;Slicer info:material_guid;0ff92885-617b-4144-a03c-9989872454bc
;Slicer info:material_id;generic_pla_175
;Slicer info:material_brand;Generic
;Slicer info:material_name;PLA
;Slicer info:material_bed_temperature;0
;Slicer info:material_bed_temperature_layer_0;0
;Slicer info:material_print_temperature;190.0
;Slicer info:material_print_temperature_layer_0;190.0
;Slicer info:material_flow;100
;Slicer info:layer_height;0.2
;Slicer info:wall_thickness;0.8
;Slicer info:speed_print;30.0
;Slicer info:speed_topbottom;30
;Slicer info:travel_speed;120
;Slicer info:support;0
;Slicer info:retraction_speed;40.0
;Slicer info:retraction_amount;3.0
;Slicer info:layer_height;0.2
;Slicer info:infill_pattern;gyroid
;Slicer info:infill_sparse_density;10
;Slicer info:cool_fan_enabled;True
;Slicer info:cool_fan_speed;50
;Slicer info:sliced_at;Thu 23-02-2023 09:59:12
G21                                        ; metric values 
G90                                        ; absolute positioning 
M82                                        ; set extruder to absolute mode 
M107                                       ; start with the fan off 
M140 S0   ; Start heating the bed 
G4 S60                                     ; wait 1 minute 
M104 S190.0 ; start heating the hot end 
M190 S0   ; wait for bed 
M109 S190.0 ; wait for hotend 
M300 S1000 P500                            ; BEEP heating done 
G28 X0 Y10 Z0                              ; move X/Y to min endstops 
M420 S1                                    ; Enable leveling 
M420 Z2.0                                  ; Set leveling fading height to 2 mm 
G0 Z0.15                                   ; lift nozzle a bit 
G92 E0                                     ; zero the extruded length 
G1 X50 E20 F500                            ; Extrude 20mm of filament in a 5cm line. 
G92 E0                                     ; zero the extruded length again 
G1 E-2 F500                                ; Retract a little 
G1 X120 F4000                              ; Quickly wipe away from the filament line`
G92 E0
G92 E0
G1 F2400 E-3
;LAYER_COUNT:32
;LAYER:0
M107
G0 F6000 X87.593 Y75.756 Z0.1
G0 X84.767 Y82.56
;TYPE:SKIRT
G1 F2400 E0
G1 F1200 X85.145 Y81.026 E0.03416
G1 X85.54 Y79.789 E0.06223
G1 X85.791 Y79.099 E0.0781
G1 X86.142 Y78.235 E0.09826
G1 X86.471 Y77.516 E0.11536
G1 X86.771 Y76.956 E0.12909
G1 X87.032 Y76.527 E0.13995
G1 X87.593 Y75.756 E0.16056
G1 X87.982 Y75.314 E0.17329
G1 X88.411 Y74.86 E0.1868
G1 X88.957 Y74.315 E0.20347
G1 X89.6 Y73.745 E0.22205
G1 X90.006 Y73.405 E0.2335
G1 X90.554 Y73.004 E0.24818
G1 X91.393 Y72.533 E0.26898
G1 X92.293 Y72.168 E0.28998
G1 X93.205 Y71.864 E0.31076
G1 X93.946 Y71.692 E0.32721
G1 X94.597 Y71.568 E0.34153
G1 X95.224 Y71.472 E0.35525
G1 X95.926 Y71.387 E0.37053
G1 X96.655 Y71.324 E0.38635
G1 X98.382 Y71.248 E0.42372
G1 X100.543 Y71.21 E0.47045
G1 X102.64 Y71.191 E0.51579
G1 X105.422 Y71.187 E0.57593
G1 X107.377 Y71.225 E0.61821
G1 X108.779 Y71.3 E0.64856
G1 X110.13 Y71.414 E0.67787
G1 X111.49 Y71.56 E0.70744
G1 X112.639 Y71.702 E0.73247
G1 X116.706 Y72.116 E0.82085
G1 X117.404 Y72.173 E0.83599
G1 X117.944 Y72.242 E0.84776
G1 X118.56 Y72.351 E0.86128
G1 X119.221 Y72.509 E0.87598
G1 X120.108 Y72.858 E0.89658
G1 X120.584 Y73.098 E0.90811
G1 X121.093 Y73.378 E0.92067
G1 X121.813 Y73.803 E0.93874
G1 X122.519 Y74.258 E0.9569
G1 X123.128 Y74.687 E0.97301
G1 X123.693 Y75.146 E0.98874
G1 X124.236 Y75.647 E1.00472
G1 X124.708 Y76.136 E1.01941
G1 X125.257 Y76.894 E1.03964
G1 X125.522 Y77.339 E1.05084
G1 X125.91 Y78.044 E1.06824
G1 X126.213 Y78.627 E1.08244
G1 X126.604 Y79.426 E1.10167
G1 X126.865 Y80.054 E1.11638
G1 X127.098 Y80.942 E1.13622
G1 X127.236 Y81.721 E1.15333
G1 X127.91 Y85.902 E1.24488
G1 X128.316 Y88.635 E1.30462
G1 X128.612 Y90.789 E1.35162
G1 X128.848 Y92.633 E1.39181
G1 X129.031 Y94.184 E1.42558
G1 X129.147 Y95.251 E1.44878
G1 X129.385 Y97.868 E1.50559
G1 X129.64 Y100.477 E1.56226
G1 X129.846 Y103.098 E1.6191
G1 X129.991 Y105.348 E1.66784
G1 X130.123 Y107.778 E1.72046
G1 X130.189 Y109.269 E1.75272
G1 X130.227 Y110.342 E1.77593
G1 X130.267 Y112.378 E1.81996
G1 X130.278 Y113.815 E1.85103
G1 X130.274 Y116.509 E1.90927
G1 X130.258 Y118.324 E1.94851
G1 X130.191 Y122.195 E2.03221
G1 X130.146 Y124.05 E2.07232
G1 X130.018 Y128.179 E2.16163
G1 X129.987 Y128.869 E2.17656
G1 X129.917 Y129.545 E2.19126
G1 X129.768 Y130.209 E2.20597
G1 X129.415 Y131.129 E2.22727
G1 X129 Y131.986 E2.24786
G1 X128.731 Y132.479 E2.26
G1 X128.311 Y133.167 E2.27743
G1 X127.959 Y133.679 E2.29086
G1 X127.539 Y134.221 E2.30568
G1 X127.149 Y134.697 E2.31899
G1 X126.591 Y135.302 E2.33678
G1 X125.475 Y136.208 E2.36786
G1 X124.797 Y136.668 E2.38557
G1 X123.921 Y137.187 E2.40758
G1 X123.306 Y137.489 E2.42239
G1 X122.54 Y137.818 E2.44042
G1 X121.769 Y138.097 E2.45814
G1 X120.986 Y138.258 E2.47542
G1 X120.457 Y138.348 E2.48703
G1 X119.633 Y138.459 E2.505
G1 X118.556 Y138.565 E2.5284
G1 X117.645 Y138.638 E2.54816
G1 X115.968 Y138.733 E2.58447
G1 X114.661 Y138.773 E2.61274
G1 X113.082 Y138.799 E2.64688
G1 X110.542 Y138.813 E2.70179
G1 X100.156 Y138.811 E2.92633
G1 X99.231 Y138.798 E2.94633
G1 X98.338 Y138.717 E2.96571
G1 X93.388 Y138.189 E3.07333
G1 X92.092 Y138.043 E3.10153
G1 X91.189 Y137.931 E3.1212
G1 X90.344 Y137.811 E3.13965
G1 X89.116 Y137.603 E3.16658
G1 X88.339 Y137.44 E3.18374
G1 X87.663 Y137.268 E3.19882
G1 X86.841 Y136.987 E3.2176
G1 X86.319 Y136.763 E3.22988
G1 X85.729 Y136.469 E3.24414
G1 X85.033 Y136.071 E3.26147
G1 X84.575 Y135.78 E3.2732
G1 X83.883 Y135.293 E3.29149
G1 X83.262 Y134.798 E3.30866
G1 X82.654 Y134.169 E3.32757
G1 X82.305 Y133.773 E3.33899
G1 X81.982 Y133.371 E3.35014
G1 X81.684 Y132.965 E3.36102
G1 X81.3 Y132.391 E3.37595
G1 X80.917 Y131.778 E3.39158
G1 X80.511 Y131.08 E3.40904
G1 X80.206 Y130.473 E3.42372
G1 X79.974 Y129.834 E3.43842
G1 X79.819 Y129.172 E3.45312
G1 X79.735 Y128.264 E3.47283
G1 X79.723 Y127.347 E3.49266
G1 X79.737 Y123.686 E3.57181
G1 X79.755 Y121.88 E3.61085
G1 X79.795 Y120.123 E3.64885
G1 X79.858 Y118.417 E3.68576
G1 X79.93 Y116.916 E3.71824
G1 X80.028 Y115.285 E3.75357
G1 X80.137 Y113.699 E3.78794
G1 X80.273 Y111.962 E3.8256
G1 X80.477 Y109.575 E3.8774
G1 X80.874 Y105.332 E3.96953
G1 X81.048 Y103.769 E4.00353
G1 X81.397 Y101.27 E4.05808
G1 X81.901 Y97.903 E4.13168
G1 X82.385 Y94.833 E4.19887
G1 X82.538 Y93.918 E4.21893
G1 X82.929 Y91.758 E4.26638
G1 X83.649 Y88.007 E4.34896
G1 X84.359 Y84.468 E4.42699
G1 X84.767 Y82.56 E4.46917
G1 F2400 E1.46917
G0 F6000 X84.867 Y84.577
G1 F2400 E4.46917
G1 F1200 X85.314 Y82.5 E4.5151
G1 X85.641 Y81.184 E4.54442
G1 X85.954 Y80.188 E4.56699
G1 X86.28 Y79.277 E4.58791
G1 X86.623 Y78.434 E4.60758
G1 X86.942 Y77.736 E4.62417
G1 X87.215 Y77.226 E4.63668
G1 X87.476 Y76.797 E4.64754
G1 X87.987 Y76.096 E4.66629
G1 X88.36 Y75.671 E4.67852
G1 X88.917 Y75.086 E4.69598
G1 X89.424 Y74.596 E4.71122
G1 X89.945 Y74.134 E4.72628
G1 X90.337 Y73.806 E4.73733
G1 X90.862 Y73.425 E4.75135
G1 X91.623 Y73 E4.77019
G1 X92.457 Y72.662 E4.78965
G1 X93.354 Y72.363 E4.81009
G1 X94.254 Y72.154 E4.83006
G1 X95.083 Y72.017 E4.84823
G1 X95.989 Y71.903 E4.86797
G1 X96.679 Y71.843 E4.88294
G1 X98.245 Y71.772 E4.91684
G1 X100.548 Y71.73 E4.96663
G1 X102.64 Y71.711 E5.01186
G1 X105.422 Y71.707 E5.07201
G1 X107.164 Y71.738 E5.10967
G1 X108.917 Y71.831 E5.14762
G1 X110.074 Y71.931 E5.17273
G1 X111.519 Y72.087 E5.20415
G1 X112.57 Y72.217 E5.22705
G1 X116.663 Y72.634 E5.31599
G1 X117.614 Y72.712 E5.33662
G1 X118.47 Y72.863 E5.35541
G1 X119.1 Y73.016 E5.36943
G1 X119.878 Y73.325 E5.38752
G1 X120.336 Y73.555 E5.3986
G1 X120.829 Y73.826 E5.41077
G1 X121.757 Y74.38 E5.43413
G1 X122.235 Y74.693 E5.44649
G1 X122.826 Y75.11 E5.46212
G1 X123.341 Y75.528 E5.47646
G1 X123.884 Y76.029 E5.49243
G1 X124.332 Y76.497 E5.50644
G1 X124.889 Y77.27 E5.52704
G1 X125.384 Y78.164 E5.54913
G1 X125.813 Y78.989 E5.56923
G1 X126.137 Y79.654 E5.58523
G1 X126.384 Y80.253 E5.59923
G1 X126.586 Y81.033 E5.61665
G1 X126.723 Y81.804 E5.63358
G1 X127.396 Y85.979 E5.72501
G1 X127.801 Y88.706 E5.78461
G1 X128.096 Y90.855 E5.8315
G1 X128.332 Y92.694 E5.87159
G1 X128.514 Y94.241 E5.90526
G1 X128.63 Y95.308 E5.92847
G1 X128.868 Y97.919 E5.98515
G1 X129.122 Y100.518 E6.0416
G1 X129.327 Y103.132 E6.09829
G1 X129.472 Y105.376 E6.1469
G1 X129.604 Y107.801 E6.19941
G1 X129.67 Y109.288 E6.23159
G1 X129.707 Y110.353 E6.25463
G1 X129.747 Y112.382 E6.2985
G1 X129.758 Y113.814 E6.32946
G1 X129.754 Y116.505 E6.38764
G1 X129.738 Y118.315 E6.42677
G1 X129.671 Y122.182 E6.51038
G1 X129.626 Y124.034 E6.55043
G1 X129.499 Y128.156 E6.63959
G1 X129.468 Y128.846 E6.65452
G1 X129.399 Y129.491 E6.66854
G1 X129.251 Y130.122 E6.68256
G1 X128.947 Y130.902 E6.70065
G1 X128.532 Y131.759 E6.72124
G1 X128.288 Y132.208 E6.73229
G1 X127.868 Y132.896 E6.74971
G1 X127.547 Y133.362 E6.76195
G1 X127.137 Y133.892 E6.77643
G1 X126.747 Y134.368 E6.78974
G1 X126.229 Y134.926 E6.8062
G1 X125.52 Y135.505 E6.82599
G1 X125.043 Y135.874 E6.83903
G1 X124.53 Y136.222 E6.85243
G1 X123.701 Y136.716 E6.87329
G1 X123.101 Y137.011 E6.88774
G1 X122.335 Y137.34 E6.90577
G1 X121.724 Y137.559 E6.9198
G1 X120.899 Y137.745 E6.93808
G1 X120.189 Y137.863 E6.95364
G1 X119.582 Y137.941 E6.96687
G1 X118.514 Y138.046 E6.99007
G1 X117.477 Y138.128 E7.01256
G1 X115.801 Y138.22 E7.04885
G1 X114.653 Y138.253 E7.07368
G1 X113.079 Y138.279 E7.10771
G1 X110.542 Y138.293 E7.16256
G1 X100.163 Y138.291 E7.38695
G1 X99.258 Y138.278 E7.40651
G1 X98.394 Y138.2 E7.42527
G1 X93.446 Y137.672 E7.53285
G1 X92.156 Y137.527 E7.56091
G1 X91.261 Y137.416 E7.58041
G1 X90.585 Y137.322 E7.59516
G1 X89.203 Y137.09 E7.62546
G1 X88.45 Y136.932 E7.64209
G1 X87.794 Y136.765 E7.65673
G1 X87.046 Y136.509 E7.67382
G1 X86.524 Y136.285 E7.6861
G1 X85.987 Y136.017 E7.69907
G1 X85.073 Y135.494 E7.72184
G1 X84.183 Y134.868 E7.74536
G1 X83.601 Y134.401 E7.7615
G1 X82.864 Y133.638 E7.78443
G1 X82.236 Y132.857 E7.8061
G1 X81.629 Y131.942 E7.82984
G1 X81.359 Y131.505 E7.84094
G1 X80.961 Y130.82 E7.85807
G1 X80.672 Y130.24 E7.87208
G1 X80.456 Y129.628 E7.88611
G1 X80.317 Y128.995 E7.90012
G1 X80.255 Y128.257 E7.91613
G1 X80.243 Y127.34 E7.93596
G1 X80.257 Y123.691 E8.01485
G1 X80.275 Y121.892 E8.05374
G1 X80.315 Y120.135 E8.09173
G1 X80.377 Y118.442 E8.12836
G1 X80.449 Y116.947 E8.16072
G1 X80.546 Y115.321 E8.19593
G1 X80.656 Y113.739 E8.23022
G1 X80.791 Y112.006 E8.2678
G1 X80.995 Y109.624 E8.31948
G1 X81.391 Y105.39 E8.41142
G1 X81.565 Y103.827 E8.44542
G1 X81.911 Y101.346 E8.49957
G1 X82.414 Y97.984 E8.57306
G1 X82.898 Y94.918 E8.64017
G1 X83.05 Y94.011 E8.66005
G1 X83.44 Y91.856 E8.7074
G1 X84.159 Y88.109 E8.78988
G1 X84.867 Y84.577 E8.86776
G1 F2400 E5.86776
;MESH:Car Alarm Cap v2.stl
G0 F6000 X107.652 Y119.018
;TYPE:WALL-INNER
G1 F2400 E8.86776
G1 F1200 X107.426 Y118.654 E8.87702
G1 X107.328 Y118.157 E8.88797
G1 X107.328 Y117.697 E8.89792
G1 X102.746 Y117.697 E8.99698
G1 X102.746 Y118.157 E9.00692
G1 X102.648 Y118.654 E9.01787
G1 X102.422 Y119.018 E9.02714
G1 X102.089 Y119.288 E9.0364
G1 X102.422 Y119.557 E9.04566
G1 X102.636 Y119.893 E9.05427
G1 X102.746 Y120.418 E9.06587
G1 X102.746 Y120.79 E9.07391
G1 X107.328 Y120.79 E9.17297
G1 X107.328 Y120.418 E9.18101
G1 X107.437 Y119.893 E9.1926
G1 X107.652 Y119.557 E9.20123
G1 X107.985 Y119.288 E9.21048
G1 X107.652 Y119.018 E9.21975
G1 F2400 E6.21975
G0 F6000 X101.446 Y118.983
G1 F2400 E9.21975
G1 F1023 X94.655 Y118.983 E9.39198
G1 X94.947 Y119.593 E9.40913
G1 X101.446 Y119.593 E9.57395
G1 F1104.4 X101.831 Y119.739 E9.58362
G1 F1200 X102.16 Y120.103 E9.59423
G1 X102.226 Y120.418 E9.60118
G1 X102.226 Y121.31 E9.62047
G1 X107.848 Y121.31 E9.74201
G1 X107.848 Y120.205 E9.7659
G1 X108.042 Y119.901 E9.7737
G1 F1100.5 X108.556 Y119.593 E9.78782
G1 F1016.3 X109.875 Y119.593 E9.82149
G1 F1017.9 X111.194 Y119.593 E9.85511
G1 F1019.6 X112.513 Y119.593 E9.88867
G1 F1021.3 X113.832 Y119.593 E9.92217
G1 F1023 X115.151 Y119.593 E9.95562
G1 X114.826 Y118.983 E9.97315
G1 X113.258 Y118.983 E10.01292
G1 F1021.3 X111.69 Y118.982 E10.05275
G1 F1017.9 X110.122 Y118.982 E10.09271
G1 F1016.3 X108.554 Y118.981 E10.13274
G1 F1100.5 X108.042 Y118.674 E10.14681
G1 F1200 X107.848 Y118.362 E10.15475
G1 X107.848 Y117.177 E10.18037
G1 X102.226 Y117.177 E10.30192
G1 X102.226 Y118.389 E10.32812
G1 X101.831 Y118.837 E10.34103
G1 F1104.4 X101.446 Y118.983 E10.3507
G1 F2400 E7.3507
G0 F6000 X101.706 Y116.657
;TYPE:WALL-OUTER
G1 F2400 E10.3507
G1 F1200 X101.706 Y118.235 E10.38482
G1 X101.545 Y118.418 E10.39009
G1 X93.758 Y118.418 E10.55843
G1 X94.591 Y120.158 E10.60014
G1 X101.546 Y120.158 E10.7505
G1 X101.706 Y120.338 E10.75571
G1 X101.706 Y121.83 E10.78796
G1 X108.368 Y121.83 E10.93199
G1 X108.368 Y120.336 E10.96429
G1 X108.529 Y120.158 E10.96948
G1 X116.087 Y120.158 E11.13287
G1 X115.167 Y118.418 E11.17543
G1 X108.527 Y118.416 E11.31898
G1 X108.368 Y118.235 E11.32419
G1 X108.368 Y116.657 E11.3583
G1 X101.706 Y116.657 E11.50233
G0 F6000 X101.706 Y117.057
G1 F2400 E8.50233
G0 F6000 X106.98 Y119.69
;TYPE:SKIN
G1 F2400 E11.50233
G1 F1200 X107.254 Y119.321 E11.51226
G1 X106.957 Y118.843 E11.52443
G1 X106.831 Y118.198 E11.53864
G1 X103.242 Y118.197 E11.61623
G1 X103.117 Y118.841 E11.63041
G1 X102.82 Y119.321 E11.64261
G1 X103.093 Y119.69 E11.65254
G1 X103.225 Y120.29 E11.66582
G1 X106.85 Y120.289 E11.74419
G1 X106.98 Y119.69 E11.75744
G1 F2400 E8.75744
G0 F6000 X105.955 Y118.457
G1 F2400 E11.75744
G1 F1200 X106.882 Y119.383 E11.78577
G0 F6000 X106.667 Y119.904
G1 F1200 X105.22 Y118.457 E11.83001
G0 F6000 X104.484 Y118.457
G1 F1200 X106.055 Y120.027 E11.87802
G0 F6000 X105.32 Y120.027
G1 F1200 X103.749 Y118.457 E11.92604
G0 F6000 X103.376 Y118.82
G1 F1200 X104.585 Y120.028 E11.96299
G0 F6000 X103.849 Y120.028
G1 F1200 X103.163 Y119.341 E11.98398
G1 F2400 E8.98398
G0 F6000 X98.611 Y114.096
;TYPE:WALL-INNER
G1 F2400 E11.98398
G1 F1200 X98.757 Y113.821 E11.99071
G1 X99.093 Y113.487 E12.00095
G1 X99.72 Y113.266 E12.01532
G1 X110.234 Y113.265 E12.24263
G1 X110.657 Y113.369 E12.25204
G1 X111.048 Y113.633 E12.26224
G1 X111.343 Y114.075 E12.27373
G1 X111.437 Y114.562 E12.28445
G1 X111.437 Y115.097 E12.29602
G1 X116.62 Y115.097 E12.40807
G1 X117.021 Y115.198 E12.41701
G1 X117.597 Y115.651 E12.43285
G1 X120.544 Y121.505 E12.57454
G1 X120.681 Y122.045 E12.58659
G1 X120.617 Y122.5 E12.59652
G1 X120.41 Y122.886 E12.60599
G1 X120.154 Y123.137 E12.61374
G1 X119.544 Y123.391 E12.62803
G1 X111.437 Y123.39 E12.80329
G1 X111.359 Y124.283 E12.82267
G1 X111.091 Y124.72 E12.83376
G1 X110.751 Y124.983 E12.84305
G1 X110.273 Y125.136 E12.8539
G1 X99.647 Y125.136 E13.08362
G1 X99.178 Y124.964 E13.09442
G1 X98.858 Y124.705 E13.10332
G1 X98.599 Y124.27 E13.11427
G1 X98.526 Y123.39 E13.13336
G1 X93.131 Y123.389 E13.24999
G1 X92.702 Y123.221 E13.25995
G1 X92.266 Y122.846 E13.27239
G1 X89.425 Y116.963 E13.41363
G1 X89.312 Y116.606 E13.42172
G1 X89.307 Y116.22 E13.43007
G1 X89.448 Y115.785 E13.43995
G1 X89.709 Y115.446 E13.4492
G1 X90.047 Y115.217 E13.45803
G1 X90.434 Y115.097 E13.46679
G1 X98.526 Y115.097 E13.64173
G1 X98.526 Y114.562 E13.6533
G1 X98.611 Y114.096 E13.66354
G0 F6000 X99.386 Y113.917
G1 F1200 X99.678 Y113.784 E13.67047
G1 X110.252 Y113.782 E13.89907
G1 X110.499 Y113.87 E13.90474
G1 X110.768 Y114.102 E13.91242
G1 X110.917 Y114.562 E13.92288
G1 X110.917 Y115.617 E13.94568
G1 X116.602 Y115.621 E14.06859
G1 X116.972 Y115.764 E14.07716
G1 X117.163 Y115.947 E14.08288
G1 X120.079 Y121.739 E14.22307
G1 X120.161 Y122.063 E14.2303
G1 X120.123 Y122.336 E14.23626
G1 X119.845 Y122.718 E14.24647
G1 X119.478 Y122.871 E14.25507
G1 X110.917 Y122.87 E14.44015
G1 X110.917 Y124.027 E14.46516
G1 X110.709 Y124.367 E14.47378
G1 X110.221 Y124.616 E14.48562
G1 X99.717 Y124.616 E14.71271
G1 X99.245 Y124.358 E14.72434
G1 X99.046 Y124.022 E14.73278
