;FLAVOR:Marlin
;TIME:2531
;Filament used: 2.12975m
;Layer height: 0.2
;MINX:85.691
;MINY:77.165
;MINZ:0.1
;MAXX:124.297
;MAXY:132.833
;MAXZ:6.3
;Generated with Cura_SteamEngine main
M82 ;absolute extrusion mode
;Profil Homepage: https://github.com/NilsRo/Cura_Anycubic_MegaS_Profile

;Slicer Information - (Support for OctoPrint Slicer Estimator)
;Slicer info:material_guid;0ff92885-617b-4144-a03c-9989872454bc
;Slicer info:material_id;generic_pla_175
;Slicer info:material_brand;Generic
;Slicer info:material_name;PLA
;Slicer info:material_bed_temperature;0
;Slicer info:material_bed_temperature_layer_0;0
;Slicer info:material_print_temperature;190.0
;Slicer info:material_print_temperature_layer_0;190.0
;Slicer info:material_flow;100
;Slicer info:layer_height;0.2
;Slicer info:wall_thickness;0.8
;Slicer info:speed_print;30.0
;Slicer info:speed_topbottom;30
;Slicer info:travel_speed;120
;Slicer info:support;0
;Slicer info:retraction_speed;40.0
;Slicer info:retraction_amount;3.0
;Slicer info:layer_height;0.2
;Slicer info:infill_pattern;gyroid
;Slicer info:infill_sparse_density;100
;Slicer info:cool_fan_enabled;True
;Slicer info:cool_fan_speed;50
;Slicer info:sliced_at;Thu 23-02-2023 12:41:18
G21                                        ; metric values 
G90                                        ; absolute positioning 
M82                                        ; set extruder to absolute mode 
M107                                       ; start with the fan off 
M140 S0   ; Start heating the bed 
G4 S60                                     ; wait 1 minute 
M104 S190.0 ; start heating the hot end 
M190 S0   ; wait for bed 
M109 S190.0 ; wait for hotend 
M300 S1000 P500                            ; BEEP heating done 
G28 X0 Y10 Z0                              ; move X/Y to min endstops 
M420 S1                                    ; Enable leveling 
M420 Z2.0                                  ; Set leveling fading height to 2 mm 
G0 Z0.15                                   ; lift nozzle a bit 
G92 E0                                     ; zero the extruded length 
G1 X50 E20 F500                            ; Extrude 20mm of filament in a 5cm line. 
G92 E0                                     ; zero the extruded length again 
G1 E-2 F500                                ; Retract a little 
G1 X120 F4000                              ; Quickly wipe away from the filament line`
G92 E0
G92 E0
G1 F2400 E-3
;LAYER_COUNT:32
;LAYER:0
M107
;MESH:Car Alarm Cap v3.stl
G0 F6000 X110.345 Y78.554 Z0.1
;TYPE:WALL-INNER
G1 F2400 E0
G1 F1200 X109.291 Y78.444 E0.02291
G1 X108.244 Y78.352 E0.04563
G1 X107.208 Y78.297 E0.06806
G1 X106.593 Y78.281 E0.08136
G1 X105.154 Y78.265 E0.11247
G1 X102.42 Y78.272 E0.17158
G1 X100.304 Y78.293 E0.21733
G1 X98.537 Y78.326 E0.25554
G1 X97.767 Y78.348 E0.27219
G1 X96.726 Y78.414 E0.29474
G1 X95.567 Y78.57 E0.32002
G1 X94.531 Y78.837 E0.34315
G1 X93.897 Y79.381 E0.36121
G1 X93.225 Y80.047 E0.38167
G1 X92.976 Y80.399 E0.39099
G1 X88.409 Y103.711 E0.90455
G1 X88.138 Y104.155 E0.9158
G1 X87.989 Y105.319 E0.94117
G1 X87.531 Y110.188 E1.0469
G1 X87.348 Y112.322 E1.0932
G1 X87.198 Y114.232 E1.13462
G1 X87.075 Y116.017 E1.1733
G1 X86.981 Y117.654 E1.20875
G1 X86.912 Y119.184 E1.24186
G1 X86.862 Y120.7 E1.27465
G1 X86.831 Y122.208 E1.30726
G1 X86.817 Y123.746 E1.34051
G1 X86.802 Y127.825 E1.4287
G1 X87.24 Y128.559 E1.44718
G1 X87.653 Y129.17 E1.46312
G1 X88.216 Y129.735 E1.48037
G1 X89.343 Y130.402 E1.50868
G1 X90.196 Y130.609 E1.52765
G1 X90.831 Y130.729 E1.54162
G1 X91.62 Y130.848 E1.55888
G1 X92.625 Y130.977 E1.58078
G1 X93.899 Y131.123 E1.6085
G1 X99.609 Y131.732 E1.73265
G1 X110.85 Y131.733 E1.97567
G1 X113.324 Y131.717 E2.02916
G1 X114.999 Y131.686 E2.06537
G1 X116.429 Y131.627 E2.09632
G1 X117.545 Y131.547 E2.1205
G1 X118.498 Y131.461 E2.14119
G1 X119.141 Y131.39 E2.15518
G1 X119.837 Y131.285 E2.17039
G1 X120.407 Y131.042 E2.18379
G1 X121.066 Y130.666 E2.20019
G1 X121.751 Y130.125 E2.21906
G1 X122.474 Y129.215 E2.24419
G1 X122.93 Y128.313 E2.26604
G1 X123.068 Y123.86 E2.36236
G1 X123.113 Y122.037 E2.40178
G1 X123.176 Y118.478 E2.47873
G1 X123.193 Y116.788 E2.51527
G1 X123.197 Y113.659 E2.58292
G1 X123.185 Y112.251 E2.61336
G1 X123.163 Y111.014 E2.64011
G1 X123.13 Y109.892 E2.66437
G1 X123.037 Y107.792 E2.70982
G1 X122.909 Y105.512 E2.75919
G1 X122.765 Y103.317 E2.80674
G1 X122.611 Y101.349 E2.84942
G1 X122.538 Y100.566 E2.86642
G1 X122.385 Y99.116 E2.89794
G1 X122.136 Y96.283 E2.95943
G1 X122.037 Y95.327 E2.9802
G1 X121.777 Y93.124 E3.02816
G1 X121.449 Y90.65 E3.08212
G1 X121.262 Y89.321 E3.11113
G1 X120.87 Y86.705 E3.16832
G1 X120.165 Y82.358 E3.26352
G1 X119.727 Y81.487 E3.2846
G1 X119.343 Y80.753 E3.30251
G1 X118.998 Y80.429 E3.31274
G1 X118.28 Y79.935 E3.33158
G1 X117.735 Y79.598 E3.34544
G1 X117.04 Y79.231 E3.36243
G1 X115.177 Y79.212 E3.40271
G1 X113.874 Y79.064 E3.43106
G1 X112.978 Y78.901 E3.45075
G1 X112.343 Y78.804 E3.46463
G1 X111.199 Y78.654 E3.48958
G1 X110.345 Y78.554 E3.50817
G1 F2400 E0.50817
G0 F6000 X117.994 Y79.146
G1 F2400 E3.50817
G1 F1200 X117.303 Y78.781 E3.52506
G1 X116.934 Y78.71 E3.53318
G1 X115.152 Y78.69 E3.57171
G1 X114.017 Y78.56 E3.59641
G1 X113.064 Y78.388 E3.61735
G1 X112.412 Y78.289 E3.6316
G1 X111.25 Y78.135 E3.65694
G1 X109.337 Y77.926 E3.69855
G1 X108.281 Y77.833 E3.72147
G1 X107.229 Y77.777 E3.74424
G1 X106.639 Y77.761 E3.757
G1 X105.152 Y77.745 E3.78915
G1 X102.415 Y77.752 E3.84832
G1 X100.294 Y77.773 E3.89418
G1 X98.522 Y77.806 E3.93249
G1 X97.644 Y77.834 E3.95148
G1 X96.693 Y77.894 E3.97209
G1 X95.467 Y78.058 E3.99883
G1 X94.714 Y78.252 E4.01564
G1 X94.157 Y78.473 E4.02859
G1 X93.544 Y78.999 E4.04605
G1 X92.831 Y79.705 E4.06775
G1 X92.487 Y80.189 E4.08058
G1 X87.907 Y103.574 E4.59575
G1 X87.785 Y103.828 E4.60184
G1 X87.644 Y103.87 E4.60502
G1 X87.472 Y105.263 E4.63537
G1 X87.013 Y110.14 E4.74127
G1 X86.829 Y112.281 E4.78773
G1 X86.679 Y114.196 E4.82926
G1 X86.545 Y116.163 E4.87188
G1 X86.461 Y117.63 E4.90365
G1 X86.392 Y119.167 E4.93691
G1 X86.342 Y120.689 E4.96983
G1 X86.311 Y122.204 E5.00259
G1 X86.297 Y123.744 E5.03588
G1 X86.281 Y127.967 E5.12718
G1 X86.801 Y128.839 E5.14913
G1 X87.247 Y129.498 E5.16633
G1 X87.756 Y130.01 E5.18194
G1 X88.183 Y130.321 E5.19336
G1 X88.867 Y130.724 E5.21053
G1 X89.371 Y130.943 E5.22241
G1 X90.086 Y131.118 E5.23832
G1 X90.744 Y131.241 E5.25279
G1 X91.548 Y131.363 E5.27037
G1 X92.591 Y131.496 E5.2931
G1 X93.843 Y131.64 E5.32035
G1 X99.581 Y132.252 E5.4451
G1 X110.854 Y132.253 E5.68882
G1 X113.334 Y132.237 E5.74243
G1 X115.009 Y132.206 E5.77865
G1 X116.396 Y132.15 E5.80866
G1 X117.591 Y132.065 E5.83456
G1 X118.466 Y131.987 E5.85355
G1 X119.209 Y131.906 E5.86971
G1 X119.981 Y131.789 E5.88659
G1 X120.638 Y131.509 E5.90203
G1 X121.357 Y131.099 E5.91992
G1 X122.12 Y130.496 E5.94095
G1 X122.753 Y129.701 E5.96292
G1 X123.045 Y129.239 E5.97474
G1 X123.447 Y128.444 E5.99399
G1 X123.588 Y123.873 E6.09286
G1 X123.633 Y122.047 E6.13235
G1 X123.696 Y118.484 E6.20939
G1 X123.713 Y116.789 E6.24604
G1 X123.717 Y113.655 E6.31379
G1 X123.705 Y112.241 E6.34436
G1 X123.683 Y111 E6.3712
G1 X123.649 Y109.869 E6.39566
G1 X123.556 Y107.763 E6.44123
G1 X123.428 Y105.478 E6.49071
G1 X123.279 Y103.218 E6.53967
G1 X123.129 Y101.302 E6.58122
G1 X123.056 Y100.512 E6.59838
G1 X122.903 Y99.071 E6.6297
G1 X122.653 Y96.23 E6.69136
G1 X122.554 Y95.266 E6.71231
G1 X122.292 Y93.056 E6.76042
G1 X121.964 Y90.578 E6.81446
G1 X121.776 Y89.244 E6.84359
G1 X121.383 Y86.622 E6.90091
G1 X120.666 Y82.196 E6.99784
G1 X120.188 Y81.246 E7.02083
G1 X119.763 Y80.434 E7.04065
G1 X119.325 Y80.023 E7.05363
G1 X118.59 Y79.515 E7.07295
G1 X117.994 Y79.146 E7.0881
G1 F2400 E4.0881
G0 F6000 X112.685 Y88.938
G1 F2400 E7.0881
G1 F1200 X111.768 Y88.406 E7.11102
G1 X111.051 Y87.69 E7.13293
G1 X110.56 Y86.869 E7.15361
G1 X110.262 Y85.963 E7.17423
G1 X110.174 Y85.144 E7.19204
G1 X110.173 Y84.886 E7.19761
G1 X110.252 Y84.079 E7.21514
G1 X110.536 Y83.177 E7.23559
G1 X111.014 Y82.346 E7.25631
G1 X111.712 Y81.624 E7.27802
G1 X112.64 Y81.061 E7.30149
G1 X113.521 Y80.869 E7.32098
G1 X114.711 Y80.864 E7.34671
G1 X115.647 Y81.049 E7.36734
G1 X116.592 Y81.607 E7.39106
G1 X117.299 Y82.327 E7.41288
G1 X117.783 Y83.153 E7.43358
G1 X118.073 Y84.052 E7.454
G1 X118.166 Y84.979 E7.47414
G1 X118.076 Y85.925 E7.49468
G1 X117.783 Y86.841 E7.51547
G1 X117.296 Y87.668 E7.53622
G1 X116.597 Y88.38 E7.55779
G1 X115.663 Y88.931 E7.58124
G1 X114.788 Y89.126 E7.60062
G1 X113.578 Y89.127 E7.62678
G1 X112.685 Y88.938 E7.64651
G1 F2400 E4.64651
G0 F6000 X111.012 Y83.392
G1 F2400 E7.64651
G1 F1200 X111.436 Y82.657 E7.66486
G1 X112.037 Y82.035 E7.68355
G1 X112.836 Y81.551 E7.70375
G1 X113.58 Y81.388 E7.72022
G1 X114.695 Y81.389 E7.74432
G1 X115.457 Y81.542 E7.76112
G1 X116.269 Y82.019 E7.78148
G1 X116.878 Y82.637 E7.80024
G1 X117.311 Y83.376 E7.81876
G1 X117.562 Y84.162 E7.8366
G1 X117.642 Y85.005 E7.8549
G1 X117.565 Y85.818 E7.87256
G1 X117.305 Y86.627 E7.89093
G1 X116.88 Y87.35 E7.90906
G1 X116.271 Y87.97 E7.92785
G1 X115.47 Y88.441 E7.94794
G1 X114.731 Y88.606 E7.96431
G1 X113.624 Y88.608 E7.98824
G1 X112.859 Y88.441 E8.00517
G1 X112.063 Y87.973 E8.02513
G1 X111.457 Y87.357 E8.04381
G1 X111.023 Y86.623 E8.06225
G1 X110.773 Y85.851 E8.07979
G1 X110.692 Y85.091 E8.09631
G1 X110.691 Y84.936 E8.09966
G1 X110.765 Y84.183 E8.11602
G1 X111.012 Y83.392 E8.13394
G1 F2400 E5.13394
G0 F6000 X113.613 Y81.913
;TYPE:WALL-OUTER
G1 F2400 E8.13394
G1 F1200 X114.635 Y81.905 E8.15603
G1 X115.273 Y82.036 E8.17011
G1 X115.955 Y82.441 E8.18726
G1 X116.462 Y82.959 E8.20293
G1 X116.823 Y83.569 E8.21826
G1 X117.052 Y84.285 E8.23451
G1 X117.122 Y84.999 E8.25002
G1 X117.051 Y85.717 E8.26562
G1 X116.829 Y86.411 E8.28137
G1 X116.463 Y87.032 E8.29695
G1 X115.944 Y87.561 E8.31297
G1 X115.276 Y87.949 E8.32967
G1 X114.648 Y88.087 E8.34357
G1 X113.696 Y88.089 E8.36416
G1 X113.055 Y87.953 E8.37832
G1 X112.39 Y87.564 E8.39498
G1 X111.882 Y87.049 E8.41062
G1 X111.51 Y86.429 E8.42625
G1 X111.28 Y85.721 E8.44234
G1 X111.209 Y85.038 E8.45719
G1 X111.274 Y84.305 E8.4731
G1 X111.486 Y83.619 E8.48862
G1 X111.855 Y82.975 E8.50467
G1 X112.367 Y82.443 E8.52063
G1 X113.031 Y82.045 E8.53736
G1 X113.613 Y81.913 E8.55027
G0 F6000 X114.013 Y81.91
G1 F2400 E5.55027
G0 F6000 X87.073 Y104.261
G1 F2400 E8.55027
G1 F1200 X86.955 Y105.207 E8.57088
G1 X86.492 Y110.114 E8.67743
G1 X86.311 Y112.24 E8.72356
G1 X86.161 Y114.16 E8.7652
G1 X86.037 Y115.957 E8.80414
G1 X85.942 Y117.606 E8.83985
G1 X85.872 Y119.15 E8.87326
G1 X85.822 Y120.679 E8.90633
G1 X85.791 Y122.199 E8.9392
G1 X85.777 Y123.742 E8.97256
G1 X85.761 Y128.109 E9.06697
G1 X86.362 Y129.118 E9.09236
G1 X86.686 Y129.596 E9.10485
G1 X87.004 Y129.991 E9.11581
G1 X87.416 Y130.406 E9.12845
G1 X87.897 Y130.756 E9.14131
G1 X88.63 Y131.188 E9.15971
G1 X89.205 Y131.438 E9.17326
G1 X89.976 Y131.626 E9.19042
G1 X90.657 Y131.754 E9.2054
G1 X91.529 Y131.885 E9.22446
G1 X92.531 Y132.012 E9.2463
G1 X93.788 Y132.157 E9.27365
G1 X99.553 Y132.772 E9.399
G1 X110.857 Y132.773 E9.64338
G1 X113.344 Y132.757 E9.69714
G1 X115.13 Y132.722 E9.73576
G1 X116.425 Y132.669 E9.76378
G1 X117.637 Y132.583 E9.79005
G1 X118.512 Y132.505 E9.80904
G1 X119.276 Y132.422 E9.82566
G1 X120.124 Y132.293 E9.8442
G1 X120.87 Y131.975 E9.86173
G1 X121.649 Y131.531 E9.88112
G1 X122.49 Y130.867 E9.90428
G1 X123.177 Y130.003 E9.92815
G1 X123.498 Y129.496 E9.94112
G1 X123.963 Y128.576 E9.96341
G1 X124.108 Y123.886 E10.06485
G1 X124.153 Y122.056 E10.10442
G1 X124.216 Y118.489 E10.18155
G1 X124.233 Y116.79 E10.21828
G1 X124.237 Y113.65 E10.28617
G1 X124.225 Y112.232 E10.31683
G1 X124.203 Y110.985 E10.34379
G1 X124.169 Y109.846 E10.36842
G1 X124.075 Y107.734 E10.41413
G1 X123.947 Y105.444 E10.46371
G1 X123.807 Y103.308 E10.50999
G1 X123.647 Y101.254 E10.55453
G1 X123.573 Y100.458 E10.57181
G1 X123.421 Y99.025 E10.60297
G1 X123.171 Y96.177 E10.66478
G1 X123.07 Y95.205 E10.6859
G1 X122.808 Y92.988 E10.73417
G1 X122.479 Y90.506 E10.78829
G1 X122.29 Y89.167 E10.81753
G1 X121.897 Y86.539 E10.87498
G1 X121.166 Y82.034 E10.97364
G1 X120.649 Y81.006 E10.99852
G1 X120.183 Y80.115 E11.02026
G1 X119.653 Y79.617 E11.03598
G1 X118.875 Y79.08 E11.05642
G1 X118.252 Y78.694 E11.07226
G1 X117.477 Y78.285 E11.09121
G1 X116.986 Y78.19 E11.10202
G1 X115.187 Y78.171 E11.14091
G1 X114.077 Y78.043 E11.16507
G1 X113.15 Y77.875 E11.18544
G1 X112.48 Y77.773 E11.20009
G1 X111.293 Y77.617 E11.22597
G1 X110.453 Y77.52 E11.24425
G1 X109.383 Y77.408 E11.26751
G1 X108.317 Y77.314 E11.29065
G1 X107.25 Y77.257 E11.31375
G1 X106.649 Y77.241 E11.32674
G1 X105.151 Y77.225 E11.35913
G1 X102.41 Y77.232 E11.41839
G1 X100.285 Y77.253 E11.46433
G1 X98.507 Y77.286 E11.50278
G1 X97.72 Y77.309 E11.5198
G1 X96.618 Y77.379 E11.54367
G1 X95.367 Y77.547 E11.57096
G1 X94.553 Y77.756 E11.58913
G1 X93.884 Y78.021 E11.60469
G1 X93.191 Y78.617 E11.62445
G1 X92.433 Y79.367 E11.6475
G1 X91.998 Y79.979 E11.66373
G1 X87.391 Y103.514 E12.18219
G1 X87.169 Y103.58 E12.1872
G1 X87.073 Y104.261 E12.20207
G0 F6000 X87.024 Y104.658
G1 F2400 E9.20207
G0 F6000 X120.613 Y122.511
;TYPE:WALL-INNER
G1 F2400 E12.20207
G1 F1200 X120.402 Y122.897 E12.21158
G1 X120.147 Y123.143 E12.21924
G1 X119.54 Y123.391 E12.23341
G1 X111.437 Y123.39 E12.40859
G1 X111.359 Y124.283 E12.42797
G1 X111.091 Y124.72 E12.43906
G1 X110.753 Y124.983 E12.44832
G1 X110.273 Y125.136 E12.45921
G1 X99.647 Y125.136 E12.68893
G1 X99.178 Y124.964 E12.69973
G1 X98.858 Y124.705 E12.70863
G1 X98.599 Y124.27 E12.71958
G1 X98.526 Y123.39 E12.73867
G1 X93.126 Y123.389 E12.85541
G1 X92.702 Y123.221 E12.86527
G1 X92.266 Y122.846 E12.8777
G1 X89.425 Y116.963 E13.01894
G1 X89.312 Y116.61 E13.02695
G1 X89.306 Y116.227 E13.03523
G1 X89.449 Y115.784 E13.0453
G1 X89.714 Y115.441 E13.05467
G1 X90.054 Y115.215 E13.0635
G1 X90.437 Y115.097 E13.07216
G1 X98.526 Y115.097 E13.24704
G1 X98.526 Y114.562 E13.2586
G1 X98.611 Y114.096 E13.26884
G1 X99.006 Y113.552 E13.28338
G1 X99.42 Y113.326 E13.29357
G1 X99.731 Y113.265 E13.30043
G1 X110.326 Y113.262 E13.52948
G1 X110.743 Y113.411 E13.53905
G1 X111.048 Y113.633 E13.54721
G1 X111.343 Y114.075 E13.5587
G1 X111.437 Y114.562 E13.56942
G1 X111.437 Y115.097 E13.58099
G1 X116.618 Y115.097 E13.693
G1 X117.025 Y115.2 E13.70207
G1 X117.598 Y115.654 E13.71788
G1 X120.543 Y121.505 E13.85949
G1 X120.681 Y122.051 E13.87166
G1 X120.613 Y122.511 E13.88172
G1 F2400 E10.88172
G0 F6000 X110.917 Y124.027
G1 F2400 E13.88172
G1 F1200 X110.709 Y124.367 E13.89033
G1 X110.221 Y124.616 E13.90218
G1 X99.717 Y124.616 E14.12927
G1 X99.245 Y124.358 E14.14089
G1 X99.046 Y124.022 E14.14934
G1 X99.046 Y122.87 E14.17424
G1 X93.305 Y122.87 E14.29836
G1 X92.959 Y122.769 E14.30615
G1 X92.697 Y122.544 E14.31362
G1 X89.893 Y116.737 E14.45303
G1 X89.822 Y116.295 E14.46271
G1 X90.067 Y115.823 E14.4742
G1 X90.502 Y115.617 E14.48461
G1 X99.046 Y115.617 E14.66932
G1 X99.046 Y114.562 E14.69213
G1 X99.184 Y114.117 E14.7022
G1 X99.473 Y113.866 E14.71048
G1 X99.743 Y113.782 E14.71659
G1 X110.246 Y113.782 E14.94366
G1 X110.684 Y114.005 E14.95428
G1 X110.917 Y114.353 E14.96334
G1 X110.917 Y115.617 E14.99066
G1 X116.602 Y115.621 E15.11357
G1 X116.972 Y115.764 E15.12214
G1 X117.164 Y115.949 E15.12791
G1 X120.078 Y121.739 E15.26804
G1 X120.161 Y122.067 E15.27536
G1 X120.121 Y122.343 E15.28138
G1 X119.841 Y122.722 E15.29157
G1 X119.475 Y122.871 E15.30011
G1 X110.917 Y122.87 E15.48513
G1 X110.917 Y124.027 E15.51014
G1 F2400 E12.51014
G0 F6000 X110.397 Y122.35
;TYPE:WALL-OUTER
G1 F2400 E15.51014
G1 F1200 X110.397 Y123.952 E15.54478
G1 X110.176 Y124.094 E15.55046
G1 X99.798 Y124.095 E15.77482
G1 X99.566 Y123.903 E15.78133
G1 X99.566 Y122.35 E15.8149
G1 X93.331 Y122.35 E15.9497
G1 X93.127 Y122.24 E15.95471
G1 X90.361 Y116.511 E16.09225
G1 X90.338 Y116.363 E16.09548
G1 X90.419 Y116.205 E16.09932
G1 X90.553 Y116.14 E16.10254
G1 X99.566 Y116.137 E16.2974
G1 X99.566 Y114.495 E16.33289
G1 X99.763 Y114.302 E16.33886
G1 X110.17 Y114.303 E16.56385
G1 X110.397 Y114.486 E16.57015
G1 X110.397 Y116.137 E16.60584
G1 X116.545 Y116.138 E16.73876
G1 X116.718 Y116.219 E16.74289
G1 X119.652 Y122.048 E16.88397
