;FLAVOR:Marlin
;TIME:2615
;Filament used: 2.46622m
;Layer height: 0.3
;MINX:83.122
;MINY:75.005
;MINZ:0.1
;MAXX:140.112
;MAXY:134.995
;MAXZ:18.175
;Generated with Cura_SteamEngine main
M82 ;absolute extrusion mode
;Profil Homepage: https://github.com/NilsRo/Cura_Anycubic_MegaS_Profile

;Slicer Information - (Support for OctoPrint Slicer Estimator)
;Slicer info:material_guid;0ff92885-617b-4144-a03c-9989872454bc
;Slicer info:material_id;generic_pla_175
;Slicer info:material_brand;Generic
;Slicer info:material_name;PLA
;Slicer info:material_bed_temperature;0
;Slicer info:material_bed_temperature_layer_0;0
;Slicer info:material_print_temperature;190.0
;Slicer info:material_print_temperature_layer_0;190.0
;Slicer info:material_flow;100
;Slicer info:layer_height;0.3
;Slicer info:wall_thickness;0.8
;Slicer info:speed_print;30.0
;Slicer info:speed_topbottom;30
;Slicer info:travel_speed;120
;Slicer info:support;0
;Slicer info:retraction_speed;40.0
;Slicer info:retraction_amount;3.0
;Slicer info:layer_height;0.3
;Slicer info:infill_pattern;grid
;Slicer info:infill_sparse_density;10.0
;Slicer info:cool_fan_enabled;True
;Slicer info:cool_fan_speed;50
;Slicer info:sliced_at;Fri 23-09-2022 10:25:50
G21                                        ; metric values 
G90                                        ; absolute positioning 
M82                                        ; set extruder to absolute mode 
M107                                       ; start with the fan off 
M140 S0   ; Start heating the bed 
G4 S60                                     ; wait 1 minute 
M104 S190.0 ; start heating the hot end 
M190 S0   ; wait for bed 
M109 S190.0 ; wait for hotend 
M300 S1000 P500                            ; BEEP heating done 
G28 X0 Y10 Z0                              ; move X/Y to min endstops 
M420 S1                                    ; Enable leveling 
M420 Z2.0                                  ; Set leveling fading height to 2 mm 
G0 Z0.15                                   ; lift nozzle a bit 
G92 E0                                     ; zero the extruded length 
G1 X50 E20 F500                            ; Extrude 20mm of filament in a 5cm line. 
G92 E0                                     ; zero the extruded length again 
G1 E-2 F500                                ; Retract a little 
G1 X120 F4000                              ; Quickly wipe away from the filament line`
G92 E0
G92 E0
G1 F2400 E-3
;LAYER_COUNT:61
;LAYER:0
M107
G1 F300 Z0.175
G0 F6000 X86.574 Y83.923 Z0.175
G1 F300 Z0.175
G0 F6000 X83.138 Y94.797
;TYPE:SKIRT
G1 F300 Z0.1
G1 F2400 E0
G1 F1200 X83.167 Y93.995 E0.01735
G1 X83.275 Y93.2 E0.03469
G1 X83.528 Y92.206 E0.05687
G1 X83.834 Y91.276 E0.07804
G1 X83.798 Y90.709 E0.09032
G1 X83.827 Y89.907 E0.10767
G1 X83.935 Y89.112 E0.12501
G1 X84.188 Y88.118 E0.14719
G1 X84.457 Y87.286 E0.16609
G1 X84.742 Y86.536 E0.18344
G1 X85.099 Y85.817 E0.20079
G1 X85.527 Y85.138 E0.21814
G1 X86.02 Y84.505 E0.23549
G1 X86.574 Y83.923 E0.25286
G1 X87.383 Y83.249 E0.27563
G1 X88.092 Y82.733 E0.29458
G1 X88.864 Y82.229 E0.31451
G1 X89.221 Y81.662 E0.329
G1 X89.715 Y81.029 E0.34636
G1 X90.269 Y80.449 E0.3637
G1 X91.072 Y79.781 E0.38628
G1 X91.807 Y79.246 E0.40593
G1 X92.478 Y78.806 E0.42328
G1 X93.191 Y78.435 E0.44066
G1 X93.936 Y78.138 E0.458
G1 X94.707 Y77.915 E0.47535
G1 X95.33 Y77.801 E0.48904
G1 X95.84 Y77.377 E0.50338
G1 X96.981 Y76.547 E0.53388
G1 X97.653 Y76.108 E0.55124
G1 X98.365 Y75.737 E0.56859
G1 X99.11 Y75.44 E0.58593
G1 X99.882 Y75.218 E0.6033
G1 X100.671 Y75.074 E0.62064
G1 X101.722 Y75.005 E0.64341
G1 X103.13 Y75.005 E0.67385
G1 X103.932 Y75.045 E0.69121
G1 X104.726 Y75.165 E0.70857
G1 X105.504 Y75.362 E0.72592
G1 X105.977 Y75.534 E0.7368
G1 X106.175 Y75.498 E0.74115
G1 X107.23 Y75.429 E0.76401
G1 X108.494 Y75.429 E0.79133
G1 X109.296 Y75.469 E0.80869
G1 X110.09 Y75.589 E0.82605
G1 X110.868 Y75.786 E0.84341
G1 X111.622 Y76.061 E0.86076
G1 X112.345 Y76.409 E0.8781
G1 X113.239 Y76.974 E0.90097
G1 X114.262 Y77.719 E0.92833
G1 X114.886 Y78.223 E0.94567
G1 X115.458 Y78.787 E0.96303
G1 X115.97 Y79.405 E0.98038
G1 X116.418 Y80.071 E0.99774
G1 X116.798 Y80.778 E1.01509
G1 X117.116 Y81.576 E1.03366
G1 X117.93 Y82.072 E1.05427
G1 X118.57 Y82.556 E1.07162
G1 X119.159 Y83.102 E1.08898
G1 X119.447 Y83.428 E1.09838
G1 X120.898 Y83.428 E1.12975
G1 X121.7 Y83.468 E1.14711
G1 X122.494 Y83.588 E1.16447
G1 X123.272 Y83.785 E1.18182
G1 X124.053 Y84.073 E1.19982
G1 X124.721 Y84.073 E1.21426
G1 X125.523 Y84.113 E1.23162
G1 X126.317 Y84.233 E1.24898
G1 X127.095 Y84.43 E1.26633
G1 X127.849 Y84.705 E1.28368
G1 X128.572 Y85.053 E1.30103
G1 X129.464 Y85.616 E1.32383
G1 X130.173 Y86.132 E1.34279
G1 X130.798 Y86.636 E1.36015
G1 X131.369 Y87.2 E1.3775
G1 X131.882 Y87.818 E1.39486
G1 X132.092 Y88.131 E1.40301
G1 X132.376 Y88.31 E1.41027
G1 X133.111 Y88.845 E1.42992
G1 X133.622 Y89.2 E1.44338
G1 X134.345 Y89.548 E1.46072
G1 X135.237 Y90.111 E1.48353
G1 X136.365 Y90.932 E1.51369
G1 X136.99 Y91.436 E1.53105
G1 X137.561 Y92 E1.5484
G1 X138.074 Y92.618 E1.56576
G1 X138.522 Y93.284 E1.58311
G1 X138.902 Y93.991 E1.60047
G1 X139.286 Y94.952 E1.62284
G1 X139.717 Y96.275 E1.65292
G1 X139.927 Y97.05 E1.67028
G1 X140.059 Y97.842 E1.68764
G1 X140.112 Y98.643 E1.70499
G1 X140.085 Y99.445 E1.72234
G1 X139.978 Y100.241 E1.73971
G1 X139.717 Y101.269 E1.76264
G1 X139.286 Y102.592 E1.79272
G1 X138.999 Y103.342 E1.81008
G1 X138.64 Y104.059 E1.82741
G1 X138.211 Y104.738 E1.84478
G1 X137.716 Y105.37 E1.86213
G1 X137.161 Y105.95 E1.87949
G1 X136.365 Y106.612 E1.90187
G1 X135.237 Y107.433 E1.93203
G1 X134.206 Y108.107 E1.95866
G1 X134.335 Y109.129 E1.98093
G1 X134.358 Y109.742 E1.99419
G1 X134.358 Y110.71 E2.01512
G1 X134.318 Y111.512 E2.03248
G1 X134.224 Y112.136 E2.04612
G1 X134.335 Y113.01 E2.06517
G1 X134.358 Y113.659 E2.07921
G1 X134.318 Y114.461 E2.09657
G1 X134.198 Y115.255 E2.11393
G1 X134.001 Y116.033 E2.13128
G1 X133.726 Y116.787 E2.14863
G1 X133.378 Y117.51 E2.16598
G1 X132.96 Y118.196 E2.18335
G1 X132.476 Y118.836 E2.20069
G1 X131.93 Y119.425 E2.21806
G1 X131.329 Y119.956 E2.23539
G1 X130.677 Y120.425 E2.25276
G1 X129.983 Y120.827 E2.2701
G1 X129.251 Y121.158 E2.28746
G1 X128.491 Y121.415 E2.30481
G1 X127.708 Y121.595 E2.32218
G1 X126.752 Y121.706 E2.34298
G1 X125.761 Y121.762 E2.36444
G1 X121.436 Y121.763 E2.45795
G1 X121.354 Y122.528 E2.47458
G1 X121.189 Y123.314 E2.49194
G1 X120.946 Y124.079 E2.5093
G1 X120.629 Y124.816 E2.52664
G1 X120.24 Y125.519 E2.54401
G1 X119.783 Y126.179 E2.56137
G1 X119.263 Y126.79 E2.57871
G1 X118.684 Y127.346 E2.59606
G1 X118.053 Y127.842 E2.61342
G1 X117.376 Y128.273 E2.63077
G1 X116.659 Y128.635 E2.64813
G1 X115.91 Y128.923 E2.66548
G1 X115.135 Y129.135 E2.68285
G1 X114.344 Y129.27 E2.7002
G1 X113.393 Y129.326 E2.72079
G1 X112.556 Y129.286 E2.73891
G1 X111.932 Y129.192 E2.75255
G1 X110.751 Y129.342 E2.77829
G1 X110.391 Y130.068 E2.79581
G1 X109.962 Y130.747 E2.81317
G1 X109.468 Y131.379 E2.83051
G1 X108.913 Y131.959 E2.84787
G1 X108.114 Y132.623 E2.87033
G1 X106.973 Y133.453 E2.90083
G1 X106.301 Y133.892 E2.91819
G1 X105.589 Y134.263 E2.93554
G1 X104.844 Y134.56 E2.95288
G1 X104.072 Y134.782 E2.97025
G1 X103.283 Y134.926 E2.98759
G1 X102.232 Y134.995 E3.01036
G1 X100.824 Y134.995 E3.0408
G1 X100.022 Y134.955 E3.05816
G1 X99.228 Y134.835 E3.07552
G1 X98.45 Y134.638 E3.09287
G1 X97.696 Y134.363 E3.11022
G1 X96.973 Y134.015 E3.12757
G1 X96.083 Y133.453 E3.15032
G1 X94.942 Y132.623 E3.18083
G1 X94.317 Y132.119 E3.19818
G1 X94.065 Y131.87 E3.20584
G1 X93.351 Y131.61 E3.22227
G1 X92.628 Y131.262 E3.23962
G1 X91.736 Y130.698 E3.26243
G1 X91.001 Y130.163 E3.28209
G1 X90.376 Y129.659 E3.29945
G1 X89.805 Y129.096 E3.31678
G1 X89.292 Y128.478 E3.33414
G1 X88.772 Y127.705 E3.35429
G1 X88.097 Y127.279 E3.37154
G1 X87.388 Y126.763 E3.3905
G1 X86.763 Y126.259 E3.40786
G1 X86.192 Y125.695 E3.42521
G1 X85.679 Y125.077 E3.44257
G1 X85.231 Y124.411 E3.45993
G1 X84.851 Y123.704 E3.47728
G1 X84.461 Y122.723 E3.5001
G1 X84.192 Y121.89 E3.51902
G1 X83.984 Y121.115 E3.53637
G1 X83.853 Y120.323 E3.55373
G1 X83.803 Y119.521 E3.5711
G1 X83.83 Y118.773 E3.58728
G1 X83.52 Y117.814 E3.60907
G1 X83.311 Y117.038 E3.62644
G1 X83.181 Y116.246 E3.6438
G1 X83.13 Y115.445 E3.66115
G1 X83.159 Y114.643 E3.6785
G1 X83.267 Y113.848 E3.69584
G1 X83.52 Y112.854 E3.71802
G1 X83.789 Y112.022 E3.73692
G1 X84.022 Y111.271 E3.75392
G1 X84.07 Y110.674 E3.76687
G1 X83.864 Y109.949 E3.78316
G1 X83.805 Y109.618 E3.79043
G1 X83.518 Y108.741 E3.81038
G1 X83.309 Y107.965 E3.82776
G1 X83.179 Y107.173 E3.84511
G1 X83.128 Y106.372 E3.86246
G1 X83.157 Y105.57 E3.87981
G1 X83.232 Y105.021 E3.89179
G1 X83.173 Y104.664 E3.89961
G1 X83.122 Y103.863 E3.91696
G1 X83.151 Y103.061 E3.93431
G1 X83.259 Y102.266 E3.95166
G1 X83.512 Y101.272 E3.97383
G1 X83.785 Y100.431 E3.99295
G1 X83.975 Y99.616 E4.01104
G1 X84.068 Y99.345 E4.01723
G1 X84.013 Y98.785 E4.0294
G1 X83.797 Y97.998 E4.04704
G1 X83.528 Y97.166 E4.06595
G1 X83.319 Y96.39 E4.08332
G1 X83.189 Y95.598 E4.10067
G1 X83.138 Y94.797 E4.11802
G1 F2400 E1.11802
G1 F300 Z0.175
G0 F6000 X84.682 Y103.621 Z0.175
G1 F300 Z0.1
G1 F2400 E4.11802
G1 F1200 X84.737 Y102.902 E4.13361
G1 X84.896 Y102.06 E4.15214
G1 X85.265 Y100.92 E4.17804
G1 X85.4 Y100.321 E4.19132
G1 X85.662 Y99.463 E4.21071
G1 X85.615 Y99.209 E4.2163
G1 X85.559 Y98.405 E4.23372
G1 X85.281 Y97.518 E4.25382
G1 X85.012 Y96.686 E4.27272
G1 X84.829 Y95.989 E4.2883
G1 X84.724 Y95.275 E4.3039
G1 X84.698 Y94.555 E4.31948
G1 X84.753 Y93.836 E4.33507
G1 X84.912 Y92.994 E4.35359
G1 X85.281 Y91.854 E4.3795
G1 X85.427 Y91.477 E4.38824
G1 X85.384 Y91.187 E4.39457
G1 X85.358 Y90.467 E4.41015
G1 X85.413 Y89.748 E4.42574
G1 X85.572 Y88.906 E4.44427
G1 X85.941 Y87.766 E4.47017
G1 X86.201 Y87.094 E4.48575
G1 X86.533 Y86.454 E4.50133
G1 X86.934 Y85.855 E4.51692
G1 X87.399 Y85.304 E4.53251
G1 X88.023 Y84.713 E4.55109
G1 X89.01 Y83.994 E4.57749
G1 X89.616 Y83.603 E4.59308
G1 X90 Y83.412 E4.60235
G1 X90.225 Y82.979 E4.6129
G1 X90.627 Y82.381 E4.62848
G1 X91.093 Y81.831 E4.64406
G1 X91.71 Y81.246 E4.66244
G1 X92.725 Y80.507 E4.68959
G1 X93.33 Y80.116 E4.70516
G1 X93.975 Y79.794 E4.72074
G1 X94.652 Y79.545 E4.73634
G1 X95.352 Y79.373 E4.75192
G1 X96.007 Y79.288 E4.7662
G1 X96.475 Y78.844 E4.78015
G1 X97.898 Y77.809 E4.81819
G1 X98.504 Y77.418 E4.83378
G1 X99.149 Y77.096 E4.84937
G1 X99.826 Y76.848 E4.86495
G1 X100.526 Y76.676 E4.88054
G1 X101.379 Y76.565 E4.89913
G1 X103.13 Y76.565 E4.93699
G1 X103.85 Y76.605 E4.95258
G1 X104.561 Y76.724 E4.96816
G1 X105.254 Y76.922 E4.98374
G1 X105.773 Y77.135 E4.99587
G1 X106.882 Y76.989 E5.02006
G1 X108.494 Y76.989 E5.05491
G1 X109.214 Y77.029 E5.0705
G1 X109.925 Y77.148 E5.08608
G1 X110.618 Y77.346 E5.10166
G1 X111.285 Y77.619 E5.11724
G1 X112.037 Y78.029 E5.13576
G1 X113.343 Y78.98 E5.17069
G1 X113.902 Y79.436 E5.18628
G1 X114.406 Y79.951 E5.20186
G1 X114.85 Y80.518 E5.21743
G1 X115.229 Y81.132 E5.23303
G1 X115.596 Y81.907 E5.25157
G1 X115.864 Y82.733 E5.27034
G1 X116.184 Y82.864 E5.27782
G1 X116.817 Y83.209 E5.2934
G1 X117.408 Y83.622 E5.30899
G1 X117.949 Y84.098 E5.32457
G1 X118.434 Y84.631 E5.34015
G1 X118.781 Y85.108 E5.3529
G1 X119.484 Y85.01 E5.36825
G1 X120.023 Y84.988 E5.37991
G1 X120.898 Y84.988 E5.39882
G1 X121.618 Y85.028 E5.41441
G1 X122.329 Y85.147 E5.43
G1 X123.022 Y85.345 E5.44558
G1 X123.725 Y85.637 E5.46204
G1 X124.721 Y85.633 E5.48357
G1 X125.441 Y85.673 E5.49916
G1 X126.152 Y85.792 E5.51475
G1 X126.845 Y85.99 E5.53033
G1 X127.512 Y86.263 E5.54591
G1 X128.27 Y86.676 E5.56457
G1 X129.255 Y87.393 E5.59091
G1 X129.813 Y87.849 E5.60649
G1 X130.318 Y88.364 E5.62208
G1 X130.762 Y88.932 E5.63767
G1 X130.956 Y89.246 E5.64565
G1 X131.458 Y89.571 E5.65858
G1 X132.193 Y90.106 E5.67823
G1 X132.697 Y90.518 E5.6923
G1 X133.285 Y90.758 E5.70603
G1 X134.038 Y91.168 E5.72457
G1 X135.447 Y92.194 E5.76225
G1 X136.005 Y92.649 E5.77782
G1 X136.51 Y93.164 E5.79341
G1 X136.954 Y93.732 E5.809
G1 X137.333 Y94.345 E5.82458
G1 X137.696 Y95.112 E5.84292
G1 X138.233 Y96.759 E5.88037
G1 X138.418 Y97.455 E5.89594
G1 X138.525 Y98.168 E5.91153
G1 X138.552 Y98.889 E5.92713
G1 X138.499 Y99.607 E5.94269
G1 X138.342 Y100.451 E5.96125
G1 X137.802 Y102.108 E5.99893
G1 X137.541 Y102.78 E6.01451
G1 X137.208 Y103.419 E6.03009
G1 X136.805 Y104.017 E6.04568
G1 X136.339 Y104.567 E6.06127
G1 X135.722 Y105.15 E6.07962
G1 X134.319 Y106.171 E6.11713
G1 X133.714 Y106.563 E6.13272
G1 X133.069 Y106.884 E6.14829
G1 X132.298 Y107.167 E6.16605
G1 X132.613 Y108.202 E6.18944
G1 X132.745 Y108.91 E6.20501
G1 X132.798 Y109.742 E6.22303
G1 X132.798 Y110.71 E6.24396
G1 X132.758 Y111.43 E6.25955
G1 X132.63 Y112.173 E6.27585
G1 X132.744 Y112.792 E6.28946
G1 X132.798 Y113.624 E6.30748
G1 X132.758 Y114.379 E6.32383
G1 X132.639 Y115.09 E6.33941
G1 X132.441 Y115.783 E6.35499
G1 X132.168 Y116.45 E6.37057
G1 X131.823 Y117.083 E6.38616
G1 X131.41 Y117.674 E6.40175
G1 X130.934 Y118.215 E6.41732
G1 X130.401 Y118.7 E6.4329
G1 X129.818 Y119.124 E6.44849
G1 X129.191 Y119.48 E6.46408
G1 X128.529 Y119.764 E6.47965
G1 X127.839 Y119.974 E6.49524
G1 X126.992 Y120.13 E6.51386
G1 X125.725 Y120.202 E6.5413
G1 X119.937 Y120.203 E6.66643
G1 X119.926 Y120.877 E6.681
G1 X119.882 Y121.64 E6.69752
G1 X119.801 Y122.356 E6.7131
G1 X119.641 Y123.059 E6.72869
G1 X119.404 Y123.74 E6.74428
G1 X119.093 Y124.39 E6.75986
G1 X118.712 Y125.002 E6.77544
G1 X118.265 Y125.568 E6.79103
G1 X117.759 Y126.081 E6.80661
G1 X117.199 Y126.535 E6.8222
G1 X116.592 Y126.924 E6.83778
G1 X115.946 Y127.244 E6.85337
G1 X115.268 Y127.49 E6.86896
G1 X114.568 Y127.659 E6.88453
G1 X113.615 Y127.78 E6.9053
G1 X112.638 Y127.726 E6.92645
G1 X111.895 Y127.598 E6.94275
G1 X111.276 Y127.712 E6.95636
G1 X110.444 Y127.766 E6.97438
G1 X109.691 Y127.766 E6.99066
G1 X109.293 Y128.789 E7.01439
G1 X108.959 Y129.428 E7.02998
G1 X108.557 Y130.027 E7.04558
G1 X108.091 Y130.576 E7.06115
G1 X107.471 Y131.162 E7.07959
G1 X106.056 Y132.191 E7.11741
G1 X105.45 Y132.582 E7.13301
G1 X104.805 Y132.904 E7.14859
G1 X104.128 Y133.152 E7.16418
G1 X103.428 Y133.324 E7.17976
G1 X102.575 Y133.435 E7.19836
G1 X100.824 Y133.435 E7.23621
G1 X100.104 Y133.395 E7.2518
G1 X99.393 Y133.276 E7.26739
G1 X98.7 Y133.078 E7.28297
G1 X98.033 Y132.805 E7.29855
G1 X97.28 Y132.394 E7.3171
G1 X95.859 Y131.361 E7.35508
G1 X95.301 Y130.906 E7.37064
G1 X94.878 Y130.474 E7.38371
G1 X94.355 Y130.325 E7.39547
G1 X93.688 Y130.052 E7.41105
G1 X92.935 Y129.642 E7.42959
G1 X91.919 Y128.902 E7.45676
G1 X91.36 Y128.446 E7.47236
G1 X90.856 Y127.931 E7.48794
G1 X90.412 Y127.364 E7.5035
G1 X89.914 Y126.559 E7.52397
G1 X89.29 Y126.218 E7.53934
G1 X88.306 Y125.502 E7.56565
G1 X87.748 Y125.046 E7.58123
G1 X87.243 Y124.531 E7.59682
G1 X86.799 Y123.963 E7.61241
G1 X86.42 Y123.35 E7.62799
G1 X86.055 Y122.582 E7.64637
G1 X85.677 Y121.41 E7.673
G1 X85.493 Y120.713 E7.68858
G1 X85.389 Y120 E7.70416
G1 X85.363 Y119.28 E7.71973
G1 X85.415 Y118.605 E7.73437
G1 X85.004 Y117.334 E7.76325
G1 X84.821 Y116.637 E7.77883
G1 X84.716 Y115.923 E7.79443
G1 X84.69 Y115.203 E7.81001
G1 X84.745 Y114.484 E7.8256
G1 X84.904 Y113.642 E7.84412
G1 X85.273 Y112.502 E7.87003
G1 X85.42 Y112.122 E7.87883
G1 X85.557 Y111.618 E7.89013
G1 X85.619 Y110.779 E7.90831
G1 X85.666 Y110.484 E7.91477
G1 X85.515 Y110.082 E7.92406
G1 X85.338 Y109.384 E7.93962
G1 X85.314 Y109.212 E7.94338
G1 X85.002 Y108.261 E7.96502
G1 X84.819 Y107.564 E7.9806
G1 X84.714 Y106.85 E7.9962
G1 X84.688 Y106.13 E8.01177
G1 X84.743 Y105.411 E8.02736
G1 X84.812 Y105.047 E8.03537
G1 X84.708 Y104.341 E8.0508
G1 X84.682 Y103.621 E8.06638
G0 F6000 X84.161 Y103.699
G1 F1200 X84.207 Y102.951 E8.08258
G1 X84.332 Y102.212 E8.09878
G1 X84.501 Y101.592 E8.11267
G1 X84.815 Y100.619 E8.13478
G1 X84.862 Y100.341 E8.14087
G1 X85.115 Y99.433 E8.16125
G1 X85.04 Y98.501 E8.18146
G1 X84.786 Y97.678 E8.20009
G1 X84.517 Y96.846 E8.21899
G1 X84.325 Y96.122 E8.23518
G1 X84.211 Y95.381 E8.25139
G1 X84.177 Y94.633 E8.26758
G1 X84.223 Y93.885 E8.28378
G1 X84.348 Y93.146 E8.29998
G1 X84.517 Y92.526 E8.31388
G1 X84.876 Y91.415 E8.33912
G1 X84.837 Y90.545 E8.35795
G1 X84.883 Y89.797 E8.37415
G1 X85.008 Y89.058 E8.39035
