;FLAVOR:Marlin
;TIME:7902
;Filament used: 6.13105m
;Layer height: 0.2
;MINX:28.094
;MINY:15.94
;MINZ:0.1
;MAXX:181.908
;MAXY:194.06
;MAXZ:13.775
;Generated with Cura_SteamEngine main
M82 ;absolute extrusion mode
;Profil Homepage: https://github.com/NilsRo/Cura_Anycubic_MegaS_Profile

;Slicer Information - (Support for OctoPrint Slicer Estimator)
;Slicer info:material_guid;0ff92885-617b-4144-a03c-9989872454bc
;Slicer info:material_id;generic_pla_175
;Slicer info:material_brand;Generic
;Slicer info:material_name;PLA
;Slicer info:material_bed_temperature;0
;Slicer info:material_bed_temperature_layer_0;0
;Slicer info:material_print_temperature;190.0
;Slicer info:material_print_temperature_layer_0;190.0
;Slicer info:material_flow;100
;Slicer info:layer_height;0.2
;Slicer info:wall_thickness;0.8
;Slicer info:speed_print;30.0
;Slicer info:speed_topbottom;30
;Slicer info:travel_speed;120
;Slicer info:support;0
;Slicer info:retraction_speed;40.0
;Slicer info:retraction_amount;3.0
;Slicer info:layer_height;0.2
;Slicer info:infill_pattern;grid
;Slicer info:infill_sparse_density;20.0
;Slicer info:cool_fan_enabled;True
;Slicer info:cool_fan_speed;50
;Slicer info:sliced_at;Thu 13-10-2022 12:07:15
G21                                        ; metric values 
G90                                        ; absolute positioning 
M82                                        ; set extruder to absolute mode 
M107                                       ; start with the fan off 
M140 S0   ; Start heating the bed 
G4 S60                                     ; wait 1 minute 
M104 S190.0 ; start heating the hot end 
M190 S0   ; wait for bed 
M109 S190.0 ; wait for hotend 
M300 S1000 P500                            ; BEEP heating done 
G28 X0 Y10 Z0                              ; move X/Y to min endstops 
M420 S1                                    ; Enable leveling 
M420 Z2.0                                  ; Set leveling fading height to 2 mm 
G0 Z0.15                                   ; lift nozzle a bit 
G92 E0                                     ; zero the extruded length 
G1 X50 E20 F500                            ; Extrude 20mm of filament in a 5cm line. 
G92 E0                                     ; zero the extruded length again 
G1 E-2 F500                                ; Retract a little 
G1 X120 F4000                              ; Quickly wipe away from the filament line`
G92 E0
G92 E0
G1 F2400 E-3
;LAYER_COUNT:69
;LAYER:0
M107
G1 F300 Z0.175
G0 F6000 X33.92 Y20.149 Z0.175
G1 F300 Z0.175
G0 F6000 X28.484 Y30.83
;TYPE:SKIRT
G1 F300 Z0.1
G1 F2400 E0
G1 F1200 X28.816 Y29.804 E0.02331
G1 X29.101 Y29.053 E0.04068
G1 X29.459 Y28.335 E0.05802
G1 X29.887 Y27.655 E0.07539
G1 X30.381 Y27.022 E0.09275
G1 X30.934 Y26.441 E0.11009
G1 X31.741 Y25.769 E0.1328
G1 X32.94 Y24.896 E0.16486
G1 X32.94 Y24 E0.18423
G1 X32.98 Y23.198 E0.20159
G1 X33.1 Y22.404 E0.21895
G1 X33.297 Y21.626 E0.2363
G1 X33.572 Y20.872 E0.25366
G1 X33.92 Y20.149 E0.271
G1 X34.338 Y19.463 E0.28837
G1 X34.822 Y18.823 E0.30572
G1 X35.368 Y18.234 E0.32308
G1 X35.969 Y17.703 E0.34042
G1 X36.621 Y17.234 E0.35778
G1 X37.315 Y16.832 E0.37512
G1 X38.047 Y16.501 E0.39249
G1 X38.807 Y16.244 E0.40983
G1 X39.59 Y16.064 E0.4272
G1 X40.386 Y15.963 E0.44455
G1 X41 Y15.94 E0.45783
G1 X63.998 Y15.94 E0.95503
G1 X64.8 Y15.98 E0.97239
G1 X65.594 Y16.1 E0.98975
G1 X66.372 Y16.297 E1.0071
G1 X67.126 Y16.572 E1.02445
G1 X67.849 Y16.92 E1.0418
G1 X68.535 Y17.338 E1.05916
G1 X69.175 Y17.822 E1.07651
G1 X69.764 Y18.368 E1.09387
G1 X70.295 Y18.969 E1.11121
G1 X70.764 Y19.621 E1.12858
G1 X71.166 Y20.315 E1.14592
G1 X71.497 Y21.047 E1.16328
G1 X71.754 Y21.807 E1.18063
G1 X71.934 Y22.59 E1.198
G1 X72.035 Y23.386 E1.21534
G1 X72.058 Y24 E1.22863
G1 X72.058 Y24.595 E1.24149
G1 X72.652 Y24.625 E1.25435
G1 X73.446 Y24.745 E1.27171
G1 X74.224 Y24.942 E1.28906
G1 X74.978 Y25.217 E1.30641
G1 X75.701 Y25.565 E1.32376
G1 X76.594 Y26.129 E1.34659
G1 X77.469 Y26.766 E1.36999
G1 X78.093 Y27.27 E1.38733
G1 X78.665 Y27.834 E1.4047
G1 X79.177 Y28.452 E1.42205
G1 X79.626 Y29.118 E1.43941
G1 X80.006 Y29.825 E1.45677
G1 X80.389 Y30.787 E1.47915
G1 X80.723 Y31.813 E1.50248
G1 X80.933 Y32.588 E1.51984
G1 X81.065 Y33.38 E1.53719
G1 X81.118 Y34.181 E1.55455
G1 X81.091 Y34.983 E1.5719
G1 X80.984 Y35.778 E1.58924
G1 X80.723 Y36.803 E1.61211
G1 X80.389 Y37.829 E1.63543
G1 X80.103 Y38.579 E1.65279
G1 X79.744 Y39.297 E1.67014
G1 X79.315 Y39.975 E1.68749
G1 X78.82 Y40.608 E1.70486
G1 X78.265 Y41.188 E1.72221
G1 X77.466 Y41.852 E1.74467
G1 X76.358 Y42.658 E1.7743
G1 X75.686 Y43.097 E1.79165
G1 X74.974 Y43.468 E1.80901
G1 X74.229 Y43.765 E1.82634
G1 X73.457 Y43.987 E1.84371
G1 X72.668 Y44.131 E1.86105
G1 X72.058 Y44.181 E1.87428
G1 X72.057 Y158.943 E4.35533
G1 X79.052 Y158.943 E4.50656
G1 X79.854 Y158.983 E4.52392
G1 X80.648 Y159.103 E4.54128
G1 X81.426 Y159.3 E4.55863
G1 X82.18 Y159.575 E4.57598
G1 X82.903 Y159.923 E4.59333
G1 X83.589 Y160.341 E4.61069
G1 X84.229 Y160.825 E4.62804
G1 X84.818 Y161.371 E4.6454
G1 X85.349 Y161.972 E4.66274
G1 X85.818 Y162.624 E4.68011
G1 X86.22 Y163.318 E4.69744
G1 X86.551 Y164.05 E4.71481
G1 X86.827 Y164.867 E4.73346
G1 X105.333 Y164.867 E5.13354
G1 X105.918 Y163.752 E5.16076
G1 X106.359 Y163.082 E5.1781
G1 X106.865 Y162.459 E5.19545
G1 X107.431 Y161.889 E5.21282
G1 X108.05 Y161.378 E5.23017
G1 X108.717 Y160.932 E5.24752
G1 X109.425 Y160.553 E5.26488
G1 X110.084 Y160.289 E5.28023
G1 X110.283 Y160.133 E5.28569
G1 X110.961 Y159.702 E5.30306
G1 X111.677 Y159.341 E5.3204
G1 X112.427 Y159.052 E5.33777
G1 X113.201 Y158.84 E5.35512
G1 X113.992 Y158.705 E5.37247
G1 X114.944 Y158.649 E5.39309
G1 X115.325 Y158.649 E5.40133
G1 X116.027 Y158.532 E5.41671
G1 X116.945 Y158.48 E5.43659
G1 X117.583 Y158.48 E5.45038
G1 X118.385 Y158.52 E5.46774
G1 X119.179 Y158.64 E5.4851
G1 X119.644 Y158.758 E5.49548
G1 X120.04 Y158.675 E5.50422
G1 X120.786 Y158.594 E5.52044
G1 X122.944 Y158.459 E5.56719
G1 X123.746 Y158.449 E5.58453
G1 X124.546 Y158.518 E5.60189
G1 X124.942 Y158.593 E5.6106
G1 X125.689 Y158.542 E5.62679
G1 X126.333 Y158.465 E5.64081
G1 X127.129 Y158.363 E5.65816
G1 X127.752 Y158.339 E5.67164
G1 X128.38 Y158.339 E5.68522
G1 X129.182 Y158.379 E5.70258
G1 X129.976 Y158.499 E5.71994
G1 X130.873 Y158.726 E5.73994
G1 X131.099 Y158.662 E5.74502
G1 X131.889 Y158.521 E5.76237
G1 X132.903 Y158.457 E5.78433
G1 X133.531 Y158.457 E5.79791
G1 X134.359 Y158.501 E5.81584
G1 X134.882 Y158.229 E5.82858
G1 X135.627 Y157.931 E5.84593
G1 X136.399 Y157.709 E5.86329
G1 X137.188 Y157.564 E5.88064
G1 X138.242 Y157.495 E5.90347
G1 X138.86 Y157.495 E5.91683
G1 X139.662 Y157.535 E5.93419
G1 X140.456 Y157.655 E5.95155
G1 X141.234 Y157.852 E5.9689
G1 X141.988 Y158.127 E5.98625
G1 X142.943 Y158.587 E6.00917
G1 X142.943 Y44.525 E8.47509
G1 X141.853 Y44.36 E8.49892
G1 X141.075 Y44.163 E8.51627
G1 X140.321 Y43.888 E8.53362
G1 X139.598 Y43.54 E8.55097
G1 X138.705 Y42.976 E8.5738
G1 X137.83 Y42.339 E8.5972
G1 X137.206 Y41.835 E8.61454
G1 X136.634 Y41.271 E8.63191
G1 X136.122 Y40.653 E8.64926
G1 X135.673 Y39.987 E8.66662
G1 X135.293 Y39.28 E8.68398
G1 X134.905 Y38.304 E8.70668
G1 X134.573 Y37.278 E8.73
G1 X134.365 Y36.503 E8.74734
G1 X134.234 Y35.711 E8.7647
G1 X134.183 Y34.91 E8.78205
G1 X134.212 Y34.108 E8.7994
G1 X134.32 Y33.313 E8.81675
G1 X134.573 Y32.316 E8.83898
G1 X134.905 Y31.29 E8.8623
G1 X135.19 Y30.539 E8.87966
G1 X135.548 Y29.821 E8.89701
G1 X135.976 Y29.141 E8.91438
G1 X136.47 Y28.508 E8.93174
G1 X137.023 Y27.927 E8.94908
G1 X137.83 Y27.255 E8.97178
G1 X138.705 Y26.618 E8.99518
G1 X139.377 Y26.178 E9.01255
G1 X140.089 Y25.808 E9.02989
G1 X140.834 Y25.51 E9.04724
G1 X141.5 Y25.319 E9.06222
G1 X142.16 Y24.981 E9.07825
G1 X142.943 Y24.651 E9.09662
G1 X142.943 Y24 E9.11069
G1 X142.983 Y23.198 E9.12805
G1 X143.103 Y22.404 E9.14541
G1 X143.3 Y21.626 E9.16276
G1 X143.575 Y20.872 E9.18012
G1 X143.923 Y20.149 E9.19746
G1 X144.341 Y19.463 E9.21483
G1 X144.825 Y18.823 E9.23218
G1 X145.371 Y18.234 E9.24954
G1 X145.972 Y17.703 E9.26688
G1 X146.624 Y17.234 E9.28424
G1 X147.318 Y16.832 E9.30158
G1 X148.05 Y16.501 E9.31895
G1 X148.81 Y16.244 E9.33629
G1 X149.593 Y16.064 E9.35366
G1 X150.389 Y15.963 E9.37101
G1 X151.003 Y15.94 E9.38429
G1 X169 Y15.94 E9.77337
G1 X169.802 Y15.98 E9.79073
G1 X170.596 Y16.1 E9.80809
G1 X171.374 Y16.297 E9.82544
G1 X172.128 Y16.572 E9.84279
G1 X172.851 Y16.92 E9.86014
G1 X173.537 Y17.338 E9.87751
G1 X174.177 Y17.822 E9.89485
G1 X174.766 Y18.368 E9.91222
G1 X175.297 Y18.969 E9.92956
G1 X175.766 Y19.621 E9.94692
G1 X176.168 Y20.315 E9.96426
G1 X176.499 Y21.047 E9.98163
G1 X176.756 Y21.807 E9.99897
G1 X176.936 Y22.59 E10.01634
G1 X177.037 Y23.386 E10.03369
G1 X177.06 Y24 E10.04697
G1 X177.06 Y24.834 E10.065
G1 X178.259 Y25.707 E10.09706
G1 X178.883 Y26.211 E10.11441
G1 X179.455 Y26.775 E10.13177
G1 X179.967 Y27.393 E10.14912
G1 X180.416 Y28.059 E10.16649
G1 X180.796 Y28.766 E10.18384
G1 X181.179 Y29.728 E10.20623
G1 X181.513 Y30.754 E10.22955
G1 X181.723 Y31.529 E10.24691
G1 X181.855 Y32.321 E10.26427
G1 X181.908 Y33.122 E10.28162
G1 X181.881 Y33.924 E10.29897
G1 X181.774 Y34.719 E10.31631
G1 X181.513 Y35.744 E10.33918
G1 X181.179 Y36.77 E10.36251
G1 X180.893 Y37.52 E10.37986
G1 X180.534 Y38.238 E10.39722
G1 X180.105 Y38.916 E10.41456
G1 X179.61 Y39.549 E10.43193
G1 X179.055 Y40.129 E10.44929
G1 X178.259 Y40.791 E10.47167
G1 X177.06 Y41.664 E10.50374
G1 X177.06 Y186 E13.62415
G1 X177.02 Y186.802 E13.64151
G1 X176.9 Y187.596 E13.65887
G1 X176.703 Y188.374 E13.67622
G1 X176.428 Y189.128 E13.69357
G1 X176.08 Y189.851 E13.71092
G1 X175.662 Y190.537 E13.72828
G1 X175.178 Y191.177 E13.74563
G1 X174.632 Y191.766 E13.76299
G1 X174.031 Y192.297 E13.78033
G1 X173.379 Y192.766 E13.7977
G1 X172.685 Y193.168 E13.81504
G1 X171.953 Y193.499 E13.8324
G1 X171.193 Y193.756 E13.84975
G1 X170.41 Y193.936 E13.86712
G1 X169.614 Y194.037 E13.88446
G1 X169 Y194.06 E13.89775
G1 X41 Y194.06 E16.66499
G1 X40.198 Y194.02 E16.68235
G1 X39.404 Y193.9 E16.69971
G1 X38.626 Y193.703 E16.71706
G1 X37.872 Y193.428 E16.73441
G1 X37.149 Y193.08 E16.75176
G1 X36.463 Y192.662 E16.76913
G1 X35.823 Y192.178 E16.78647
G1 X35.234 Y191.632 E16.80384
G1 X34.703 Y191.031 E16.82118
G1 X34.234 Y190.379 E16.83854
G1 X33.832 Y189.685 E16.85588
G1 X33.501 Y188.953 E16.87325
G1 X33.244 Y188.193 E16.89059
G1 X33.064 Y187.41 E16.90796
G1 X32.963 Y186.614 E16.92531
G1 X32.94 Y186 E16.93859
G1 X32.94 Y41.726 E20.05766
G1 X31.741 Y40.853 E20.08973
G1 X31.117 Y40.349 E20.10707
G1 X30.545 Y39.785 E20.12443
G1 X30.033 Y39.167 E20.14178
G1 X29.584 Y38.501 E20.15915
G1 X29.204 Y37.794 E20.1765
G1 X28.816 Y36.818 E20.19921
G1 X28.484 Y35.792 E20.22252
G1 X28.276 Y35.017 E20.23987
G1 X28.145 Y34.225 E20.25722
G1 X28.094 Y33.424 E20.27458
G1 X28.123 Y32.622 E20.29193
G1 X28.231 Y31.827 E20.30927
G1 X28.484 Y30.83 E20.33151
G1 F2400 E17.33151
G1 F300 Z0.175
G0 F6000 X28.613 Y33.34 Z0.175
G1 F300 Z0.1
G1 F2400 E20.33151
G1 F1200 X28.65 Y32.565 E20.34828
G1 X28.767 Y31.797 E20.36508
G1 X28.979 Y30.99 E20.38312
G1 X29.311 Y29.964 E20.40643
G1 X29.588 Y29.238 E20.42323
G1 X29.938 Y28.545 E20.44001
G1 X30.357 Y27.892 E20.45679
G1 X30.841 Y27.285 E20.47357
G1 X31.386 Y26.731 E20.49037
G1 X32.047 Y26.189 E20.50885
G1 X32.922 Y25.552 E20.53225
G1 X33.46 Y25.202 E20.54613
G1 X33.46 Y24 E20.57211
G1 X33.5 Y23.225 E20.58889
G1 X33.619 Y22.457 E20.60569
G1 X33.817 Y21.707 E20.62246
G1 X34.091 Y20.98 E20.63926
G1 X34.438 Y20.286 E20.65603
G1 X34.855 Y19.631 E20.67282
G1 X35.337 Y19.022 E20.68961
G1 X35.879 Y18.466 E20.70639
G1 X36.475 Y17.969 E20.72317
G1 X37.119 Y17.535 E20.73996
G1 X37.805 Y17.171 E20.75675
G1 X38.524 Y16.878 E20.77354
G1 X39.269 Y16.661 E20.79031
G1 X40.033 Y16.522 E20.8071
G1 X41 Y16.46 E20.82805
G1 X63.998 Y16.46 E21.32524
G1 X64.773 Y16.5 E21.34202
G1 X65.541 Y16.619 E21.35882
G1 X66.291 Y16.817 E21.37559
G1 X67.018 Y17.091 E21.39239
G1 X67.712 Y17.438 E21.40916
G1 X68.367 Y17.855 E21.42595
G1 X68.976 Y18.337 E21.44274
G1 X69.532 Y18.879 E21.45953
G1 X70.029 Y19.475 E21.4763
G1 X70.463 Y20.119 E21.49309
G1 X70.827 Y20.805 E21.50988
G1 X71.12 Y21.524 E21.52667
G1 X71.337 Y22.269 E21.54344
G1 X71.476 Y23.033 E21.56023
G1 X71.538 Y24 E21.58118
G1 X71.538 Y25.089 E21.60472
G1 X72.625 Y25.145 E21.62825
G1 X73.393 Y25.264 E21.64506
G1 X74.143 Y25.462 E21.66183
G1 X74.87 Y25.736 E21.67862
G1 X75.564 Y26.083 E21.6954
G1 X76.288 Y26.549 E21.71401
G1 X77.163 Y27.186 E21.73741
G1 X77.766 Y27.675 E21.75419
G1 X78.316 Y28.223 E21.77098
G1 X78.807 Y28.825 E21.78777
G1 X79.233 Y29.474 E21.80456
G1 X79.59 Y30.163 E21.82133
G1 X79.895 Y30.948 E21.83954
G1 X80.229 Y31.974 E21.86287
G1 X80.431 Y32.724 E21.87966
G1 X80.555 Y33.49 E21.89643
G1 X80.599 Y34.265 E21.91322
G1 X80.563 Y35.041 E21.93001
G1 X80.448 Y35.809 E21.9468
G1 X80.229 Y36.642 E21.96542
G1 X79.895 Y37.668 E21.98875
G1 X79.617 Y38.393 E22.00553
G1 X79.266 Y39.085 E22.02231
G1 X78.845 Y39.738 E22.03911
G1 X78.36 Y40.344 E22.05589
G1 X77.815 Y40.897 E22.07267
G1 X77.16 Y41.431 E22.09094
G1 X76.052 Y42.237 E22.12056
G1 X75.402 Y42.661 E22.13734
G1 X74.711 Y43.016 E22.15414
G1 X73.988 Y43.298 E22.17091
G1 X73.239 Y43.503 E22.1877
G1 X72.473 Y43.631 E22.20449
G1 X71.538 Y43.69 E22.22474
G1 X71.537 Y159.463 E24.72765
G1 X79.052 Y159.463 E24.89012
G1 X79.827 Y159.503 E24.9069
G1 X80.595 Y159.622 E24.9237
G1 X81.345 Y159.82 E24.94047
G1 X82.072 Y160.094 E24.95726
G1 X82.766 Y160.441 E24.97404
G1 X83.421 Y160.858 E24.99083
G1 X84.03 Y161.34 E25.00762
G1 X84.586 Y161.882 E25.0244
G1 X85.083 Y162.478 E25.04118
G1 X85.517 Y163.122 E25.05797
G1 X85.881 Y163.808 E25.07476
G1 X86.174 Y164.527 E25.09154
G1 X86.424 Y165.387 E25.11091
G1 X105.735 Y165.387 E25.52839
G1 X106.039 Y164.635 E25.54593
G1 X106.405 Y163.951 E25.5627
G1 X106.84 Y163.307 E25.5795
G1 X107.338 Y162.712 E25.59627
G1 X107.895 Y162.171 E25.61306
G1 X108.505 Y161.69 E25.62986
G1 X109.161 Y161.275 E25.64664
G1 X109.856 Y160.929 E25.66342
G1 X110.358 Y160.736 E25.67505
G1 X110.626 Y160.528 E25.68238
G1 X111.284 Y160.117 E25.69916
G1 X111.982 Y159.775 E25.71596
G1 X112.71 Y159.507 E25.73273
G1 X113.463 Y159.316 E25.74953
G1 X114.231 Y159.203 E25.76631
G1 X114.944 Y159.169 E25.78174
G1 X115.495 Y159.141 E25.79367
G1 X116.263 Y159.031 E25.81044
G1 X116.945 Y159 E25.8252
G1 X117.583 Y159 E25.83899
G1 X118.358 Y159.04 E25.85577
G1 X119.126 Y159.159 E25.87257
G1 X119.623 Y159.29 E25.88368
G1 X120.247 Y159.17 E25.89742
G1 X120.818 Y159.113 E25.90983
G1 X122.976 Y158.978 E25.95657
G1 X123.753 Y158.969 E25.97337
G1 X124.526 Y159.041 E25.99015
G1 X124.864 Y159.108 E25.9976
G1 X125.689 Y159.062 E26.01547
G1 X126.052 Y159.062 E26.02331
G1 X126.575 Y158.951 E26.03487
G1 X127.452 Y158.859 E26.05394
G1 X128.38 Y158.859 E26.074
G1 X129.155 Y158.899 E26.09078
G1 X129.923 Y159.018 E26.10758
G1 X130.864 Y159.266 E26.12862
G1 X131.39 Y159.13 E26.14036
G1 X132.157 Y159.014 E26.15713
G1 X132.903 Y158.977 E26.17328
G1 X133.531 Y158.977 E26.18686
G1 X134.475 Y159.026 E26.20729
G1 X135.145 Y158.68 E26.2236
G1 X135.869 Y158.398 E26.24039
G1 X136.617 Y158.192 E26.25717
G1 X137.383 Y158.064 E26.27396
G1 X138.242 Y158.015 E26.29256
G1 X138.86 Y158.015 E26.30592
G1 X139.635 Y158.055 E26.32269
G1 X140.403 Y158.174 E26.3395
G1 X141.153 Y158.372 E26.35627
G1 X141.88 Y158.646 E26.37306
G1 X142.574 Y158.993 E26.38984
G1 X143.303 Y159.463 E26.40859
G1 X143.463 Y159.463 E26.41205
G1 X143.463 Y44 E28.90825
G1 X142.674 Y43.96 E28.92533
G1 X141.906 Y43.841 E28.94213
G1 X141.156 Y43.643 E28.9589
G1 X140.429 Y43.369 E28.9757
G1 X139.735 Y43.022 E28.99247
G1 X139.011 Y42.556 E29.01109
G1 X138.136 Y41.919 E29.03449
G1 X137.533 Y41.43 E29.05127
G1 X136.983 Y40.882 E29.06806
G1 X136.492 Y40.28 E29.08485
G1 X136.066 Y39.631 E29.10163
G1 X135.709 Y38.942 E29.11841
G1 X135.4 Y38.144 E29.13691
G1 X135.068 Y37.118 E29.16022
G1 X134.868 Y36.368 E29.17701
G1 X134.745 Y35.602 E29.19378
G1 X134.702 Y34.826 E29.21058
G1 X134.739 Y34.051 E29.22735
G1 X134.856 Y33.283 E29.24415
G1 X135.068 Y32.476 E29.26219
G1 X135.4 Y31.45 E29.2855
G1 X135.677 Y30.724 E29.3023
G1 X136.027 Y30.031 E29.31908
G1 X136.446 Y29.378 E29.33586
