;FLAVOR:Marlin
;TIME:1695
;Filament used: 1.40985m
;Layer height: 0.2
;MINX:79.723
;MINY:71.187
;MINZ:0.1
;MAXX:130.278
;MAXY:138.813
;MAXZ:6.1
;Generated with Cura_SteamEngine main
M82 ;absolute extrusion mode
;Profil Homepage: https://github.com/NilsRo/Cura_Anycubic_MegaS_Profile

;Slicer Information - (Support for OctoPrint Slicer Estimator)
;Slicer info:material_guid;0ff92885-617b-4144-a03c-9989872454bc
;Slicer info:material_id;generic_pla_175
;Slicer info:material_brand;Generic
;Slicer info:material_name;PLA
;Slicer info:material_bed_temperature;0
;Slicer info:material_bed_temperature_layer_0;0
;Slicer info:material_print_temperature;190.0
;Slicer info:material_print_temperature_layer_0;190.0
;Slicer info:material_flow;100
;Slicer info:layer_height;0.2
;Slicer info:wall_thickness;0.8
;Slicer info:speed_print;30.0
;Slicer info:speed_topbottom;30
;Slicer info:travel_speed;120
;Slicer info:support;0
;Slicer info:retraction_speed;40.0
;Slicer info:retraction_amount;3.0
;Slicer info:layer_height;0.2
;Slicer info:infill_pattern;gyroid
;Slicer info:infill_sparse_density;10
;Slicer info:cool_fan_enabled;True
;Slicer info:cool_fan_speed;50
;Slicer info:sliced_at;Thu 23-02-2023 09:01:25
G21                                        ; metric values 
G90                                        ; absolute positioning 
M82                                        ; set extruder to absolute mode 
M107                                       ; start with the fan off 
M140 S0   ; Start heating the bed 
G4 S60                                     ; wait 1 minute 
M104 S190.0 ; start heating the hot end 
M190 S0   ; wait for bed 
M109 S190.0 ; wait for hotend 
M300 S1000 P500                            ; BEEP heating done 
G28 X0 Y10 Z0                              ; move X/Y to min endstops 
M420 S1                                    ; Enable leveling 
M420 Z2.0                                  ; Set leveling fading height to 2 mm 
G0 Z0.15                                   ; lift nozzle a bit 
G92 E0                                     ; zero the extruded length 
G1 X50 E20 F500                            ; Extrude 20mm of filament in a 5cm line. 
G92 E0                                     ; zero the extruded length again 
G1 E-2 F500                                ; Retract a little 
G1 X120 F4000                              ; Quickly wipe away from the filament line`
G92 E0
G92 E0
G1 F2400 E-3
;LAYER_COUNT:31
;LAYER:0
M107
G0 F6000 X87.664 Y75.66 Z0.1
G0 X84.671 Y82.989
;TYPE:SKIRT
G1 F2400 E0
G1 F1200 X84.849 Y82.195 E0.01759
G1 X85.015 Y81.511 E0.03281
G1 X85.207 Y80.809 E0.04854
G1 X85.452 Y80.019 E0.06642
G1 X85.845 Y78.966 E0.09072
G1 X86.139 Y78.246 E0.10754
G1 X86.466 Y77.527 E0.12461
G1 X86.771 Y76.956 E0.13861
G1 X87.032 Y76.527 E0.14946
G1 X87.664 Y75.66 E0.17266
G1 X88.409 Y74.863 E0.19624
G1 X89.172 Y74.113 E0.21937
G1 X89.842 Y73.533 E0.23853
G1 X90.381 Y73.12 E0.25321
G1 X90.969 Y72.77 E0.26801
G1 X91.772 Y72.368 E0.28742
G1 X92.722 Y72.011 E0.30936
G1 X93.868 Y71.703 E0.33502
G1 X95.019 Y71.503 E0.36027
G1 X95.978 Y71.389 E0.38115
G1 X96.856 Y71.315 E0.4002
G1 X98.365 Y71.249 E0.43285
G1 X100.543 Y71.21 E0.47995
G1 X102.64 Y71.191 E0.52529
G1 X105.422 Y71.187 E0.58543
G1 X107.377 Y71.225 E0.6277
G1 X108.779 Y71.3 E0.65806
G1 X110.13 Y71.414 E0.68737
G1 X111.592 Y71.572 E0.71916
G1 X112.624 Y71.7 E0.74164
G1 X116.72 Y72.118 E0.83065
G1 X117.413 Y72.174 E0.84568
G1 X117.943 Y72.242 E0.85723
G1 X118.548 Y72.348 E0.87051
G1 X119.21 Y72.504 E0.88522
G1 X120.113 Y72.86 E0.9062
G1 X120.591 Y73.101 E0.91778
G1 X121.093 Y73.378 E0.93017
G1 X121.934 Y73.875 E0.95129
G1 X122.683 Y74.371 E0.97071
G1 X123.119 Y74.681 E0.98228
G1 X123.642 Y75.101 E0.99678
G1 X124.175 Y75.582 E1.0123
G1 X124.652 Y76.066 E1.02699
G1 X125.238 Y76.864 E1.04839
G1 X125.523 Y77.342 E1.06043
G1 X125.909 Y78.042 E1.07771
G1 X126.243 Y78.687 E1.09341
G1 X126.606 Y79.431 E1.11131
G1 X126.867 Y80.059 E1.12601
G1 X127.098 Y80.942 E1.14574
G1 X127.236 Y81.721 E1.16285
G1 X127.909 Y85.896 E1.25427
G1 X128.25 Y88.174 E1.30407
G1 X128.507 Y90.008 E1.3441
G1 X128.856 Y92.694 E1.40266
G1 X129.11 Y94.884 E1.45032
G1 X129.224 Y96.063 E1.47593
G1 X129.363 Y97.626 E1.50986
G1 X129.632 Y100.382 E1.56972
G1 X129.807 Y102.554 E1.61683
G1 X129.961 Y104.845 E1.66647
G1 X130.091 Y107.141 E1.71619
G1 X130.187 Y109.209 E1.76094
G1 X130.248 Y111.206 E1.80414
G1 X130.278 Y113.829 E1.86085
G1 X130.272 Y116.974 E1.92884
G1 X130.255 Y118.577 E1.9635
G1 X130.191 Y122.196 E2.04175
G1 X130.144 Y124.118 E2.08331
G1 X130.018 Y128.196 E2.17152
G1 X129.988 Y128.868 E2.18606
G1 X129.918 Y129.544 E2.20075
G1 X129.769 Y130.207 E2.21545
G1 X129.412 Y131.137 E2.23698
G1 X128.994 Y131.997 E2.25765
G1 X128.723 Y132.493 E2.26987
G1 X128.196 Y133.352 E2.29166
G1 X127.59 Y134.168 E2.31363
G1 X126.842 Y135.01 E2.33798
G1 X126.222 Y135.585 E2.35626
G1 X125.485 Y136.186 E2.37682
G1 X124.795 Y136.67 E2.39504
G1 X123.978 Y137.158 E2.41562
G1 X123.355 Y137.468 E2.43066
G1 X122.544 Y137.826 E2.44983
G1 X121.496 Y138.153 E2.47356
G1 X120.986 Y138.258 E2.48482
G1 X120.279 Y138.376 E2.50031
G1 X119.711 Y138.45 E2.5127
G1 X118.566 Y138.562 E2.53757
G1 X117.094 Y138.676 E2.56949
G1 X116.016 Y138.731 E2.59282
G1 X114.656 Y138.773 E2.62224
G1 X113.576 Y138.793 E2.64559
G1 X110.526 Y138.813 E2.71153
G1 X100.156 Y138.811 E2.93572
G1 X99.233 Y138.798 E2.95568
G1 X98.495 Y138.733 E2.9717
G1 X93.398 Y138.191 E3.08251
G1 X92.077 Y138.042 E3.11125
G1 X90.554 Y137.843 E3.14445
G1 X89.003 Y137.584 E3.17845
G1 X87.795 Y137.315 E3.20521
G1 X86.824 Y136.98 E3.22741
G1 X86.299 Y136.753 E3.23978
G1 X85.738 Y136.474 E3.25332
G1 X85.062 Y136.09 E3.27013
G1 X84.587 Y135.788 E3.2823
G1 X83.923 Y135.32 E3.29986
G1 X83.268 Y134.783 E3.31817
G1 X82.612 Y134.124 E3.33828
G1 X82.218 Y133.672 E3.35124
G1 X81.712 Y133.004 E3.36936
G1 X81.184 Y132.212 E3.38993
G1 X80.822 Y131.619 E3.40495
G1 X80.51 Y131.079 E3.41844
G1 X80.205 Y130.471 E3.43314
G1 X79.974 Y129.832 E3.44783
G1 X79.819 Y129.17 E3.46253
G1 X79.736 Y128.263 E3.48222
G1 X79.723 Y127.254 E3.50404
G1 X79.737 Y123.686 E3.58117
G1 X79.755 Y121.883 E3.62016
G1 X79.792 Y120.223 E3.65605
G1 X79.858 Y118.414 E3.69519
G1 X79.933 Y116.868 E3.72865
G1 X80.031 Y115.251 E3.76367
G1 X80.126 Y113.859 E3.79384
G1 X80.283 Y111.841 E3.8376
G1 X80.477 Y109.575 E3.88676
G1 X80.864 Y105.434 E3.97668
G1 X81.07 Y103.598 E4.01662
G1 X81.439 Y100.984 E4.07369
G1 X81.75 Y98.888 E4.1195
G1 X82.124 Y96.458 E4.17265
G1 X82.519 Y94.029 E4.22586
G1 X82.929 Y91.761 E4.27568
G1 X83.569 Y88.41 E4.34944
G1 X84.355 Y84.484 E4.436
G1 X84.671 Y82.989 E4.46903
G1 F2400 E1.46903
G0 F6000 X84.864 Y84.592
G1 F2400 E4.46903
G1 F1200 X85.179 Y83.102 E4.50196
G1 X85.354 Y82.317 E4.51935
G1 X85.52 Y81.633 E4.53456
G1 X85.704 Y80.963 E4.54958
G1 X85.944 Y80.191 E4.56706
G1 X86.397 Y78.983 E4.59495
G1 X86.619 Y78.444 E4.60756
G1 X86.938 Y77.746 E4.62415
G1 X87.215 Y77.226 E4.63689
G1 X87.476 Y76.797 E4.64774
G1 X87.996 Y76.085 E4.6668
G1 X88.367 Y75.665 E4.67892
G1 X88.948 Y75.056 E4.69711
G1 X89.528 Y74.493 E4.71459
G1 X90.182 Y73.927 E4.73329
G1 X90.697 Y73.533 E4.74731
G1 X91.207 Y73.232 E4.76011
G1 X91.932 Y72.86 E4.77773
G1 X92.861 Y72.512 E4.79917
G1 X93.698 Y72.279 E4.81796
G1 X94.214 Y72.17 E4.82936
G1 X94.959 Y72.041 E4.8457
G1 X95.865 Y71.924 E4.86545
G1 X96.88 Y71.834 E4.88748
G1 X98.231 Y71.773 E4.91672
G1 X100.548 Y71.73 E4.96682
G1 X102.64 Y71.711 E5.01205
G1 X105.422 Y71.707 E5.07219
G1 X107.164 Y71.738 E5.10986
G1 X108.917 Y71.831 E5.14781
G1 X110.075 Y71.931 E5.17294
G1 X111.529 Y72.088 E5.20456
G1 X112.56 Y72.216 E5.22702
G1 X116.673 Y72.635 E5.3164
G1 X117.613 Y72.712 E5.33679
G1 X118.459 Y72.86 E5.35535
G1 X119.089 Y73.011 E5.36936
G1 X119.883 Y73.326 E5.38783
G1 X120.343 Y73.558 E5.39896
G1 X120.829 Y73.826 E5.41096
G1 X121.759 Y74.382 E5.43439
G1 X122.382 Y74.795 E5.45055
G1 X122.818 Y75.105 E5.46211
G1 X123.294 Y75.487 E5.47531
G1 X123.827 Y75.968 E5.49083
G1 X124.281 Y76.431 E5.50485
G1 X124.794 Y77.135 E5.52368
G1 X125.069 Y77.594 E5.53525
G1 X125.447 Y78.281 E5.5522
G1 X125.841 Y79.045 E5.57078
G1 X126.139 Y79.658 E5.58552
G1 X126.386 Y80.258 E5.59955
G1 X126.586 Y81.033 E5.61685
G1 X126.723 Y81.804 E5.63378
G1 X127.395 Y85.973 E5.72507
G1 X127.735 Y88.246 E5.77476
G1 X127.991 Y90.075 E5.81469
G1 X128.339 Y92.754 E5.87309
G1 X128.604 Y95.043 E5.92291
G1 X128.703 Y96.066 E5.94513
G1 X128.845 Y97.676 E5.98007
G1 X129.122 Y100.521 E6.04187
G1 X129.288 Y102.589 E6.08672
G1 X129.442 Y104.875 E6.13625
G1 X129.569 Y107.111 E6.18467
G1 X129.671 Y109.316 E6.23239
G1 X129.728 Y111.212 E6.2734
G1 X129.758 Y113.828 E6.32996
G1 X129.752 Y116.969 E6.39786
G1 X129.735 Y118.568 E6.43244
G1 X129.671 Y122.183 E6.5106
G1 X129.625 Y124.102 E6.5521
G1 X129.499 Y128.173 E6.64015
G1 X129.469 Y128.845 E6.6547
G1 X129.4 Y129.489 E6.6687
G1 X129.252 Y130.121 E6.68273
G1 X128.945 Y130.909 E6.70101
G1 X128.527 Y131.769 E6.72169
G1 X128.279 Y132.221 E6.73283
G1 X127.752 Y133.08 E6.75462
G1 X127.201 Y133.822 E6.7746
G1 X126.457 Y134.659 E6.79881
G1 X125.893 Y135.182 E6.81544
G1 X125.156 Y135.783 E6.836
G1 X124.529 Y136.223 E6.85256
G1 X123.677 Y136.728 E6.87397
G1 X123.145 Y136.992 E6.88681
G1 X122.324 Y137.352 E6.90619
G1 X121.251 Y137.686 E6.93049
G1 X120.208 Y137.86 E6.95335
G1 X119.66 Y137.932 E6.96529
G1 X118.414 Y138.053 E6.99236
G1 X117.067 Y138.157 E7.02157
G1 X116.112 Y138.207 E7.04224
G1 X114.646 Y138.253 E7.07395
G1 X113.573 Y138.273 E7.09715
G1 X110.526 Y138.293 E7.16303
G1 X100.163 Y138.291 E7.38707
G1 X99.26 Y138.278 E7.40659
G1 X98.541 Y138.215 E7.42219
G1 X93.456 Y137.674 E7.53275
G1 X92.042 Y137.514 E7.56351
G1 X90.621 Y137.328 E7.59449
G1 X89.111 Y137.075 E7.62759
G1 X87.929 Y136.813 E7.65377
G1 X87.03 Y136.503 E7.67433
G1 X86.505 Y136.276 E7.68669
G1 X85.995 Y136.022 E7.69901
G1 X85.319 Y135.638 E7.71582
G1 X84.887 Y135.363 E7.72689
G1 X84.223 Y134.895 E7.74445
G1 X83.627 Y134.406 E7.76112
G1 X82.986 Y133.763 E7.78075
G1 X82.627 Y133.351 E7.79256
G1 X82.143 Y132.713 E7.80987
G1 X81.627 Y131.94 E7.82997
G1 X81.343 Y131.477 E7.84171
G1 X80.961 Y130.818 E7.85818
G1 X80.671 Y130.238 E7.87219
G1 X80.456 Y129.627 E7.8862
G1 X80.317 Y128.993 E7.90023
G1 X80.255 Y128.256 E7.91622
G1 X80.243 Y127.346 E7.93589
G1 X80.257 Y123.691 E8.01491
G1 X80.275 Y121.895 E8.05374
G1 X80.314 Y120.162 E8.09122
G1 X80.377 Y118.44 E8.12847
G1 X80.452 Y116.899 E8.16183
G1 X80.549 Y115.287 E8.19674
G1 X80.645 Y113.899 E8.22682
G1 X80.801 Y111.886 E8.27047
G1 X80.995 Y109.624 E8.31955
G1 X81.391 Y105.389 E8.41151
G1 X81.585 Y103.671 E8.44888
G1 X81.953 Y101.06 E8.50589
G1 X82.264 Y98.967 E8.55163
G1 X82.637 Y96.541 E8.6047
G1 X83.015 Y94.213 E8.65569
G1 X83.439 Y91.859 E8.7074
G1 X84.079 Y88.512 E8.78107
G1 X84.864 Y84.592 E8.8675
G1 F2400 E5.8675
;MESH:Car Alarm Cap v1.stl
G0 F6000 X117.296 Y87.669
;TYPE:WALL-INNER
G1 F2400 E8.8675
G1 F1200 X116.596 Y88.379 E8.88905
G1 X115.663 Y88.932 E8.9125
G1 X114.756 Y89.127 E8.93256
G1 X113.571 Y89.126 E8.95817
G1 X112.675 Y88.933 E8.97799
G1 X111.745 Y88.392 E9.00125
G1 X111.048 Y87.683 E9.02274
G1 X110.563 Y86.874 E9.04314
G1 X110.256 Y85.946 E9.06427
G1 X110.174 Y85.144 E9.0817
G1 X110.173 Y84.886 E9.08727
G1 X110.252 Y84.081 E9.10476
G1 X110.526 Y83.201 E9.12469
G1 X111.013 Y82.347 E9.14594
G1 X111.712 Y81.624 E9.16768
G1 X112.667 Y81.045 E9.19183
G1 X113.844 Y80.843 E9.21764
G1 X115.018 Y80.901 E9.24306
G1 X115.826 Y81.157 E9.26138
G1 X116.591 Y81.606 E9.28056
G1 X117.3 Y82.329 E9.30245
G1 X117.779 Y83.145 E9.3229
G1 X118.073 Y84.051 E9.3435
G1 X118.166 Y84.978 E9.36364
G1 X118.076 Y85.93 E9.38431
G1 X117.782 Y86.842 E9.40503
G1 X117.296 Y87.669 E9.42576
G1 F2400 E6.42576
G0 F6000 X115.47 Y88.441
G1 F2400 E9.42576
G1 F1200 X114.72 Y88.608 E9.44238
G1 X113.618 Y88.607 E9.4662
G1 X112.866 Y88.443 E9.48284
G1 X112.052 Y87.963 E9.50327
G1 X111.459 Y87.36 E9.52155
G1 X111.029 Y86.636 E9.53976
G1 X110.773 Y85.838 E9.55788
G1 X110.692 Y85.091 E9.57412
G1 X110.691 Y84.936 E9.57747
G1 X110.764 Y84.183 E9.59383
G1 X111.008 Y83.404 E9.61148
G1 X111.435 Y82.659 E9.63004
G1 X112.038 Y82.034 E9.64882
G1 X112.85 Y81.542 E9.66934
G1 X113.865 Y81.365 E9.69162
G1 X114.939 Y81.417 E9.71486
G1 X115.564 Y81.606 E9.72898
G1 X116.269 Y82.019 E9.74664
G1 X116.881 Y82.642 E9.76552
G1 X117.309 Y83.369 E9.78376
G1 X117.562 Y84.162 E9.80176
G1 X117.642 Y85.005 E9.82006
G1 X117.564 Y85.825 E9.83787
G1 X117.305 Y86.628 E9.85611
G1 X116.879 Y87.35 E9.87423
G1 X116.27 Y87.97 E9.89302
G1 X115.47 Y88.441 E9.91309
G1 F2400 E6.91309
G0 F6000 X114.877 Y81.937
;TYPE:WALL-OUTER
G1 F2400 E9.91309
G1 F1200 X115.302 Y82.056 E9.92263
G1 X115.955 Y82.441 E9.93902
G1 X116.452 Y82.947 E9.95436
G1 X116.823 Y83.568 E9.97
G1 X117.052 Y84.285 E9.98627
G1 X117.122 Y84.999 E10.00178
G1 X117.051 Y85.717 E10.01738
G1 X116.829 Y86.411 E10.03313
G1 X116.463 Y87.032 E10.04871
G1 X115.943 Y87.562 E10.06476
G1 X115.276 Y87.949 E10.08144
G1 X114.643 Y88.088 E10.09545
G1 X113.691 Y88.088 E10.11603
G1 X113.061 Y87.955 E10.12995
G1 X112.387 Y87.561 E10.14683
G1 X111.864 Y87.027 E10.16299
G1 X111.51 Y86.43 E10.17799
G1 X111.281 Y85.728 E10.19395
G1 X111.209 Y85.038 E10.20895
G1 X111.274 Y84.305 E10.22486
G1 X111.496 Y83.595 E10.24094
G1 X111.852 Y82.976 E10.25638
G1 X112.367 Y82.443 E10.2724
G1 X113.048 Y82.035 E10.28957
G1 X113.878 Y81.889 E10.30779
G1 X114.877 Y81.937 E10.32941
G0 F6000 X115.262 Y82.044
G1 F2400 E7.32941
G0 F6000 X119.3 Y131.372
;TYPE:WALL-INNER
G1 F2400 E10.32941
G1 F1200 X119.886 Y131.264 E10.34229
G1 X120.411 Y131.04 E10.35463
G1 X121.071 Y130.663 E10.37106
G1 X121.619 Y130.229 E10.38618
G1 X122.204 Y129.597 E10.40479
G1 X122.593 Y128.982 E10.42053
G1 X122.93 Y128.313 E10.43672
G1 X123.069 Y123.822 E10.53386
G1 X123.114 Y121.956 E10.57421
G1 X123.176 Y118.407 E10.65095
G1 X123.193 Y116.72 E10.68742
G1 X123.197 Y113.565 E10.75563
G1 X123.184 Y112.206 E10.78501
G1 X123.163 Y111.017 E10.81072
G1 X123.126 Y109.806 E10.83691
G1 X123.032 Y107.726 E10.88193
G1 X122.91 Y105.531 E10.92946
G1 X122.765 Y103.318 E10.9774
G1 X122.608 Y101.321 E11.02071
G1 X122.537 Y100.553 E11.03738
G1 X122.385 Y99.116 E11.06862
G1 X122.135 Y96.28 E11.13017
G1 X122.038 Y95.333 E11.15075
G1 X121.776 Y93.124 E11.19884
G1 X121.448 Y90.638 E11.25305
G1 X121.262 Y89.322 E11.28179
G1 X120.867 Y86.684 E11.33945
G1 X120.165 Y82.36 E11.43416
G1 X119.568 Y81.185 E11.46265
G1 X119.225 Y80.585 E11.47759
G1 X118.279 Y79.934 E11.50242
G1 X117.735 Y79.598 E11.51624
G1 X117.04 Y79.232 E11.53322
G1 X115.134 Y79.211 E11.57443
G1 X113.87 Y79.064 E11.60194
G1 X112.985 Y78.903 E11.62139
G1 X112.352 Y78.807 E11.63523
G1 X111.205 Y78.656 E11.66024
G1 X109.953 Y78.512 E11.68749
G1 X108.755 Y78.393 E11.71352
G1 X107.728 Y78.32 E11.73577
G1 X106.624 Y78.28 E11.75966
G1 X105.152 Y78.265 E11.79148
G1 X102.418 Y78.272 E11.85059
G1 X100.298 Y78.293 E11.89642
G1 X98.534 Y78.326 E11.93457
G1 X97.765 Y78.348 E11.9512
G1 X97.016 Y78.394 E11.96742
G1 X96.135 Y78.487 E11.98657
G1 X95.416 Y78.608 E12.00234
G1 X94.758 Y78.778 E12.01703
G1 X94.36 Y78.976 E12.02664
G1 X93.898 Y79.38 E12.03991
G1 X93.539 Y79.73 E12.05075
G1 X93.015 Y80.301 E12.0675
G1 X92.743 Y80.766 E12.07915
G1 X92.199 Y82.147 E12.11124
G1 X91.991 Y82.794 E12.12593
G1 X91.81 Y83.5 E12.14169
G1 X91.688 Y84.037 E12.15359
G1 X91.343 Y85.658 E12.18942
G1 X90.531 Y89.707 E12.2787
G1 X89.885 Y93.088 E12.35312
G1 X89.614 Y94.564 E12.38556
G1 X89.438 Y95.573 E12.4077
G1 X89.106 Y97.646 E12.45309
G1 X88.401 Y102.303 E12.55492
G1 X88.127 Y104.229 E12.59698
G1 X87.988 Y105.326 E12.62088
G1 X87.527 Y110.229 E12.72735
G1 X87.346 Y112.332 E12.77298
G1 X87.191 Y114.329 E12.81628
G1 X87.071 Y116.08 E12.85423
G1 X86.977 Y117.727 E12.88989
G1 X86.911 Y119.188 E12.92151
G1 X86.861 Y120.7 E12.95421
G1 X86.831 Y122.254 E12.98782
G1 X86.817 Y123.77 E13.02059
G1 X86.802 Y127.824 E13.10824
G1 X87.243 Y128.564 E13.12686
G1 X87.649 Y129.164 E13.14252
G1 X88.217 Y129.736 E13.15995
G1 X89.339 Y130.401 E13.18815
G1 X90.204 Y130.611 E13.20739
G1 X90.83 Y130.728 E13.22116
G1 X91.627 Y130.849 E13.23859
G1 X92.642 Y130.979 E13.26071
