;FLAVOR:Marlin
;TIME:1087
;Filament used: 0.556988m
;Layer height: 0.2
;MINX:91.39
;MINY:71.942
;MINZ:0.1
;MAXX:122.628
;MAXY:138.059
;MAXZ:14.575
;Generated with Cura_SteamEngine main
M82 ;absolute extrusion mode
;Profil Homepage: https://github.com/NilsRo/Cura_Anycubic_MegaS_Profile

;Slicer Information - (Support for OctoPrint Slicer Estimator)
;Slicer info:material_guid;0ff92885-617b-4144-a03c-9989872454bc
;Slicer info:material_id;generic_pla_175
;Slicer info:material_brand;Generic
;Slicer info:material_name;PLA
;Slicer info:material_bed_temperature;0
;Slicer info:material_bed_temperature_layer_0;0
;Slicer info:material_print_temperature;190.0
;Slicer info:material_print_temperature_layer_0;190.0
;Slicer info:material_flow;100
;Slicer info:layer_height;0.2
;Slicer info:wall_thickness;0.8
;Slicer info:speed_print;30.0
;Slicer info:speed_topbottom;30
;Slicer info:travel_speed;120
;Slicer info:support;0
;Slicer info:retraction_speed;40.0
;Slicer info:retraction_amount;3.0
;Slicer info:layer_height;0.2
;Slicer info:infill_pattern;grid
;Slicer info:infill_sparse_density;100
;Slicer info:cool_fan_enabled;True
;Slicer info:cool_fan_speed;50
;Slicer info:sliced_at;Wed 21-09-2022 13:09:23
G21                                        ; metric values 
G90                                        ; absolute positioning 
M82                                        ; set extruder to absolute mode 
M107                                       ; start with the fan off 
M140 S0   ; Start heating the bed 
G4 S60                                     ; wait 1 minute 
M104 S190.0 ; start heating the hot end 
M190 S0   ; wait for bed 
M109 S190.0 ; wait for hotend 
M300 S1000 P500                            ; BEEP heating done 
G28 X0 Y10 Z0                              ; move X/Y to min endstops 
M420 S1                                    ; Enable leveling 
M420 Z2.0                                  ; Set leveling fading height to 2 mm 
G0 Z0.15                                   ; lift nozzle a bit 
G92 E0                                     ; zero the extruded length 
G1 X50 E20 F500                            ; Extrude 20mm of filament in a 5cm line. 
G92 E0                                     ; zero the extruded length again 
G1 E-2 F500                                ; Retract a little 
G1 X120 F4000                              ; Quickly wipe away from the filament line`
G92 E0
G92 E0
G1 F2400 E-3
;LAYER_COUNT:73
;LAYER:0
M107
G1 F300 Z0.175
G0 F6000 X93.272 Y74.823 Z0.175
G1 F300 Z0.175
G0 F6000 X91.39 Y80
;TYPE:SKIRT
G1 F300 Z0.1
G1 F2400 E0
G1 F1200 X91.43 Y79.198 E0.01736
G1 X91.55 Y78.404 E0.03472
G1 X91.747 Y77.626 E0.05207
G1 X92.022 Y76.872 E0.06942
G1 X92.37 Y76.149 E0.08677
G1 X92.788 Y75.463 E0.10414
G1 X93.272 Y74.823 E0.12148
G1 X93.818 Y74.234 E0.13885
G1 X94.419 Y73.703 E0.15618
G1 X95.071 Y73.234 E0.17355
G1 X95.765 Y72.832 E0.19089
G1 X96.497 Y72.501 E0.20826
G1 X97.257 Y72.244 E0.2256
G1 X98.04 Y72.064 E0.24297
G1 X98.836 Y71.963 E0.26032
G1 X99.639 Y71.942 E0.27768
G1 X100.158 Y71.971 E0.28892
G1 X110.358 Y72.871 E0.51029
G1 X111.154 Y72.981 E0.52766
G1 X111.934 Y73.17 E0.54501
G1 X112.691 Y73.436 E0.56236
G1 X113.419 Y73.775 E0.57972
G1 X114.109 Y74.186 E0.59709
G1 X114.755 Y74.662 E0.61443
G1 X115.35 Y75.201 E0.63179
G1 X115.888 Y75.796 E0.64913
G1 X116.365 Y76.442 E0.66649
G1 X116.775 Y77.132 E0.68384
G1 X117.115 Y77.86 E0.70121
G1 X117.38 Y78.617 E0.71855
G1 X117.569 Y79.398 E0.73593
G1 X117.679 Y80.193 E0.75328
G1 X117.71 Y80.9 E0.76858
G1 X117.71 Y103.176 E1.25016
G1 X118.971 Y104.096 E1.28391
G1 X119.595 Y104.601 E1.30126
G1 X120.166 Y105.165 E1.31861
G1 X120.678 Y105.784 E1.33598
G1 X121.126 Y106.45 E1.35333
G1 X121.505 Y107.157 E1.37068
G1 X121.884 Y108.109 E1.39283
G1 X122.232 Y109.176 E1.41709
G1 X122.442 Y109.95 E1.43443
G1 X122.575 Y110.742 E1.45179
G1 X122.628 Y111.543 E1.46915
G1 X122.601 Y112.345 E1.4865
G1 X122.495 Y113.141 E1.50386
G1 X122.232 Y114.174 E1.5269
G1 X121.884 Y115.241 E1.55116
G1 X121.597 Y115.991 E1.56853
G1 X121.237 Y116.709 E1.58589
G1 X120.808 Y117.387 E1.60324
G1 X120.313 Y118.019 E1.62059
G1 X119.758 Y118.599 E1.63795
G1 X118.971 Y119.254 E1.66008
G1 X117.71 Y120.174 E1.69383
G1 X117.71 Y129.1 E1.8868
G1 X117.67 Y129.902 E1.90416
G1 X117.55 Y130.696 E1.92152
G1 X117.353 Y131.474 E1.93887
G1 X117.078 Y132.228 E1.95622
G1 X116.73 Y132.951 E1.97357
G1 X116.312 Y133.637 E1.99094
G1 X115.828 Y134.277 E2.00828
G1 X115.282 Y134.866 E2.02565
G1 X114.681 Y135.397 E2.04298
G1 X114.029 Y135.866 E2.06035
G1 X113.335 Y136.268 E2.07769
G1 X112.603 Y136.599 E2.09506
G1 X111.843 Y136.856 E2.1124
G1 X111.06 Y137.036 E2.12977
G1 X110.358 Y137.129 E2.14508
G1 X100.158 Y138.029 E2.36645
G1 X99.356 Y138.059 E2.3838
G1 X98.555 Y138.01 E2.40115
G1 X97.763 Y137.881 E2.4185
G1 X96.987 Y137.674 E2.43586
G1 X96.236 Y137.391 E2.45321
G1 X95.517 Y137.035 E2.47056
G1 X94.836 Y136.609 E2.48792
G1 X94.202 Y136.117 E2.50527
G1 X93.619 Y135.565 E2.52263
G1 X93.095 Y134.957 E2.53998
G1 X92.633 Y134.3 E2.55734
G1 X92.239 Y133.601 E2.57469
G1 X91.917 Y132.866 E2.59204
G1 X91.669 Y132.102 E2.60941
G1 X91.498 Y131.318 E2.62675
G1 X91.407 Y130.52 E2.64412
G1 X91.39 Y130 E2.65537
G1 X91.39 Y129.188 E2.67292
G1 X91.43 Y128.386 E2.69028
G1 X91.55 Y127.592 E2.70764
G1 X91.747 Y126.814 E2.72499
G1 X92.022 Y126.06 E2.74234
G1 X92.37 Y125.337 E2.75969
G1 X92.788 Y124.651 E2.77706
G1 X93.272 Y124.011 E2.7944
G1 X93.818 Y123.422 E2.81177
G1 X94.419 Y122.891 E2.8291
G1 X95.071 Y122.422 E2.84647
G1 X95.765 Y122.02 E2.86381
G1 X96.497 Y121.689 E2.88117
G1 X97.257 Y121.432 E2.89852
G1 X98.04 Y121.252 E2.91589
G1 X98.936 Y121.144 E2.9354
G1 X99.456 Y121.111 E2.94666
G1 X100.592 Y120.812 E2.97206
G1 X100.592 Y105.989 E3.29252
G1 X100.632 Y105.187 E3.30988
G1 X100.615 Y104.624 E3.32206
G1 X100.592 Y104.01 E3.33534
G1 X100.592 Y89.282 E3.65375
G1 X98.98 Y88.857 E3.68979
G1 X98.144 Y88.764 E3.70797
G1 X97.359 Y88.595 E3.72533
G1 X96.595 Y88.348 E3.74269
G1 X95.859 Y88.027 E3.76005
G1 X95.159 Y87.634 E3.7774
G1 X94.502 Y87.173 E3.79476
G1 X93.894 Y86.65 E3.81209
G1 X93.34 Y86.068 E3.82947
G1 X92.848 Y85.434 E3.84682
G1 X92.421 Y84.754 E3.86417
G1 X92.063 Y84.036 E3.88152
G1 X91.779 Y83.285 E3.89888
G1 X91.571 Y82.51 E3.91623
G1 X91.441 Y81.717 E3.9336
G1 X91.39 Y80.811 E3.95322
G1 X91.39 Y80 E3.97075
G0 F6000 X91.91 Y80
G1 F1200 X91.95 Y79.225 E3.98753
G1 X92.069 Y78.457 E4.00433
G1 X92.267 Y77.707 E4.0211
G1 X92.541 Y76.98 E4.03789
G1 X92.888 Y76.286 E4.05467
G1 X93.305 Y75.631 E4.07146
G1 X93.787 Y75.022 E4.08825
G1 X94.329 Y74.466 E4.10503
G1 X94.925 Y73.969 E4.12181
G1 X95.569 Y73.535 E4.1386
G1 X96.255 Y73.171 E4.15539
G1 X96.974 Y72.878 E4.17217
G1 X97.719 Y72.661 E4.18895
G1 X98.483 Y72.522 E4.20574
G1 X99.257 Y72.462 E4.22252
G1 X100.113 Y72.489 E4.24104
G1 X110.313 Y73.389 E4.46241
G1 X111.082 Y73.497 E4.4792
G1 X111.835 Y73.684 E4.49597
G1 X112.566 Y73.947 E4.51276
G1 X113.265 Y74.283 E4.52953
G1 X113.927 Y74.69 E4.54633
G1 X114.543 Y75.163 E4.56312
G1 X115.107 Y75.696 E4.5799
G1 X115.613 Y76.285 E4.59669
G1 X116.056 Y76.923 E4.61348
G1 X116.431 Y77.603 E4.63027
G1 X116.734 Y78.317 E4.64703
G1 X116.962 Y79.06 E4.66384
G1 X117.112 Y79.821 E4.68061
G1 X117.19 Y80.9 E4.70399
G1 X117.19 Y103.489 E5.19235
G1 X117.755 Y103.853 E5.20688
G1 X118.664 Y104.516 E5.2312
G1 X119.267 Y105.005 E5.24798
G1 X119.816 Y105.554 E5.26477
G1 X120.307 Y106.156 E5.28156
G1 X120.732 Y106.806 E5.29835
G1 X121.089 Y107.495 E5.31513
G1 X121.389 Y108.27 E5.3331
G1 X121.737 Y109.337 E5.35736
G1 X121.94 Y110.087 E5.37416
G1 X122.064 Y110.853 E5.39093
G1 X122.109 Y111.628 E5.40772
G1 X122.074 Y112.404 E5.42451
G1 X121.959 Y113.172 E5.4413
G1 X121.737 Y114.013 E5.4601
G1 X121.389 Y115.08 E5.48437
G1 X121.111 Y115.805 E5.50115
G1 X120.759 Y116.497 E5.51794
G1 X120.339 Y117.149 E5.5347
G1 X119.853 Y117.755 E5.5515
G1 X119.308 Y118.308 E5.56828
G1 X118.664 Y118.834 E5.58626
G1 X117.755 Y119.497 E5.61058
G1 X117.19 Y119.866 E5.62517
G1 X117.19 Y129.1 E5.8248
G1 X117.15 Y129.875 E5.84158
G1 X117.031 Y130.643 E5.85838
G1 X116.833 Y131.393 E5.87515
G1 X116.559 Y132.12 E5.89195
G1 X116.212 Y132.814 E5.90872
G1 X115.795 Y133.469 E5.92551
G1 X115.313 Y134.078 E5.9423
G1 X114.771 Y134.634 E5.95909
G1 X114.175 Y135.131 E5.97586
G1 X113.531 Y135.565 E5.99265
G1 X112.845 Y135.929 E6.00944
G1 X112.126 Y136.222 E6.02623
G1 X111.381 Y136.439 E6.043
G1 X110.313 Y136.611 E6.06639
G1 X100.113 Y137.511 E6.28776
G1 X99.337 Y137.539 E6.30455
G1 X98.562 Y137.488 E6.32134
G1 X97.797 Y137.357 E6.33812
G1 X97.049 Y137.148 E6.35491
G1 X96.327 Y136.863 E6.37169
G1 X95.638 Y136.505 E6.38848
G1 X94.989 Y136.079 E6.40526
G1 X94.387 Y135.588 E6.42206
G1 X93.84 Y135.037 E6.43884
G1 X93.351 Y134.434 E6.45562
G1 X92.928 Y133.783 E6.47241
G1 X92.573 Y133.092 E6.4892
G1 X92.292 Y132.369 E6.50597
G1 X92.086 Y131.62 E6.52277
G1 X91.959 Y130.854 E6.53955
G1 X91.91 Y130 E6.55805
G1 X91.91 Y129.188 E6.5756
G1 X91.95 Y128.413 E6.59238
G1 X92.069 Y127.645 E6.60918
G1 X92.267 Y126.895 E6.62595
G1 X92.541 Y126.168 E6.64275
G1 X92.888 Y125.474 E6.65952
G1 X93.305 Y124.819 E6.67631
G1 X93.787 Y124.21 E6.6931
G1 X94.329 Y123.654 E6.70988
G1 X94.925 Y123.157 E6.72666
G1 X95.569 Y122.723 E6.74345
G1 X96.255 Y122.359 E6.76024
G1 X96.974 Y122.066 E6.77703
G1 X97.719 Y121.849 E6.7938
G1 X98.62 Y121.685 E6.8136
G1 X99.541 Y121.627 E6.83355
G1 X101.112 Y121.213 E6.86867
G1 X101.112 Y105.989 E7.1978
G1 X101.152 Y105.214 E7.21458
G1 X101.182 Y105.021 E7.2188
G1 X101.112 Y104.01 E7.24071
G1 X101.112 Y88.881 E7.56779
G1 X99.065 Y88.342 E7.61355
G1 X98.203 Y88.247 E7.6323
G1 X97.445 Y88.079 E7.64908
G1 X96.708 Y87.835 E7.66587
G1 X96 Y87.515 E7.68266
G1 X95.329 Y87.125 E7.69944
G1 X94.701 Y86.668 E7.71623
G1 X94.124 Y86.148 E7.73303
G1 X93.604 Y85.573 E7.74979
G1 X93.145 Y84.946 E7.76659
G1 X92.753 Y84.276 E7.78337
G1 X92.432 Y83.569 E7.80015
G1 X92.186 Y82.832 E7.81695
G1 X92.017 Y82.075 E7.83372
G1 X91.91 Y81.168 E7.85346
G1 X91.91 Y80 E7.87872
G0 F6000 X92.43 Y80
G1 F1200 X92.47 Y79.252 E7.89491
G1 X92.589 Y78.512 E7.91111
G1 X92.787 Y77.79 E7.9273
G1 X93.06 Y77.092 E7.9435
G1 X93.407 Y76.428 E7.9597
G1 X93.822 Y75.804 E7.9759
G1 X94.301 Y75.229 E7.99208
G1 X94.839 Y74.707 E8.00829
G1 X95.429 Y74.246 E8.02447
G1 X96.065 Y73.85 E8.04067
G1 X96.74 Y73.524 E8.05688
G1 X97.445 Y73.272 E8.07306
G1 X98.174 Y73.097 E8.08927
G1 X98.916 Y73 E8.10545
G1 X99.768 Y72.981 E8.12387
G1 X110.267 Y73.907 E8.35173
G1 X111.009 Y74.013 E8.36794
G1 X111.735 Y74.197 E8.38413
G1 X112.437 Y74.457 E8.40031
G1 X113.108 Y74.791 E8.41652
G1 X113.739 Y75.194 E8.4327
G1 X114.324 Y75.662 E8.4489
G1 X114.856 Y76.19 E8.4651
G1 X115.328 Y76.772 E8.4813
G1 X115.735 Y77.4 E8.49748
G1 X116.074 Y78.069 E8.5137
G1 X116.339 Y78.769 E8.52988
G1 X116.528 Y79.494 E8.54607
G1 X116.638 Y80.235 E8.56227
G1 X116.67 Y80.9 E8.57666
G1 X116.67 Y103.761 E9.0709
G1 X117.449 Y104.273 E9.09105
G1 X118.358 Y104.936 E9.11537
G1 X118.939 Y105.409 E9.13157
G1 X119.466 Y105.942 E9.14778
G1 X119.933 Y106.527 E9.16396
G1 X120.335 Y107.159 E9.18015
G1 X120.668 Y107.83 E9.19635
G1 X120.895 Y108.431 E9.21023
G1 X121.243 Y109.498 E9.2345
G1 X121.437 Y110.222 E9.2507
G1 X121.553 Y110.962 E9.2669
G1 X121.589 Y111.71 E9.28309
G1 X121.545 Y112.458 E9.29928
G1 X121.422 Y113.197 E9.31548
G1 X121.243 Y113.852 E9.33016
G1 X120.895 Y114.919 E9.35442
G1 X120.625 Y115.618 E9.37062
G1 X120.282 Y116.284 E9.38682
G1 X119.87 Y116.909 E9.403
G1 X119.394 Y117.488 E9.41921
G1 X118.859 Y118.012 E9.4354
G1 X118.358 Y118.414 E9.44928
G1 X117.449 Y119.077 E9.47361
G1 X116.67 Y119.583 E9.49369
G1 X116.67 Y129.1 E9.69944
G1 X116.63 Y129.848 E9.71563
G1 X116.511 Y130.588 E9.73184
G1 X116.313 Y131.31 E9.74802
G1 X116.04 Y132.008 E9.76423
G1 X115.693 Y132.672 E9.78042
G1 X115.278 Y133.296 E9.79662
G1 X114.799 Y133.871 E9.8128
G1 X114.261 Y134.393 E9.82901
G1 X113.671 Y134.854 E9.8452
G1 X113.035 Y135.25 E9.86139
G1 X112.36 Y135.576 E9.8776
G1 X111.655 Y135.828 E9.89379
G1 X110.926 Y136.003 E9.90999
G1 X110.267 Y136.093 E9.92437
G1 X100.067 Y136.993 E10.14574
G1 X99.318 Y137.019 E10.16195
G1 X98.571 Y136.965 E10.17814
G1 X97.834 Y136.831 E10.19433
G1 X97.115 Y136.62 E10.21053
G1 X96.423 Y136.334 E10.22672
G1 X95.765 Y135.975 E10.24292
G1 X95.15 Y135.549 E10.2591
G1 X94.583 Y135.059 E10.2753
G1 X94.071 Y134.511 E10.29151
G1 X93.621 Y133.912 E10.30771
G1 X93.238 Y133.269 E10.32389
G1 X92.925 Y132.588 E10.34009
G1 X92.686 Y131.878 E10.35629
G1 X92.524 Y131.147 E10.37248
G1 X92.43 Y130.293 E10.39105
G1 X92.43 Y129.188 E10.41494
G1 X92.47 Y128.44 E10.43113
G1 X92.589 Y127.7 E10.44734
G1 X92.787 Y126.978 E10.46352
G1 X93.06 Y126.28 E10.47973
G1 X93.407 Y125.616 E10.49592
G1 X93.822 Y124.992 E10.51213
G1 X94.301 Y124.417 E10.5283
G1 X94.839 Y123.895 E10.54451
G1 X95.429 Y123.434 E10.5607
G1 X96.065 Y123.038 E10.57689
G1 X96.74 Y122.712 E10.5931
G1 X97.445 Y122.46 E10.60929
G1 X98.174 Y122.285 E10.62549
G1 X99.003 Y122.182 E10.64355
G1 X99.624 Y122.142 E10.65701
G1 X101.632 Y121.614 E10.70189
G1 X101.632 Y105.989 E11.03969
G1 X101.672 Y105.241 E11.05589
G1 X101.652 Y104.544 E11.07096
G1 X101.632 Y104.01 E11.08251
G1 X101.632 Y88.481 E11.41824
G1 X99.19 Y87.838 E11.47283
G1 X98.263 Y87.73 E11.49301
G1 X97.532 Y87.564 E11.50921
G1 X96.824 Y87.321 E11.5254
G1 X96.145 Y87.004 E11.5416
G1 X95.504 Y86.617 E11.55778
G1 X94.907 Y86.163 E11.574
G1 X94.363 Y85.649 E11.59018
G1 X93.876 Y85.079 E11.60639
G1 X93.453 Y84.461 E11.62258
G1 X93.099 Y83.801 E11.63877
G1 X92.816 Y83.107 E11.65497
G1 X92.609 Y82.387 E11.67117
G1 X92.48 Y81.649 E11.68736
G1 X92.43 Y80.811 E11.70551
G1 X92.43 Y80 E11.72305
G0 F6000 X92.95 Y80
G1 F1200 X92.99 Y79.28 E11.73864
G1 X93.109 Y78.569 E11.75422
G1 X93.307 Y77.876 E11.7698
G1 X93.58 Y77.209 E11.78538
G1 X93.925 Y76.576 E11.80097
G1 X94.338 Y75.985 E11.81656
G1 X94.814 Y75.444 E11.83214
G1 X95.347 Y74.959 E11.84771
G1 X95.93 Y74.535 E11.8633
G1 X96.557 Y74.179 E11.87889
G1 X97.219 Y73.895 E11.89446
G1 X97.909 Y73.685 E11.91005
G1 X98.618 Y73.554 E11.92564
G1 X99.337 Y73.501 E11.94123
G1 X100.021 Y73.525 E11.95602
G1 X110.221 Y74.425 E12.1774
G1 X110.935 Y74.528 E12.19299
G1 X111.632 Y74.71 E12.20856
G1 X112.306 Y74.967 E12.22416
G1 X112.946 Y75.298 E12.23974
G1 X113.546 Y75.697 E12.25531
G1 X114.098 Y76.161 E12.2709
G1 X114.596 Y76.682 E12.28649
G1 X115.032 Y77.256 E12.30207
G1 X115.403 Y77.874 E12.31765
G1 X115.702 Y78.53 E12.33324
G1 X115.928 Y79.215 E12.34883
G1 X116.076 Y79.92 E12.36441
G1 X116.15 Y80.9 E12.38565
G1 X116.145 Y104.098 E12.88717
G1 X116.861 Y104.488 E12.9048
G1 X118.051 Y105.356 E12.93664
G1 X118.609 Y105.813 E12.95224
G1 X119.113 Y106.328 E12.96781
G1 X119.557 Y106.896 E12.9834
G1 X119.935 Y107.51 E12.99899
G1 X120.299 Y108.281 E13.01742
G1 X120.749 Y109.66 E13.04878
G1 X120.934 Y110.356 E13.06435
G1 X121.041 Y111.069 E13.07994
G1 X121.068 Y111.789 E13.09551
G1 X121.015 Y112.508 E13.1111
G1 X120.856 Y113.362 E13.12988
G1 X120.401 Y114.757 E13.1616
G1 X120.139 Y115.429 E13.17719
G1 X119.806 Y116.068 E13.19277
G1 X119.403 Y116.666 E13.20836
G1 X118.937 Y117.216 E13.22395
G1 X118.314 Y117.802 E13.24244
G1 X117.142 Y118.657 E13.2738
G1 X116.537 Y119.048 E13.28937
G1 X116.15 Y119.242 E13.29873
G1 X116.15 Y129.1 E13.51185
G1 X116.11 Y129.82 E13.52744
G1 X115.991 Y130.531 E13.54303
G1 X115.793 Y131.224 E13.55861
G1 X115.52 Y131.891 E13.57419
G1 X115.175 Y132.524 E13.58978
G1 X114.762 Y133.115 E13.60536
G1 X114.286 Y133.656 E13.62094
G1 X113.753 Y134.141 E13.63652
G1 X113.17 Y134.565 E13.65211
G1 X112.543 Y134.921 E13.6677
G1 X111.881 Y135.205 E13.68327
G1 X111.191 Y135.415 E13.69886
G1 X110.221 Y135.575 E13.72012
G1 X100.021 Y136.475 E13.94149
G1 X99.301 Y136.498 E13.95706
G1 X98.582 Y136.442 E13.97265
G1 X97.874 Y136.306 E13.98824
G1 X97.186 Y136.093 E14.00381
G1 X96.525 Y135.805 E14.0194
G1 X95.9 Y135.445 E14.03499
G1 X95.319 Y135.019 E14.05056
G1 X94.789 Y134.53 E14.06615
G1 X94.316 Y133.986 E14.08174
G1 X93.906 Y133.393 E14.09733
G1 X93.564 Y132.759 E14.1129
G1 X93.295 Y132.09 E14.12849
G1 X93.102 Y131.396 E14.14406
G1 X92.986 Y130.684 E14.15966
