;FLAVOR:Marlin
;TIME:1889
;Filament used: 1.37278m
;Layer height: 0.2
;MINX:76.219
;MINY:76.249
;MINZ:0.1
;MAXX:119.481
;MAXY:119.451
;MAXZ:10.375
;Generated with Cura_SteamEngine main
M82 ;absolute extrusion mode
;Profil Homepage: https://github.com/NilsRo/Cura_Anycubic_MegaS_Profile

;Slicer Information - (Support for OctoPrint Slicer Estimator)
;Slicer info:material_guid;0ff92885-617b-4144-a03c-9989872454bc
;Slicer info:material_id;generic_pla_175
;Slicer info:material_brand;Generic
;Slicer info:material_name;PLA
;Slicer info:material_bed_temperature;0
;Slicer info:material_bed_temperature_layer_0;0
;Slicer info:material_print_temperature;190.0
;Slicer info:material_print_temperature_layer_0;190.0
;Slicer info:material_flow;100
;Slicer info:layer_height;0.2
;Slicer info:wall_thickness;0.8
;Slicer info:speed_print;30.0
;Slicer info:speed_topbottom;30
;Slicer info:travel_speed;120
;Slicer info:support;0
;Slicer info:retraction_speed;40.0
;Slicer info:retraction_amount;3.0
;Slicer info:layer_height;0.2
;Slicer info:infill_pattern;grid
;Slicer info:infill_sparse_density;100
;Slicer info:cool_fan_enabled;True
;Slicer info:cool_fan_speed;50
;Slicer info:sliced_at;Wed 21-09-2022 12:29:05
G21                                        ; metric values 
G90                                        ; absolute positioning 
M82                                        ; set extruder to absolute mode 
M107                                       ; start with the fan off 
M140 S0   ; Start heating the bed 
G4 S60                                     ; wait 1 minute 
M104 S190.0 ; start heating the hot end 
M190 S0   ; wait for bed 
M109 S190.0 ; wait for hotend 
M300 S1000 P500                            ; BEEP heating done 
G28 X0 Y10 Z0                              ; move X/Y to min endstops 
M420 S1                                    ; Enable leveling 
M420 Z2.0                                  ; Set leveling fading height to 2 mm 
G0 Z0.15                                   ; lift nozzle a bit 
G92 E0                                     ; zero the extruded length 
G1 X50 E20 F500                            ; Extrude 20mm of filament in a 5cm line. 
G92 E0                                     ; zero the extruded length again 
G1 E-2 F500                                ; Retract a little 
G1 X120 F4000                              ; Quickly wipe away from the filament line`
G92 E0
G92 E0
G1 F2400 E-3
;LAYER_COUNT:53
;LAYER:0
M107
G1 F300 Z0.175
G0 F6000 X93.842 Y81.476 Z0.175
G1 F300 Z0.175
G0 F6000 X86.974 Y91.029
;TYPE:SKIRT
G1 F300 Z0.1
G1 F2400 E0
G1 F1200 X87.75 Y90.825 E0.01735
G1 X88.539 Y90.699 E0.03462
G1 X89.487 Y90.596 E0.05524
G1 X90.53 Y90.54 E0.07782
G1 X90.566 Y89.829 E0.09321
G1 X90.716 Y88.448 E0.12324
G1 X90.842 Y87.655 E0.1406
G1 X91.092 Y86.74 E0.1611
G1 X91.462 Y85.644 E0.18611
G1 X91.916 Y84.565 E0.21142
G1 X92.335 Y83.742 E0.23139
G1 X92.841 Y82.884 E0.25292
G1 X93.359 Y82.118 E0.27291
G1 X93.842 Y81.476 E0.29028
G1 X94.289 Y80.982 E0.30468
G1 X94.938 Y80.322 E0.3247
G1 X95.593 Y79.725 E0.34386
G1 X96.312 Y79.139 E0.36391
G1 X96.959 Y78.664 E0.38126
G1 X97.496 Y78.338 E0.39484
G1 X98.304 Y77.89 E0.41482
G1 X99.1 Y77.504 E0.43394
G1 X99.953 Y77.147 E0.45393
G1 X100.708 Y76.874 E0.47129
G1 X101.341 Y76.709 E0.48543
G1 X102.245 Y76.511 E0.50544
G1 X103.097 Y76.371 E0.5241
G1 X103.786 Y76.296 E0.53909
G1 X104.658 Y76.249 E0.55797
G1 X105.349 Y76.249 E0.57291
G1 X106.221 Y76.296 E0.59178
G1 X106.91 Y76.371 E0.60677
G1 X107.79 Y76.517 E0.62605
G1 X108.697 Y76.719 E0.64614
G1 X109.471 Y76.932 E0.6635
G1 X110.054 Y77.15 E0.67695
G1 X110.903 Y77.505 E0.69685
G1 X111.831 Y77.965 E0.71924
G1 X112.816 Y78.535 E0.74384
G1 X113.49 Y78.971 E0.7612
G1 X114.108 Y79.464 E0.77829
G1 X114.985 Y80.237 E0.80356
G1 X115.561 Y80.798 E0.82095
G1 X115.98 Y81.287 E0.83487
G1 X116.711 Y82.212 E0.86036
G1 X117.176 Y82.865 E0.87769
G1 X117.578 Y83.568 E0.89519
G1 X118.094 Y84.587 E0.91989
G1 X118.542 Y85.658 E0.94499
G1 X118.836 Y86.532 E0.96492
G1 X119.126 Y87.657 E0.99004
G1 X119.292 Y88.568 E1.01006
G1 X119.418 Y89.724 E1.0352
G1 X119.451 Y90.644 E1.0551
G1 X119.409 Y91.803 E1.08017
G1 X119.309 Y92.724 E1.1002
G1 X119.096 Y93.883 E1.12568
G1 X118.864 Y94.775 E1.1456
G1 X118.555 Y95.721 E1.16712
G1 X118.215 Y96.577 E1.18703
G1 X117.882 Y97.308 E1.2044
G1 X117.571 Y97.853 E1.21796
G1 X118.095 Y98.889 E1.24306
G1 X118.539 Y99.948 E1.26789
G1 X118.906 Y101.034 E1.29267
G1 X119.125 Y101.806 E1.31002
G1 X119.283 Y102.742 E1.33054
G1 X119.434 Y104.129 E1.3607
G1 X119.481 Y104.93 E1.37805
G1 X119.434 Y105.871 E1.39842
G1 X119.284 Y107.252 E1.42845
G1 X119.158 Y108.045 E1.44581
G1 X118.909 Y108.957 E1.46625
G1 X118.465 Y110.274 E1.49629
G1 X118.171 Y111.021 E1.51365
G1 X117.732 Y111.857 E1.53406
G1 X117.016 Y113.046 E1.56407
G1 X116.568 Y113.712 E1.58142
G1 X115.958 Y114.436 E1.60189
G1 X115.161 Y115.276 E1.62692
G1 X114.302 Y116.059 E1.65205
G1 X113.576 Y116.631 E1.67203
G1 X112.613 Y117.283 E1.69717
G1 X111.815 Y117.743 E1.71709
G1 X110.907 Y118.193 E1.739
G1 X110.268 Y118.461 E1.75398
G1 X109.451 Y118.753 E1.77273
G1 X108.571 Y119.015 E1.79258
G1 X107.791 Y119.205 E1.80994
G1 X107.142 Y119.303 E1.82413
G1 X106.213 Y119.404 E1.84433
G1 X105.342 Y119.451 E1.86319
G1 X104.652 Y119.451 E1.87811
G1 X103.782 Y119.404 E1.89694
G1 X103.091 Y119.329 E1.91197
G1 X102.074 Y119.152 E1.93429
G1 X101.177 Y118.936 E1.95423
G1 X100.211 Y118.638 E1.97609
G1 X99.561 Y118.392 E1.99111
G1 X98.765 Y118.041 E2.00992
G1 X97.857 Y117.574 E2.03199
G1 X96.603 Y118.195 E2.06225
G1 X95.748 Y118.553 E2.08229
G1 X94.993 Y118.825 E2.09964
G1 X94.361 Y118.991 E2.11376
G1 X93.458 Y119.189 E2.13375
G1 X92.604 Y119.329 E2.15246
G1 X91.915 Y119.404 E2.16744
G1 X91.043 Y119.451 E2.18632
G1 X90.1 Y119.451 E2.20671
G1 X89.298 Y119.411 E2.22407
G1 X88.501 Y119.291 E2.24149
G1 X87.177 Y119.023 E2.2707
G1 X86.399 Y118.825 E2.28805
G1 X85.664 Y118.558 E2.30496
G1 X84.792 Y118.193 E2.32539
G1 X83.986 Y117.802 E2.34476
G1 X83.177 Y117.352 E2.36477
G1 X82.496 Y116.927 E2.38213
G1 X81.991 Y116.546 E2.39581
G1 X81.276 Y115.961 E2.41578
G1 X80.62 Y115.361 E2.435
G1 X79.974 Y114.701 E2.45496
G1 X79.442 Y114.1 E2.47232
G1 X79.06 Y113.582 E2.48623
G1 X78.54 Y112.814 E2.50628
G1 X78.024 Y111.938 E2.52826
G1 X77.607 Y111.115 E2.54821
G1 X77.158 Y110.044 E2.57331
G1 X76.791 Y108.954 E2.59818
G1 X76.573 Y108.181 E2.61554
G1 X76.418 Y107.257 E2.6358
G1 X76.267 Y105.874 E2.66587
G1 X76.219 Y105.072 E2.68324
G1 X76.266 Y104.13 E2.70363
G1 X76.416 Y102.747 E2.73371
G1 X76.542 Y101.954 E2.75107
G1 X76.794 Y101.034 E2.77169
G1 X77.164 Y99.94 E2.79666
G1 X77.613 Y98.872 E2.8217
G1 X78.031 Y98.049 E2.84166
G1 X78.625 Y97.061 E2.86658
G1 X79.157 Y96.305 E2.88657
G1 X79.903 Y95.394 E2.91202
G1 X80.538 Y94.725 E2.93196
G1 X81.295 Y94.024 E2.95427
G1 X82.022 Y93.432 E2.97454
G1 X82.669 Y92.957 E2.99189
G1 X83.218 Y92.624 E3.00577
G1 X84.246 Y92.057 E3.03115
G1 X84.968 Y91.705 E3.04852
G1 X85.703 Y91.432 E3.06547
G1 X86.974 Y91.029 E3.09429
G1 F2400 E0.09429
G1 F300 Z0.175
G0 F6000 X83.131 Y98.791 Z0.175
G1 F300 Z0.1
G1 F2400 E3.09429
G1 F1200 X84.079 Y97.793 E3.12405
G1 X84.977 Y97.061 E3.1491
G1 X85.479 Y96.722 E3.1622
G1 X86.507 Y96.155 E3.18758
G1 X87.117 Y95.893 E3.20193
G1 X88.388 Y95.49 E3.23075
G1 X89.045 Y95.352 E3.24527
G1 X90.177 Y95.229 E3.26988
G1 X91.23 Y95.229 E3.29265
G1 X92.353 Y95.351 E3.31707
G1 X93.01 Y95.489 E3.33158
G1 X94.296 Y95.897 E3.36075
G1 X94.913 Y96.163 E3.37528
G1 X95.897 Y96.709 E3.39961
G1 X96.763 Y97.319 E3.42251
G1 X97.422 Y97.901 E3.44152
G1 X97.855 Y98.345 E3.45492
G1 X98.325 Y97.85 E3.46968
G1 X97.422 Y96.897 E3.49806
G1 X96.605 Y95.735 E3.52877
G1 X95.972 Y94.484 E3.55908
G1 X95.527 Y93.164 E3.5892
G1 X95.37 Y92.45 E3.605
G1 X95.219 Y91.065 E3.63512
G1 X95.219 Y90.334 E3.65093
G1 X95.369 Y88.953 E3.68096
G1 X95.527 Y88.237 E3.69681
G1 X95.977 Y86.904 E3.72723
G1 X96.6 Y85.681 E3.7569
G1 X97.236 Y84.74 E3.78145
G1 X97.626 Y84.263 E3.79477
G1 X98.403 Y83.473 E3.81873
G1 X99.269 Y82.767 E3.84288
G1 X99.765 Y82.431 E3.85584
G1 X100.736 Y81.892 E3.87985
G1 X101.76 Y81.464 E3.90384
G1 X102.342 Y81.28 E3.91704
G1 X103.42 Y81.044 E3.94089
G1 X104.476 Y80.929 E3.96386
G1 X105.531 Y80.929 E3.98667
G1 X106.59 Y81.044 E4.00969
G1 X107.68 Y81.287 E4.03384
G1 X108.249 Y81.468 E4.04675
G1 X109.298 Y81.907 E4.07133
G1 X110.472 Y82.586 E4.10065
G1 X111.014 Y82.975 E4.11507
G1 X111.891 Y83.748 E4.14035
G1 X112.308 Y84.188 E4.15345
G1 X113.039 Y85.113 E4.17894
G1 X113.402 Y85.682 E4.19353
G1 X114.031 Y86.925 E4.22365
G1 X114.477 Y88.251 E4.2539
G1 X114.732 Y89.649 E4.28462
G1 X114.783 Y91.053 E4.31499
G1 X114.629 Y92.467 E4.34574
G1 X114.282 Y93.799 E4.3755
G1 X113.865 Y94.85 E4.39994
G1 X113.588 Y95.398 E4.41322
G1 X112.971 Y96.382 E4.43833
G1 X112.6 Y96.868 E4.45155
G1 X111.689 Y97.863 E4.48071
G1 X112.578 Y98.804 E4.5087
G1 X113.391 Y99.959 E4.53923
G1 X114.027 Y101.216 E4.56969
G1 X114.472 Y102.532 E4.59972
G1 X114.63 Y103.248 E4.61557
G1 X114.781 Y104.635 E4.64574
G1 X114.781 Y105.366 E4.66154
G1 X114.631 Y106.747 E4.69157
G1 X114.474 Y107.462 E4.7074
G1 X114.03 Y108.779 E4.73744
G1 X113.723 Y109.443 E4.75326
G1 X113.007 Y110.632 E4.78327
G1 X112.563 Y111.214 E4.79909
G1 X111.596 Y112.234 E4.82948
G1 X110.491 Y113.104 E4.85988
G1 X109.293 Y113.795 E4.88978
G1 X108.295 Y114.214 E4.91318
G1 X107.235 Y114.529 E4.93709
G1 X106.636 Y114.65 E4.9503
G1 X105.523 Y114.771 E4.9745
G1 X104.471 Y114.771 E4.99725
G1 X103.38 Y114.653 E5.02097
G1 X102.068 Y114.337 E5.05015
G1 X101.043 Y113.949 E5.07384
G1 X100.039 Y113.439 E5.09819
G1 X99.473 Y113.077 E5.11271
G1 X98.397 Y112.227 E5.14236
G1 X97.856 Y111.655 E5.15938
G1 X97.416 Y112.105 E5.17298
G1 X96.702 Y112.733 E5.19354
G1 X96.158 Y113.123 E5.20801
G1 X94.99 Y113.796 E5.23715
G1 X93.94 Y114.236 E5.26177
G1 X93.359 Y114.42 E5.27494
G1 X92.284 Y114.656 E5.29874
G1 X91.225 Y114.771 E5.32177
G1 X90.1 Y114.771 E5.34609
G1 X89.429 Y114.704 E5.36067
G1 X88.105 Y114.436 E5.38987
G1 X87.471 Y114.241 E5.40421
G1 X86.425 Y113.803 E5.42873
G1 X85.452 Y113.262 E5.45279
G1 X84.955 Y112.924 E5.46579
G1 X84.093 Y112.218 E5.48988
G1 X83.318 Y111.427 E5.51382
G1 X82.935 Y110.958 E5.52691
G1 X82.296 Y110.014 E5.55155
G1 X81.672 Y108.784 E5.58137
G1 X81.227 Y107.461 E5.61155
G1 X81.07 Y106.749 E5.62731
G1 X80.919 Y105.366 E5.65739
G1 X80.919 Y104.635 E5.67319
G1 X81.069 Y103.252 E5.70326
G1 X81.227 Y102.533 E5.71918
G1 X81.676 Y101.206 E5.74947
G1 X82.31 Y99.957 E5.77975
G1 X83.131 Y98.791 E5.81058
G1 F2400 E2.81058
G1 F300 Z0.175
G0 F6000 X81.953 Y104.747 Z0.175
G1 F300 Z0.1
G1 F2400 E5.81058
G1 F1200 X82.103 Y103.364 E5.84065
G1 X82.212 Y102.866 E5.85167
G1 X82.635 Y101.616 E5.8802
G1 X83.209 Y100.486 E5.9076
G1 X83.931 Y99.46 E5.93473
G1 X84.794 Y98.55 E5.96184
G1 X85.793 Y97.737 E5.98968
G1 X87.213 Y96.953 E6.02475
G1 X88.922 Y96.412 E6.06351
G1 X90.234 Y96.269 E6.09204
G1 X91.173 Y96.269 E6.11234
G1 X92.473 Y96.41 E6.14061
G1 X94.204 Y96.96 E6.17987
G1 X95.347 Y97.593 E6.20812
G1 X96.121 Y98.139 E6.2286
G1 X96.828 Y98.763 E6.24899
G1 X97.381 Y99.368 E6.26671
G1 X97.831 Y99.976 E6.28306
G1 X98.191 Y99.501 E6.29594
G1 X99.102 Y98.54 E6.32457
G1 X99.986 Y97.847 E6.34885
G1 X99.289 Y97.354 E6.36731
G1 X98.227 Y96.235 E6.40066
G1 X97.503 Y95.206 E6.42786
G1 X96.934 Y94.079 E6.45516
G1 X96.513 Y92.832 E6.48361
G1 X96.404 Y92.338 E6.49455
G1 X96.253 Y90.953 E6.52467
G1 X96.253 Y90.446 E6.53563
G1 X96.403 Y89.065 E6.56566
G1 X96.512 Y88.57 E6.57662
G1 X96.937 Y87.312 E6.60533
G1 X97.498 Y86.209 E6.63208
G1 X98.218 Y85.144 E6.65987
G1 X99.107 Y84.241 E6.68727
G1 X100.086 Y83.442 E6.71459
G1 X101.194 Y82.828 E6.74197
G1 X102.357 Y82.341 E6.76923
G1 X103.586 Y82.072 E6.79643
G1 X104.534 Y81.969 E6.81704
G1 X105.473 Y81.969 E6.83735
G1 X106.423 Y82.072 E6.858
G1 X107.657 Y82.347 E6.88534
G1 X108.832 Y82.838 E6.91287
G1 X110.151 Y83.602 E6.94582
G1 X111.364 Y84.671 E6.98078
G1 X112.369 Y85.943 E7.01582
G1 X113.067 Y87.32 E7.0492
G1 X113.468 Y88.515 E7.07645
G1 X113.695 Y89.758 E7.10377
G1 X113.74 Y91.019 E7.13104
G1 X113.603 Y92.281 E7.15849
G1 X113.293 Y93.475 E7.18516
G1 X112.82 Y94.665 E7.21284
G1 X111.978 Y96.008 E7.24711
G1 X111.013 Y97.061 E7.27799
G1 X110.036 Y97.86 E7.30527
G1 X110.901 Y98.545 E7.32913
G1 X111.773 Y99.466 E7.35655
G1 X112.496 Y100.492 E7.38368
G1 X113.066 Y101.619 E7.41099
G1 X113.487 Y102.865 E7.43942
G1 X113.596 Y103.361 E7.4504
G1 X113.747 Y104.748 E7.48056
G1 X113.747 Y105.254 E7.4915
G1 X113.597 Y106.635 E7.52153
G1 X113.488 Y107.13 E7.53249
G1 X113.044 Y108.447 E7.56254
G1 X112.832 Y108.906 E7.57347
G1 X112.116 Y110.095 E7.60347
G1 X111.809 Y110.499 E7.61444
G1 X110.899 Y111.458 E7.64303
G1 X109.903 Y112.243 E7.67044
G1 X108.83 Y112.861 E7.69721
G1 X107.937 Y113.236 E7.71815
G1 X106.738 Y113.593 E7.7452
G1 X105.466 Y113.731 E7.77286
G1 X104.529 Y113.731 E7.79311
G1 X103.556 Y113.625 E7.81427
G1 X102.371 Y113.34 E7.84062
G1 X101.468 Y112.998 E7.8615
G1 X100.302 Y112.407 E7.88976
G1 X99.099 Y111.456 E7.92291
G1 X98.346 Y110.66 E7.9466
G1 X97.863 Y110.017 E7.96399
G1 X97.551 Y110.446 E7.97546
G1 X96.827 Y111.238 E7.99865
G1 X95.839 Y112.107 E8.0271
G1 X94.532 Y112.86 E8.05971
G1 X93.341 Y113.359 E8.08763
G1 X92.115 Y113.628 E8.11476
G1 X91.167 Y113.731 E8.13538
G1 X89.868 Y113.731 E8.16346
G1 X88.08 Y113.369 E8.2029
G1 X86.887 Y112.87 E8.23086
G1 X85.774 Y112.25 E8.2584
G1 X84.799 Y111.453 E8.28563
G1 X83.913 Y110.548 E8.31301
G1 X83.195 Y109.488 E8.34069
G1 X82.632 Y108.375 E8.36765
G1 X82.212 Y107.129 E8.39608
G1 X82.104 Y106.636 E8.40699
G1 X81.953 Y105.253 E8.43706
G1 X81.953 Y104.747 E8.448
G0 F6000 X81.436 Y104.691
G1 F1200 X81.586 Y103.308 E8.47808
G1 X81.72 Y102.7 E8.49154
G1 X82.157 Y101.409 E8.521
G1 X82.76 Y100.22 E8.54983
G1 X83.53 Y99.127 E8.57873
G1 X84.439 Y98.17 E8.60727
G1 X85.305 Y97.464 E8.63142
G1 X85.73 Y97.178 E8.6425
G1 X86.758 Y96.611 E8.66788
G1 X87.275 Y96.389 E8.68004
G1 X88.546 Y95.986 E8.70887
G1 X89.101 Y95.869 E8.72113
G1 X90.205 Y95.749 E8.74514
G1 X91.202 Y95.749 E8.76669
G1 X92.297 Y95.868 E8.7905
G1 X92.853 Y95.985 E8.80279
G1 X94.139 Y96.393 E8.83195
G1 X94.661 Y96.618 E8.84424
G1 X95.625 Y97.153 E8.86808
G1 X96.437 Y97.725 E8.88955
G1 X97.199 Y98.398 E8.91153
G1 X97.847 Y99.107 E8.9323
G1 X98.611 Y98.303 E8.95627
G1 X99.084 Y97.896 E8.96976
G1 X97.828 Y96.57 E9.00925
G1 X97.057 Y95.475 E9.0382
G1 X96.451 Y94.277 E9.06723
G1 X96.02 Y92.998 E9.09641
G1 X95.887 Y92.394 E9.10978
G1 X95.736 Y91.009 E9.1399
G1 X95.736 Y90.39 E9.15328
G1 X95.886 Y89.009 E9.18331
G1 X96.019 Y88.403 E9.19672
G1 X96.456 Y87.109 E9.22625
G1 X97.047 Y85.948 E9.25441
G1 X97.667 Y85.031 E9.27835
G1 X97.997 Y84.628 E9.28961
G1 X98.759 Y83.853 E9.3131
G1 X99.597 Y83.17 E9.33648
G1 X100.017 Y82.886 E9.34744
G1 X100.962 Y82.362 E9.3708
G1 X101.961 Y81.944 E9.39421
G1 X102.453 Y81.788 E9.40537
G1 X103.502 Y81.558 E9.42858
G1 X104.506 Y81.449 E9.45042
G1 X105.502 Y81.449 E9.47195
G1 X106.511 Y81.559 E9.49389
G1 X107.567 Y81.794 E9.51728
G1 X108.048 Y81.947 E9.52819
G1 X109.061 Y82.371 E9.55193
G1 X110.211 Y83.036 E9.58065
G1 X110.67 Y83.365 E9.59286
G1 X111.547 Y84.138 E9.61814
G1 X111.9 Y84.511 E9.62924
G1 X112.631 Y85.436 E9.65473
G1 X112.939 Y85.917 E9.66708
G1 X113.548 Y87.119 E9.69621
G1 X113.974 Y88.387 E9.72513
G1 X114.213 Y89.7 E9.75398
G1 X114.261 Y91.035 E9.78286
G1 X114.116 Y92.372 E9.81193
G1 X113.788 Y93.637 E9.84018
G1 X113.382 Y94.658 E9.86394
G1 X113.147 Y95.121 E9.87516
G1 X112.53 Y96.105 E9.90027
G1 X112.217 Y96.517 E9.91146
G1 X111.513 Y97.286 E9.934
G1 X110.865 Y97.853 E9.95261
G1 X111.395 Y98.31 E9.96774
G1 X112.175 Y99.135 E9.99229
G1 X112.942 Y100.224 E10.02109
G1 X113.546 Y101.417 E10.04999
G1 X113.979 Y102.698 E10.07923
G1 X114.113 Y103.304 E10.09264
G1 X114.264 Y104.691 E10.12281
G1 X114.264 Y105.31 E10.13619
G1 X114.114 Y106.691 E10.16622
G1 X113.981 Y107.296 E10.17961
G1 X113.537 Y108.613 E10.20966
G1 X113.277 Y109.174 E10.22303
G1 X112.561 Y110.363 E10.25303
G1 X112.186 Y110.857 E10.26644
G1 X111.247 Y111.846 E10.29593
G1 X110.199 Y112.673 E10.32479
G1 X109.066 Y113.326 E10.35306
